(Generated by PartKam Version 0.05)

G21 G90 G40

(profile 1)
G0 Z3
T0 M6
G17
M3
G0 X-0.6104060913705583 Y43.07766497461929
G1 Z-1 F80
G1 X-0.6116751269035533 Y0.1903553299492386 F200
G3 X0.1903553299492386 Y-0.6091370558375635 I0.799492385786802 J0
G1 X40.464467005076145 Y-0.6091370558375635
G3 X41.266497461928935 Y0.1903553299492386 I0 J0.799492385786802
G1 X41.266497461928935 Y43.078680203045685
G3 X40.464467005076145 Y43.87817258883249 I-0.799492385786802 J0
G1 X0.1903553299492386 Y43.87817258883249
G3 X-0.6116751269035533 Y43.078680203045685 I0 J-0.799492385786802
G1 Z-2 F80
G1 X-0.6116751269035533 Y0.1903553299492386 F200
G3 X0.1903553299492386 Y-0.6091370558375635 I0.799492385786802 J0
G1 X40.464467005076145 Y-0.6091370558375635
G3 X41.266497461928935 Y0.1903553299492386 I0 J0.799492385786802
G1 X41.266497461928935 Y43.078680203045685
G3 X40.464467005076145 Y43.87817258883249 I-0.799492385786802 J0
G1 X0.1903553299492386 Y43.87817258883249
G3 X-0.6116751269035533 Y43.078680203045685 I0 J-0.799492385786802
G0 Z3
M5
M30
