(Generated by PartKam Version 0.05)

G21 G90 G40

(drill 1)
G0 Z15
T0 M6
G17
M3
G0 X10.134010152284263 Y38.738832487309644
G1 Z-1.5 F800
G1 Z0 F800
G1 Z-2.2 F800
G1 Z0 F800
G0 Z15
G0 X5.109644670050762 Y38.654060913705585
G1 Z-1.5 F800
G1 Z0 F800
G1 Z-2.2 F800
G1 Z0 F800
G0 Z15
M5
M30
