(Generated by PartKam Version 0.05)

G21 G90 G40

(drill 1)
G0 Z15
T0 M6
G17
M3
G0 X9.469543147208121 Y19.639086294416245
G1 Z-1.5 F400
G1 Z0 F400
G1 Z-2.2 F400
G1 Z0 F400
G0 Z15
G0 X9.469543147208121 Y17.099238578680204
G1 Z-1.5 F400
G1 Z0 F400
G1 Z-2.2 F400
G1 Z0 F400
G0 Z15
G0 X9.469543147208121 Y14.559137055837564
G1 Z-1.5 F400
G1 Z0 F400
G1 Z-2.2 F400
G1 Z0 F400
G0 Z15
G0 X7.033756345177665 Y30.451015228426396
G1 Z-1.5 F400
G1 Z0 F400
G1 Z-2.2 F400
G1 Z0 F400
G0 Z15
G0 X4.493654822335025 Y30.451015228426396
G1 Z-1.5 F400
G1 Z0 F400
G1 Z-2.2 F400
G1 Z0 F400
G0 Z15
G0 X33.46269035532995 Y17.048223350253807
G1 Z-1.5 F400
G1 Z0 F400
G1 Z-2.2 F400
G1 Z0 F400
G0 Z15
G0 X33.46269035532995 Y14.508121827411168
G1 Z-1.5 F400
G1 Z0 F400
G1 Z-2.2 F400
G1 Z0 F400
G0 Z15
G0 X33.46269035532995 Y11.968020304568528
G1 Z-1.5 F400
G1 Z0 F400
G1 Z-2.2 F400
G1 Z0 F400
G0 Z15
G0 X33.46269035532995 Y9.428172588832487
G1 Z-1.5 F400
G1 Z0 F400
G1 Z-2.2 F400
G1 Z0 F400
G0 Z15
G0 X33.46269035532995 Y6.888071065989847
G1 Z-1.5 F400
G1 Z0 F400
G1 Z-2.2 F400
G1 Z0 F400
G0 Z15
G0 X33.46269035532995 Y4.348223350253807
G1 Z-1.5 F400
G1 Z0 F400
G1 Z-2.2 F400
G1 Z0 F400
G0 Z15
G0 X4.9860406091370555 Y17.421319796954315
G1 Z-1.5 F400
G1 Z0 F400
G1 Z-2.2 F400
G1 Z0 F400
G0 Z15
G0 X4.9860406091370555 Y14.881218274111674
G1 Z-1.5 F400
G1 Z0 F400
G1 Z-2.2 F400
G1 Z0 F400
G0 Z15
G0 X4.9860406091370555 Y12.341116751269036
G1 Z-1.5 F400
G1 Z0 F400
G1 Z-2.2 F400
G1 Z0 F400
G0 Z15
G0 X4.9860406091370555 Y9.801269035532995
G1 Z-1.5 F400
G1 Z0 F400
G1 Z-2.2 F400
G1 Z0 F400
G0 Z15
G0 X4.9860406091370555 Y7.261167512690355
G1 Z-1.5 F400
G1 Z0 F400
G1 Z-2.2 F400
G1 Z0 F400
G0 Z15
G0 X4.9860406091370555 Y4.721319796954314
G1 Z-1.5 F400
G1 Z0 F400
G1 Z-2.2 F400
G1 Z0 F400
G0 Z15
G0 X2.132233502538071 Y12.367005076142132
G1 Z-1.5 F400
G1 Z0 F400
G1 Z-2.2 F400
G1 Z0 F400
G0 Z15
G0 X2.132233502538071 Y22.526903553299494
G1 Z-1.5 F400
G1 Z0 F400
G1 Z-2.2 F400
G1 Z0 F400
G0 Z15
G0 X13.758375634517767 Y34.99517766497462
G1 Z-1.5 F400
G1 Z0 F400
G1 Z-2.2 F400
G1 Z0 F400
G0 Z15
G0 X16.298477157360406 Y34.99517766497462
G1 Z-1.5 F400
G1 Z0 F400
G1 Z-2.2 F400
G1 Z0 F400
G0 Z15
G0 X18.838324873096447 Y34.99517766497462
G1 Z-1.5 F400
G1 Z0 F400
G1 Z-2.2 F400
G1 Z0 F400
G0 Z15
G0 X21.378426395939087 Y34.99517766497462
G1 Z-1.5 F400
G1 Z0 F400
G1 Z-2.2 F400
G1 Z0 F400
G0 Z15
G0 X23.918527918781727 Y34.99517766497462
G1 Z-1.5 F400
G1 Z0 F400
G1 Z-2.2 F400
G1 Z0 F400
G0 Z15
G0 X26.458375634517765 Y34.99517766497462
G1 Z-1.5 F400
G1 Z0 F400
G1 Z-2.2 F400
G1 Z0 F400
G0 Z15
G0 X12.488324873096447 Y32.45507614213198
G1 Z-1.5 F400
G1 Z0 F400
G1 Z-2.2 F400
G1 Z0 F400
G0 Z15
G0 X12.488324873096447 Y29.915228426395938
G1 Z-1.5 F400
G1 Z0 F400
G1 Z-2.2 F400
G1 Z0 F400
G0 Z15
G0 X12.488324873096447 Y27.375126903553298
G1 Z-1.5 F400
G1 Z0 F400
G1 Z-2.2 F400
G1 Z0 F400
G0 Z15
G0 X12.488324873096447 Y24.83527918781726
G1 Z-1.5 F400
G1 Z0 F400
G1 Z-2.2 F400
G1 Z0 F400
G0 Z15
G0 X12.488324873096447 Y22.29517766497462
G1 Z-1.5 F400
G1 Z0 F400
G1 Z-2.2 F400
G1 Z0 F400
G0 Z15
G0 X15.40989847715736 Y23.692131979695432
G1 Z-1.5 F400
G1 Z0 F400
G1 Z-2.2 F400
G1 Z0 F400
G0 Z15
G0 X15.40989847715736 Y21.15228426395939
G1 Z-1.5 F400
G1 Z0 F400
G1 Z-2.2 F400
G1 Z0 F400
G0 Z15
G0 X12.488324873096447 Y19.75532994923858
G1 Z-1.5 F400
G1 Z0 F400
G1 Z-2.2 F400
G1 Z0 F400
G0 Z15
G0 X12.488324873096447 Y17.21522842639594
G1 Z-1.5 F400
G1 Z0 F400
G1 Z-2.2 F400
G1 Z0 F400
G0 Z15
G0 X12.488324873096447 Y14.6751269035533
G1 Z-1.5 F400
G1 Z0 F400
G1 Z-2.2 F400
G1 Z0 F400
G0 Z15
G0 X12.488324873096447 Y12.13527918781726
G1 Z-1.5 F400
G1 Z0 F400
G1 Z-2.2 F400
G1 Z0 F400
G0 Z15
G0 X12.488324873096447 Y9.595177664974619
G1 Z-1.5 F400
G1 Z0 F400
G1 Z-2.2 F400
G1 Z0 F400
G0 Z15
G0 X12.488324873096447 Y7.055329949238579
G1 Z-1.5 F400
G1 Z0 F400
G1 Z-2.2 F400
G1 Z0 F400
G0 Z15
G0 X12.488324873096447 Y4.5152284263959395
G1 Z-1.5 F400
G1 Z0 F400
G1 Z-2.2 F400
G1 Z0 F400
G0 Z15
G0 X27.728426395939085 Y4.5152284263959395
G1 Z-1.5 F400
G1 Z0 F400
G1 Z-2.2 F400
G1 Z0 F400
G0 Z15
G0 X27.728426395939085 Y7.055329949238579
G1 Z-1.5 F400
G1 Z0 F400
G1 Z-2.2 F400
G1 Z0 F400
G0 Z15
G0 X27.728426395939085 Y9.595177664974619
G1 Z-1.5 F400
G1 Z0 F400
G1 Z-2.2 F400
G1 Z0 F400
G0 Z15
G0 X27.728426395939085 Y12.13527918781726
G1 Z-1.5 F400
G1 Z0 F400
G1 Z-2.2 F400
G1 Z0 F400
G0 Z15
G0 X27.728426395939085 Y14.6751269035533
G1 Z-1.5 F400
G1 Z0 F400
G1 Z-2.2 F400
G1 Z0 F400
G0 Z15
G0 X27.728426395939085 Y17.21522842639594
G1 Z-1.5 F400
G1 Z0 F400
G1 Z-2.2 F400
G1 Z0 F400
G0 Z15
G0 X27.728426395939085 Y19.75532994923858
G1 Z-1.5 F400
G1 Z0 F400
G1 Z-2.2 F400
G1 Z0 F400
G0 Z15
G0 X27.728426395939085 Y22.29517766497462
G1 Z-1.5 F400
G1 Z0 F400
G1 Z-2.2 F400
G1 Z0 F400
G0 Z15
G0 X27.728426395939085 Y24.83527918781726
G1 Z-1.5 F400
G1 Z0 F400
G1 Z-2.2 F400
G1 Z0 F400
G0 Z15
G0 X27.728426395939085 Y27.375126903553298
G1 Z-1.5 F400
G1 Z0 F400
G1 Z-2.2 F400
G1 Z0 F400
G0 Z15
G0 X27.728426395939085 Y29.915228426395938
G1 Z-1.5 F400
G1 Z0 F400
G1 Z-2.2 F400
G1 Z0 F400
G0 Z15
G0 X27.728426395939085 Y32.45507614213198
G1 Z-1.5 F400
G1 Z0 F400
G1 Z-2.2 F400
G1 Z0 F400
G0 Z15
G0 X32.6763959390863 Y40.4248730964467
G1 Z-1.5 F400
G1 Z0 F400
G1 Z-2.2 F400
G1 Z0 F400
G0 Z15
G0 X32.6763959390863 Y40.399238578680205
G1 Z-1.5 F400
G1 Z0 F400
G1 Z-2.2 F400
G1 Z0 F400
G0 Z15
G0 X32.6763959390863 Y32.83020304568528
G1 Z-1.5 F400
G1 Z0 F400
G1 Z-2.2 F400
G1 Z0 F400
G0 Z15
G0 X30.756598984771575 Y30.134771573604063
G1 Z-1.5 F400
G1 Z0 F400
G1 Z-2.2 F400
G1 Z0 F400
G0 Z15
G0 X30.756598984771575 Y19.9748730964467
G1 Z-1.5 F400
G1 Z0 F400
G1 Z-2.2 F400
G1 Z0 F400
G0 Z15
G0 X36.518781725888324 Y25.481979695431473
G1 Z-1.5 F400
G1 Z0 F400
G1 Z-2.2 F400
G1 Z0 F400
G0 Z15
G0 X36.518781725888324 Y25.481979695431473
G1 Z-1.5 F400
G1 Z0 F400
G1 Z-2.2 F400
G1 Z0 F400
G0 Z15
G0 X36.518781725888324 Y28.02208121827411
G1 Z-1.5 F400
G1 Z0 F400
G1 Z-2.2 F400
G1 Z0 F400
G0 Z15
G0 X36.518781725888324 Y30.56192893401015
G1 Z-1.5 F400
G1 Z0 F400
G1 Z-2.2 F400
G1 Z0 F400
G0 Z15
G0 X36.53578680203046 Y38.6256345177665
G1 Z-1.5 F400
G1 Z0 F400
G1 Z-2.2 F400
G1 Z0 F400
G0 Z15
G0 X36.53578680203046 Y38.6256345177665
G1 Z-1.5 F400
G1 Z0 F400
G1 Z-2.2 F400
G1 Z0 F400
G0 Z15
G0 X36.53578680203046 Y36.08553299492386
G1 Z-1.5 F400
G1 Z0 F400
G1 Z-2.2 F400
G1 Z0 F400
G0 Z15
M5
M30
