(Generated by PartKam Version 0.05)

G21 G90 G40

(profile 1)
G0 Z2
T0 M6
G17
M3
G0 X22.06269035532995 Y3.1890862944162435
G1 Z-0.25 F50
G1 X17.885786802030456 Y26.18527918781726 F150
G3 X17.845177664974617 Y26.3502538071066 I-0.49746192893401014 J-0.03553299492385787
G3 X17.743654822335024 Y26.5 I-0.4593908629441624 J-0.20050761421319796
G1 X17.728426395939085 Y26.517766497461928
G1 X17.710659898477157 Y26.53299492385787
G3 X17.560913705583758 Y26.621827411167512 I-0.32741116751269034 J-0.3756345177664975
G3 X17.385786802030456 Y26.65482233502538 I-0.17766497461928935 J-0.46700507614213194
G3 X17.279187817258883 Y26.644670050761423 I-0.002538071065989848 J-0.5
G3 X17.192893401015226 Y26.616751269035532 I0.10406091370558375 J-0.48984771573604063
G1 X13.342639593908629 Y25.581218274111674
G3 X13.251269035532996 Y25.6751269035533 I-0.8629441624365481 J-0.7538071065989848
G3 X13.027918781725889 Y25.83248730964467 I-0.7690355329949239 J-0.8451776649746192
G3 X12.766497461928934 Y25.934010152284266 I-0.5406091370558376 J-0.9898477157360407
G3 X12.48730964467005 Y25.96954314720812 I-0.27918781725888325 J-1.0939086294416243
G3 X12.055837563451776 Y25.883248730964468 I0 J-1.1269035532994924
G3 X11.687817258883248 Y25.63705583756345 I0.4390862944162437 J-1.0558375634517767
G3 X11.439086294416242 Y25.269035532994923 I0.8071065989847716 J-0.8071065989847716
G3 X11.352791878172589 Y24.83502538071066 I1.0406091370558377 J-0.4314720812182741
G3 X11.35532994923858 Y24.80203045685279 I0.1954314720812183 J0
G1 X11.388324873096447 Y24.619289340101524
G1 X7.350253807106599 Y21.517766497461928
G3 X7.279187817258883 Y21.46446700507614 I0.2563451776649746 J-0.4289340101522843
G3 X7.213197969543147 Y21.395939086294415 I0.3299492385786802 J-0.3756345177664975
G3 X7.152284263959391 Y21.299492385786802 I0.3857868020304569 J-0.31725888324873097
G3 X7.1116751269035525 Y21.19035532994924 I0.44923857868020306 J-0.22081218274111675
G3 X7.098984771573605 Y21.078680203045685 I0.4873096446700508 J-0.1116751269035533
G1 X7.098984771573605 Y21.076142131979694
G3 X7.1091370558375635 Y20.98477157360406 I0.5 J0.002538071065989848
G1 X7.1091370558375635 Y17.068527918781726
G1 X5.550761421319796 Y15.918781725888325
G3 X5.520304568527918 Y15.936548223350254 I-0.5913705583756345 J-1.0685279187817258
G3 X5.355329949238579 Y16.007614213197968 I-0.5406091370558376 J-1.0482233502538072
G3 X5.1725888324873095 Y16.050761421319798 I-0.3680203045685279 J-1.1015228426395938
G3 X4.987309644670051 Y16.065989847715734 I-0.18781725888324874 J-1.1421319796954315
G3 X4.535532994923858 Y15.97715736040609 I0 J-1.1751269035532994
G3 X4.149746192893401 Y15.718274111675129 I0.4593908629441624 J-1.1015228426395938
G3 X3.8908629441624365 Y15.33248730964467 I0.8451776649746192 J-0.8451776649746192
G3 X3.799492385786802 Y14.880710659898478 I1.0837563451776648 J-0.45177664974619286
G3 X3.8908629441624365 Y14.428934010152282 I1.1751269035532994 J0
G3 X4.149746192893401 Y14.043147208121827 I1.1040609137055837 J0.4593908629441624
G3 X4.535532994923858 Y13.786802030456853 I0.8451776649746192 J0.8451776649746192
G3 X4.987309644670051 Y13.695431472081218 I0.45177664974619286 J1.0837563451776648
G3 X5.439086294416243 Y13.786802030456853 I0 J1.1751269035532994
G3 X5.822335025380711 Y14.043147208121827 I-0.4593908629441624 J1.1015228426395938
G3 X6.081218274111675 Y14.428934010152282 I-0.8451776649746192 J0.8451776649746192
G3 X6.17258883248731 Y14.880710659898478 I-1.0862944162436547 J0.45177664974619286
G3 X6.167512690355331 Y14.916243654822335 I-0.1954314720812183 J0
G1 X6.134517766497462 Y15.109137055837563
G1 X7.903553299492386 Y16.413705583756347
G1 X7.9213197969543145 Y16.428934010152286
G1 X7.939086294416243 Y16.441624365482234
G3 X8.02284263959391 Y16.53553299492386 I-0.32741116751269034 J0.3781725888324873
G3 X8.081218274111675 Y16.64720812182741 I-0.4111675126903553 J0.28426395939086296
G3 X8.109137055837563 Y16.769035532994923 I-0.46954314720812185 J0.17258883248730966
G3 X8.111675126903554 Y16.81979695431472 I-0.49746192893401014 J0.050761421319796954
G3 X8.106598984771573 Y16.878172588832488 I-0.5 J0
G1 X8.106598984771573 Y20.83756345177665
G1 X11.98730964467005 Y23.81979695431472
G1 X12.00507614213198 Y23.80964467005076
G3 X12.154822335025381 Y23.751269035532996 I0.4847715736040609 J1.017766497461929
G3 X12.319796954314722 Y23.713197969543145 I0.33248730964467005 J1.0685279187817258
G3 X12.48730964467005 Y23.700507614213198 I0.16751269035532995 J1.1091370558375635
G3 X12.903553299492385 Y23.779187817258883 I0 J1.119289340101523
G3 X13.261421319796954 Y24.007614213197968 I-0.4213197969543147 J1.0532994923857868
G3 X13.51015228426396 Y24.350253807106597 I-0.7868020304568528 J0.83248730964467
G3 X13.596446700507613 Y24.616751269035536 I-1.0253807106598984 J0.4873096446700508
G1 X16.98984771573604 Y25.527918781725887
G1 X21.15228426395939 Y2.6015228426395938
G3 X21.18527918781726 Y2.5 I0.49238578680203043 J0.09137055837563453
G3 X21.236040609137056 Y2.4060913705583755 I0.4619289340101523 J0.19289340101522845
G3 X21.251269035532996 Y2.383248730964467 I0.4086294416243655 J0.2868020304568528
G3 X21.269035532994923 Y2.3629441624365484 I0.3934010152284264 J0.30964467005076146
G3 X21.32233502538071 Y2.3096446700507616 I0.3781725888324873 J0.32741116751269034
G3 X21.383248730964468 Y2.266497461928934 I0.32487309644670054 J0.3807106598984772
G3 X21.428934010152286 Y2.2411167512690353 I0.2614213197969543 J0.42639593908629436
G3 X21.4746192893401 Y2.220812182741117 I0.21573604060913704 J0.45177664974619286
G1 X21.497461928934012 Y2.213197969543147
G1 X21.52030456852792 Y2.2081218274111674
G1 X21.543147208121827 Y2.2030456852791875
G1 X21.560913705583754 Y2.197969543147208
G3 X21.60913705583756 Y2.1928934010152283 I0.08629441624365483 J0.49238578680203043
G3 X21.652284263959388 Y2.190355329949239 I0.03807106598984772 J0.49746192893401014
G1 X30.241116751269036 Y2.1446700507614214
G3 X30.40609137055838 Y2.16497461928934 I0.020304568527918784 J0.5
G3 X30.55329949238579 Y2.238578680203046 I-0.1446700507614213 J0.47969543147208127
G3 X30.670050761421322 Y2.3578680203045685 I-0.29441624365482233 J0.40609137055837563
G3 X30.741116751269036 Y2.5050761421319794 I-0.4086294416243655 J0.2868020304568528
G1 X30.746192893401016 Y2.5279187817258886
G3 X30.753807106598984 Y2.5583756345177666 I-0.4847715736040609 J0.1218274111675127
G1 X31.304568527918782 Y6.324873096446701
G1 X32.40862944162436 Y6.3578680203045685
G3 X32.52030456852792 Y6.175126903553299 I1.0710659898477157 J0.5406091370558376
G3 X32.7741116751269 Y5.926395939086294 I0.9593908629441625 J0.7208121827411168
G3 X33.101522842639596 Y5.758883248730965 I0.6903553299492386 J0.9543147208121827
G3 X33.46192893401015 Y5.7030456852791875 I0.3604060913705584 J1.1091370558375635
G3 X33.91370558375635 Y5.791878172588833 I0 J1.1751269035532994
G3 X34.2994923857868 Y6.050761421319796 I-0.4593908629441624 J1.1015228426395938
G3 X34.558375634517766 Y6.436548223350254 I-0.8426395939086294 J0.8451776649746192
G3 X34.64720812182741 Y6.888324873096447 I-1.0837563451776648 J0.45177664974619286
G3 X34.558375634517766 Y7.340101522842639 I-1.1751269035532994 J0
G3 X34.2994923857868 Y7.725888324873097 I-1.1040609137055837 J-0.4593908629441624
G3 X33.91370558375635 Y7.982233502538071 I-0.8451776649746192 J-0.8451776649746192
G3 X33.46192893401015 Y8.073604060913706 I-0.45177664974619286 J-1.0837563451776648
G3 X33.08629441624365 Y8.01015228426396 I0 J-1.1649746192893402
G3 X32.748730964467 Y7.82994923857868 I0.3807106598984772 J-1.114213197969543
G3 X32.48984771573604 Y7.558375634517766 I0.7309644670050762 J-0.9517766497461928
G3 X32.378172588832484 Y7.355329949238579 I0.9873096446700508 J-0.6776649746192893
G1 X30.91624365482233 Y7.314720812182741
G3 X30.885786802030456 Y7.314720812182741 I-0.04822335025380711 J-0.49746192893401014
G3 X30.728426395939085 Y7.2944162436548226 I-0.015228426395939087 J-0.5
G3 X30.586294416243653 Y7.228426395939086 I0.14213197969543148 J-0.47969543147208127
G3 X30.472081218274113 Y7.116751269035532 I0.28426395939086296 J-0.4111675126903553
G3 X30.398477157360407 Y6.982233502538071 I0.3984771573604061 J-0.3020304568527919
G3 X30.380710659898476 Y6.918781725888325 I0.46954314720812185 J-0.1700507614213198
G3 X30.373096446700508 Y6.865482233502538 I0.4873096446700508 J-0.10659898477157359
G1 X29.82994923857868 Y3.1472081218274113
G1 X22.063451776649746 Y3.190355329949239
G0 Z2
G0 X12.25507614213198 Y38.184010152284266
G1 Z-0.25 F50
G1 X29.65228426395939 Y37.733502538071065 F150
G3 X29.733502538071065 Y37.7258883248731 I0.08629441624365483 J0.49238578680203043
G3 X29.83502538071066 Y37.736040609137056 I0.005076142131979696 J0.5
G3 X29.934010152284266 Y37.766497461928935 I-0.09644670050761422 J0.48984771573604063
G3 X30.017766497461928 Y37.81218274111675 I-0.1954314720812183 J0.4593908629441624
G3 X30.043147208121827 Y37.82741116751269 I-0.2715736040609137 J0.41878172588832485
G1 X30.055837563451778 Y37.84010152284264
G1 X31.878172588832484 Y39.18781725888325
G1 X32.441624365482234 Y39.18781725888325
G1 X32.65482233502538 Y39.16497461928934
G3 X32.69796954314721 Y39.16497461928934 I0.022842639593908632 J0.19289340101522845
G1 X32.911167512690355 Y39.18781725888325
G1 X33.71827411167513 Y39.18781725888325
G3 X33.890862944162436 Y39.29187817258884 I0 J0.1954314720812183
G1 X35.3502538071066 Y38.619289340101524
G1 X35.3502538071066 Y37.63451776649746
G3 X35.545685279187815 Y37.43908629441624 I0.1954314720812183 J0
G1 X37.5253807106599 Y37.43908629441624
G3 X37.72081218274111 Y37.63451776649746 I0 J0.1954314720812183
G1 X37.72081218274111 Y39.36294416243655
G1 X37.72081218274111 Y39.61675126903553
G3 X37.5253807106599 Y39.81218274111675 I-0.1954314720812183 J0
G1 X35.545685279187815 Y39.81218274111675
G3 X35.37309644670051 Y39.70812182741117 I0 J-0.1954314720812183
G1 X33.91370558375635 Y40.380710659898476
G1 X33.91370558375635 Y41.46700507614213
G3 X33.71827411167513 Y41.66243654822335 I-0.1954314720812183 J0
G1 X31.888324873096447 Y41.66243654822335
G1 X31.63451776649746 Y41.66243654822335
G3 X31.439086294416242 Y41.46700507614213 I0 J-0.1954314720812183
G1 X31.439086294416242 Y40.10659898477157
G1 X29.586294416243657 Y38.736040609137056
G1 X12.281725888324873 Y39.18274111675127
G3 X12.073604060913706 Y39.76142131979695 I-2.1319796954314723 J-0.44416243654822335
G3 X11.586294416243653 Y40.378172588832484 I-1.9619289340101522 J-1.0406091370558377
G3 X10.908629441624365 Y40.79187817258883 I-1.4644670050761421 J-1.6472081218274113
G3 X10.134517766497462 Y40.934010152284266 I-0.7741116751269035 J-2.0279187817258886
G3 X9.296954314720812 Y40.76649746192893 I0 J-2.1751269035532994
G3 X8.583756345177665 Y40.28934010152284 I0.850253807106599 J-2.0431472081218276
G3 X8.106598984771573 Y39.576142131979694 I1.5634517766497464 J-1.5659898477157361
G3 X7.939086294416243 Y38.73857868020305 I2.0076142131979697 J-0.8350253807106599
G1 X7.939086294416243 Y38.73857868020305
G3 X8.106598984771573 Y37.90355329949239 I2.1751269035532994 J0
G3 X8.583756345177665 Y37.18781725888325 I2.0431472081218276 J0.850253807106599
G3 X9.296954314720812 Y36.71065989847716 I1.5659898477157361 J1.5659898477157361
G3 X10.01015228426396 Y36.54822335025381 I0.8350253807106599 J2.0076142131979697
G1 X10.281725888324873 Y35.00253807106599
G3 X10.291878172588833 Y34.944162436548226 I0.49746192893401014 J0.04822335025380711
G3 X10.307106598984772 Y34.888324873096444 I0.4873096446700508 J0.10659898477157359
G3 X10.3502538071066 Y34.786802030456855 I0.47715736040609136 J0.14974619289340102
G3 X10.403553299492385 Y34.713197969543145 I0.434010152284264 J0.24873096446700507
G1 X11.512690355329948 Y33.02791878172589
G3 X11.49238578680203 Y32.99238578680203 I1.0253807106598984 J-0.6142131979695432
G3 X11.418781725888325 Y32.82741116751269 I0.9923857868020304 J-0.5482233502538071
G3 X11.370558375634518 Y32.64467005076142 I1.0406091370558377 J-0.3756345177664975
G3 X11.352791878172589 Y32.45431472081218 I1.0761421319796955 J-0.18781725888324874
G3 X11.439086294416242 Y32.02284263959391 I1.1269035532994924 J0
G3 X11.687817258883248 Y31.65482233502538 I1.0558375634517767 J0.4390862944162437
G3 X12.055837563451776 Y31.40609137055838 I0.8071065989847716 J0.8071065989847716
G3 X12.48730964467005 Y31.31979695431472 I0.4314720812182741 J1.0406091370558377
G3 X12.921319796954315 Y31.40609137055838 I0 J1.1269035532994924
G3 X13.289340101522843 Y31.65482233502538 I-0.4390862944162437 J1.0558375634517767
G3 X13.535532994923859 Y32.02284263959391 I-0.8071065989847716 J0.8071065989847716
G3 X13.624365482233502 Y32.45431472081218 I-1.0406091370558377 J0.4314720812182741
G3 X13.535532994923859 Y32.88832487309645 I-1.1269035532994924 J0
G3 X13.289340101522843 Y33.256345177664976 I-1.0558375634517767 J-0.4390862944162437
G3 X12.921319796954315 Y33.502538071065985 I-0.8071065989847716 J-0.8071065989847716
G3 X12.48730964467005 Y33.59137055837564 I-0.4314720812182741 J-1.0406091370558377
G3 X12.461928934010151 Y33.588832487309645 I0 J-0.1954314720812183
G1 X12.350253807106599 Y33.57360406091371
G1 X11.256345177664976 Y35.236040609137056
G1 X10.99492385786802 Y36.723350253807105
G3 X11.35532994923858 Y36.921319796954315 I-0.8654822335025381 J2.012690355329949
G3 X11.789340101522843 Y37.30456852791878 I-1.2436548223350254 J1.8426395939086293
G3 X12.111675126903554 Y37.79441624365482 I-1.6700507614213198 J1.4492385786802031
G3 X12.253807106598984 Y38.182741116751274 I-1.9593908629441625 J0.9441624365482233
G0 Z2
G0 X36.84796954314721 Y4.620558375634518
G1 Z-0.25 F50
G1 X36.80203045685279 Y18.413705583756347 F150
G1 X36.80203045685279 Y18.428934010152286
G3 X36.76903553299492 Y18.604060913705585 I-0.5 J0
G3 X36.67766497461929 Y18.756345177664976 I-0.46700507614213194 J-0.17512690355329952
G1 X33.58375634517766 Y23.02030456852792
G1 X38.86040609137056 Y22.997461928934012
G3 X38.984771573604064 Y22.98730964467005 I0.10406091370558375 J0.48984771573604063
G3 X39.13451776649746 Y23.01776649746193 I-0.022842639593908632 J0.5
G3 X39.26903553299492 Y23.091370558375633 I-0.17258883248730966 J0.46954314720812185
G3 X39.3756345177665 Y23.203045685279186 I-0.3071065989847716 J0.3934010152284264
G3 X39.441624365482234 Y23.34263959390863 I-0.4111675126903553 J0.2817258883248731
G3 X39.46192893401015 Y23.487309644670052 I-0.47969543147208127 J0.1446700507614213
G1 X39.46192893401015 Y23.492385786802032
G1 X39.46192893401015 Y23.49746192893401
G1 X39.46192893401015 Y23.522842639593907
G3 X39.45939086294416 Y23.550761421319798 I-0.5 J-0.025380710659898477
G1 X39.10659898477157 Y30.068527918781726
G3 X39.068527918781726 Y30.243654822335024 I-0.5 J-0.020304568527918784
G3 X38.96954314720812 Y30.393401015228427 I-0.4593908629441624 J-0.1954314720812183
G3 X38.82233502538071 Y30.5 I-0.3604060913705584 J-0.3451776649746193
G3 X38.66751269035533 Y30.54568527918782 I-0.21573604060913704 J-0.45177664974619286
G1 X37.733502538071065 Y30.77664974619289
G3 X37.63705583756345 Y31.078680203045685 I-1.2131979695431472 J-0.21573604060913704
G3 X37.36802030456853 Y31.45685279187817 I-1.131979695431472 J-0.5253807106598986
G3 X36.974619289340104 Y31.710659898477157 I-0.8553299492385786 J-0.8959390862944162
G3 X36.51776649746193 Y31.7994923857868 I-0.45685279187817257 J-1.131979695431472
G3 X36.04822335025381 Y31.705583756345177 I0 J-1.2258883248730965
G3 X35.64467005076142 Y31.434010152284266 I0.47969543147208127 J-1.1497461928934012
G3 X35.3756345177665 Y31.032994923857867 I0.8807106598984772 J-0.8807106598984772
G3 X35.28172588832487 Y30.560913705583754 I1.131979695431472 J-0.47208121827411165
G3 X35.3756345177665 Y30.091370558375633 I1.2258883248730965 J0
G3 X35.64467005076142 Y29.68781725888325 I1.1497461928934012 J0.47969543147208127
G3 X36.04822335025381 Y29.418781725888326 I0.8807106598984772 J0.8807106598984772
G3 X36.51776649746193 Y29.3248730964467 I0.47208121827411165 J1.131979695431472
G3 X36.837563451776646 Y29.368020304568528 I0 J1.215736040609137
G3 X37.13451776649747 Y29.492385786802032 I-0.3197969543147208 J1.1802030456852792
G3 X37.380710659898476 Y29.68274111675127 I-0.6294416243654822 J1.0786802030456852
G3 X37.49238578680203 Y29.80710659898477 I-0.8908629441624366 J0.901015228426396
G1 X38.129441624365484 Y29.64720812182741
G1 X38.43654822335025 Y23.997461928934012
G1 X32.67005076142132 Y24.022842639593907
G1 X28.837563451776653 Y25.055837563451778
G3 X28.748730964467004 Y25.31979695431472 I-1.1116751269035532 J-0.22081218274111675
G3 X28.502538071065988 Y25.66243654822335 I-1.032994923857868 J-0.48984771573604063
G3 X28.144670050761423 Y25.89086294416244 I-0.7791878172588833 J-0.8248730964467005
G3 X27.72842639593909 Y25.96954314720812 I-0.416243654822335 J-1.0406091370558377
G3 X27.294416243654823 Y25.883248730964468 I0 J-1.1269035532994924
G3 X26.926395939086298 Y25.63705583756345 I0.4390862944162437 J-1.0558375634517767
G3 X26.680203045685282 Y25.269035532994923 I0.8071065989847716 J-0.8071065989847716
G3 X26.593908629441625 Y24.83502538071066 I1.0406091370558377 J-0.4314720812182741
G3 X26.680203045685282 Y24.403553299492383 I1.1269035532994924 J0
G3 X26.926395939086298 Y24.03299492385787 I1.0558375634517767 J0.4390862944162437
G3 X27.294416243654823 Y23.786802030456855 I0.8071065989847716 J0.8071065989847716
G3 X27.72842639593909 Y23.700507614213198 I0.4314720812182741 J1.0406091370558377
G3 X28.007614213197968 Y23.736040609137056 I0 J1.1269035532994924
G3 X28.26903553299492 Y23.837563451776653 I-0.27918781725888325 J1.0939086294416243
G3 X28.48984771573604 Y23.99492385786802 I-0.5456852791878173 J1.00253807106599
G3 X28.581218274111677 Y24.088832487309645 I-0.7715736040609138 J0.850253807106599
G1 X32.30203045685279 Y23.086294416243653
G1 X35.80203045685279 Y18.261421319796952
G1 X35.84771573604061 Y4.98984771573604
G1 X34.50253807106599 Y4.911167512690355
G3 X34.390862944162436 Y5.081218274111675 I-1.050761421319797 J-0.5685279187817259
G3 X34.13705583756345 Y5.322335025380712 I-0.9416243654822334 J-0.7436548223350253
G3 X33.81472081218274 Y5.479695431472082 I-0.6776649746192893 J-0.967005076142132
G3 X33.46192893401015 Y5.532994923857868 I-0.35279187817258884 J-1.116751269035533
G3 X33.01015228426396 Y5.444162436548224 I0 J-1.1751269035532994
G3 X32.6243654822335 Y5.185279187817259 I0.4593908629441624 J-1.1015228426395938
G3 X32.36802030456853 Y4.799492385786802 I0.8451776649746192 J-0.8451776649746192
G3 X32.27664974619289 Y4.347715736040609 I1.0837563451776648 J-0.45177664974619286
G3 X32.36802030456853 Y3.895939086294416 I1.1751269035532994 J0
G3 X32.6243654822335 Y3.510152284263959 I1.1040609137055837 J0.4593908629441624
G3 X33.01015228426396 Y3.253807106598985 I0.8451776649746192 J0.8451776649746192
G3 X33.46192893401015 Y3.1624365482233503 I0.45177664974619286 J1.0837563451776648
G3 X33.84771573604061 Y3.228426395939086 I0 J1.16751269035533
G3 X34.19035532994924 Y3.416243654822335 I-0.3883248730964467 J1.114213197969543
G3 X34.4492385786802 Y3.700507614213198 I-0.7461928934010152 J0.9416243654822334
G3 X34.56091370558376 Y3.911167512690356 I-0.9974619289340102 J0.6522842639593909
G1 X36.35532994923858 Y4.0177664974619285
G3 X36.50761421319797 Y4.040609137055838 I0.002538071065989848 J0.5
G3 X36.64467005076142 Y4.106598984771574 I-0.14720812182741116 J0.47715736040609136
G3 X36.753807106598984 Y4.213197969543147 I-0.2868020304568528 J0.4111675126903553
G3 X36.82741116751269 Y4.347715736040609 I-0.3959390862944162 J0.30456852791878175
G3 X36.85786802030457 Y4.49746192893401 I-0.46954314720812185 J0.1700507614213198
G1 X36.85786802030457 Y4.517766497461929
G3 X36.847715736040605 Y4.619289340101523 I-0.5 J0
G0 Z2
G0 X3.251522842639594 Y22.711421319796955
G1 Z-0.25 F50
G1 X11.951776649746193 Y28.918781725888323 F150
G3 X11.97969543147208 Y28.903553299492387 I0.5609137055837563 J1.0279187817258884
G3 X12.137055837563452 Y28.837563451776653 I0.5152284263959391 J1.0050761421319796
G3 X12.309644670050762 Y28.794416243654823 I0.35279187817258884 J1.0558375634517767
G3 X12.48730964467005 Y28.779187817258883 I0.17766497461928935 J1.0939086294416243
G3 X12.921319796954315 Y28.865482233502537 I0 J1.1269035532994924
G3 X13.289340101522843 Y29.114213197969544 I-0.4390862944162437 J1.0558375634517767
G3 X13.535532994923859 Y29.48223350253807 I-0.8071065989847716 J0.8071065989847716
G3 X13.624365482233502 Y29.913705583756347 I-1.0406091370558377 J0.4314720812182741
G3 X13.535532994923859 Y30.34771573604061 I-1.1269035532994924 J0
G3 X13.289340101522843 Y30.715736040609137 I-1.0558375634517767 J-0.4390862944162437
G3 X12.921319796954315 Y30.961928934010153 I-0.8071065989847716 J-0.8071065989847716
G3 X12.48730964467005 Y31.050761421319798 I-0.4314720812182741 J-1.0406091370558377
G3 X12.164974619289339 Y31.002538071065988 I0 J-1.119289340101523
G3 X11.870558375634516 Y30.86294416243655 I0.32487309644670054 J-1.0786802030456852
G3 X11.631979695431472 Y30.65482233502538 I0.6319796954314721 J-0.9568527918781726
G3 X11.527918781725887 Y30.512690355329948 I0.8730964467005076 J-0.751269035532995
G1 X8.149746192893401 Y30.84263959390863
G3 X8.083756345177665 Y30.994923857868024 I-1.0939086294416243 J-0.3908629441624366
G3 X7.903553299492386 Y31.248730964467004 I-1.050761421319797 J-0.5532994923857868
G3 X7.667512690355331 Y31.446700507614214 I-0.8807106598984772 J-0.817258883248731
G3 X7.49238578680203 Y31.538071065989847 I-0.6421319796954316 J-1.012690355329949
G1 X6.134517766497462 Y36.71573604060914
G3 X6.5152284263959395 Y36.97208121827411 I-1.0380710659898478 J1.9492385786802031
G3 X6.934010152284263 Y37.43908629441624 I-1.4289340101522843 J1.7055837563451774
G3 X7.210659898477157 Y38.02030456852792 I-1.8197969543147208 J1.2208121827411167
G3 X7.304568527918782 Y38.654822335025386 I-2.0786802030456855 J0.6345177664974619
G3 X7.137055837563452 Y39.48984771573604 I-2.1751269035532994 J0
G3 X6.65989847715736 Y40.203045685279186 I-2.0431472081218276 J-0.850253807106599
G3 X5.946700507614214 Y40.68274111675127 I-1.5634517766497464 J-1.5634517766497464
G3 X5.1091370558375635 Y40.850253807106604 I-0.8350253807106599 J-2.0076142131979697
G3 X4.274111675126903 Y40.68274111675127 I0 J-2.1751269035532994
G3 X3.5609137055837565 Y40.203045685279186 I0.850253807106599 J-2.0431472081218276
G3 X3.081218274111675 Y39.48984771573604 I1.5634517766497464 J-1.5659898477157361
G3 X2.9137055837563453 Y38.654822335025386 I2.0076142131979697 J-0.8350253807106599
G3 X3.081218274111675 Y37.817258883248726 I2.1725888324873095 J0
G3 X3.5609137055837565 Y37.10406091370559 I2.0431472081218276 J0.850253807106599
G3 X4.274111675126903 Y36.62690355329949 I1.5634517766497464 J1.5659898477157361
G3 X5.119289340101522 Y36.45939086294416 I0.8350253807106599 J2.0076142131979697
G1 X5.167512690355331 Y36.46192893401015
G1 X6.472081218274112 Y31.48984771573604
G3 X6.395939086294416 Y31.444162436548222 I0.565989847715736 J-1.0355329949238579
G3 X6.187817258883249 Y31.274111675126903 I0.6472081218274112 J-0.9974619289340102
G3 X6.022842639593908 Y31.060913705583758 I0.8553299492385786 J-0.8299492385786802
G3 X5.964467005076141 Y30.949238578680202 I1.017766497461929 J-0.6142131979695432
G1 X5.563451776649746 Y30.949238578680202
G3 X5.451776649746193 Y31.142131979695435 I-1.0888324873096447 J-0.5101522842639594
G3 X5.195431472081218 Y31.403553299492387 I-0.9746192893401016 J-0.7005076142131981
G3 X4.862944162436548 Y31.576142131979697 I-0.7055837563451777 J-0.9416243654822334
G3 X4.49492385786802 Y31.63705583756345 I-0.3680203045685279 J-1.1040609137055837
G3 X4.043147208121828 Y31.54568527918782 I0 J-1.1751269035532994
G3 X3.6573604060913705 Y31.289340101522846 I0.4593908629441624 J-1.1040609137055837
G3 X3.3984771573604062 Y30.903553299492387 I0.8451776649746192 J-0.8451776649746192
G3 X3.307106598984771 Y30.451776649746193 I1.0837563451776648 J-0.45177664974619286
G3 X3.3984771573604062 Y30 I1.1751269035532994 J0
G3 X3.6573604060913705 Y29.614213197969544 I1.1040609137055837 J0.4593908629441624
G3 X4.043147208121828 Y29.355329949238577 I0.8451776649746192 J0.8451776649746192
G3 X4.49492385786802 Y29.263959390862944 I0.45177664974619286 J1.0837563451776648
G3 X4.862944162436548 Y29.3248730964467 I0 J1.1624365482233503
G3 X5.195431472081218 Y29.49746192893401 I-0.3730964467005076 J1.116751269035533
G3 X5.451776649746193 Y29.758883248730964 I-0.7182741116751269 J0.9619289340101522
G3 X5.563451776649746 Y29.951776649746193 I-0.9746192893401016 J0.7005076142131981
G1 X5.964467005076141 Y29.951776649746193
G3 X6.076142131979695 Y29.758883248730964 I1.0888324873096447 J0.5101522842639594
G3 X6.332487309644669 Y29.49746192893401 I0.9746192893401016 J0.7005076142131981
G3 X6.66497461928934 Y29.3248730964467 I0.7030456852791878 J0.9416243654822334
G3 X7.032994923857868 Y29.263959390862944 I0.3680203045685279 J1.1040609137055837
G3 X7.370558375634517 Y29.314720812182742 I0 J1.16751269035533
G3 X7.680203045685278 Y29.45939086294416 I-0.3401015228426396 J1.1294416243654823
G3 X7.931472081218274 Y29.68020304568528 I-0.6624365482233502 J1.00253807106599
G3 X8.043147208121827 Y29.83502538071066 I-0.9137055837563451 J0.7817258883248732
G1 X11.109137055837564 Y29.545685279187815
G1 X2.6802030456852792 Y23.532994923857867
G3 X2.6497461928934007 Y23.548223350253807 I-0.5761421319796954 J-1.0380710659898478
G3 X2.489847715736041 Y23.61421319796954 I-0.5253807106598986 J-1.0101522842639594
G3 X2.314720812182741 Y23.659898477157363 I-0.35786802030456855 J-1.0609137055837563
G3 X2.1319796954314723 Y23.6751269035533 I-0.1802030456852792 J-1.1040609137055837
G3 X1.6954314720812182 Y23.586294416243657 I0 J-1.1370558375634519
G3 X1.3223350253807107 Y23.33756345177665 I0.44416243654822335 J-1.0685279187817258
G3 X1.0710659898477157 Y22.96446700507614 I0.817258883248731 J-0.817258883248731
G3 X0.9847715736040609 Y22.527918781725887 I1.0482233502538072 J-0.4365482233502538
G3 X1.0710659898477157 Y22.088832487309645 I1.1370558375634519 J0
G3 X1.3223350253807107 Y21.715736040609137 I1.0685279187817258 J0.44416243654822335
G3 X1.6954314720812182 Y21.467005076142133 I0.817258883248731 J0.8197969543147209
G3 X2.1319796954314723 Y21.378172588832488 I0.4365482233502538 J1.050761421319797
G1 X2.152284263959391 Y21.38071065989848
G1 X2.197969543147208 Y21.38578680203046
G1 X4.027918781725888 Y18.111675126903553
G3 X3.9873096446700504 Y18.050761421319798 I0.9923857868020304 J-0.7233502538071066
G3 X3.8883248730964466 Y17.860406091370557 I0.9974619289340102 J-0.6395939086294417
G3 X3.8223350253807107 Y17.644670050761423 I1.0761421319796955 J-0.4390862944162437
G3 X3.799492385786802 Y17.421319796954315 I1.1370558375634519 J-0.2233502538071066
G3 X3.8908629441624365 Y16.96954314720812 I1.1751269035532994 J0
G3 X4.149746192893401 Y16.583756345177665 I1.1015228426395938 J0.4593908629441624
G3 X4.535532994923858 Y16.32741116751269 I0.8451776649746192 J0.8451776649746192
G3 X4.987309644670051 Y16.236040609137056 I0.45177664974619286 J1.0862944162436547
G3 X5.439086294416243 Y16.32741116751269 I0 J1.1751269035532994
G3 X5.822335025380711 Y16.583756345177665 I-0.4593908629441624 J1.1015228426395938
G3 X6.081218274111675 Y16.96954314720812 I-0.8426395939086294 J0.8451776649746192
G3 X6.17258883248731 Y17.421319796954315 I-1.0837563451776648 J0.45177664974619286
G3 X6.081218274111675 Y17.873096446700508 I-1.1751269035532994 J0
G3 X5.822335025380711 Y18.258883248730964 I-1.1040609137055837 J-0.4593908629441624
G3 X5.439086294416243 Y18.517766497461928 I-0.8451776649746192 J-0.8451776649746192
G3 X4.987309644670051 Y18.606598984771573 I-0.45177664974619286 J-1.0837563451776648
G1 X4.967005076142132 Y18.606598984771573
G1 X4.901015228426396 Y18.598984771573605
G1 X3.0710659898477157 Y21.873096446700508
G3 X3.1065989847715736 Y21.926395939086298 I-0.9746192893401016 J0.6878172588832487
G3 X3.197969543147208 Y22.109137055837564 I-0.9720812182741116 J0.6091370558375635
G3 X3.2588832487309642 Y22.314720812182742 I-1.0431472081218274 J0.41878172588832485
G3 X3.2791878172588835 Y22.527918781725887 I-1.0939086294416243 J0.21319796954314718
G1 X3.2791878172588835 Y22.527918781725887
G3 X3.276649746192893 Y22.558375634517766 I-0.1954314720812183 J0
G1 X3.251269035532995 Y22.71065989847716
G0 Z2
G0 X6.0416243654822335 Y6.732233502538071
G1 Z-0.25 F50
G1 X11.461928934010153 Y6.583756345177665 F150
G3 X11.568527918781726 Y6.401015228426395 I1.0431472081218274 J0.47969543147208127
G3 X11.812182741116752 Y6.147208121827411 I0.9365482233502538 J0.6624365482233502
G3 X12.131979695431472 Y5.979695431472081 I0.6776649746192893 J0.8984771573604061
G3 X12.48730964467005 Y5.921319796954315 I0.3553299492385787 J1.0583756345177666
G3 X12.921319796954315 Y6.00761421319797 I0 J1.1269035532994924
G3 X13.289340101522843 Y6.253807106598986 I-0.4390862944162437 J1.0558375634517767
G3 X13.535532994923859 Y6.621827411167512 I-0.8071065989847716 J0.8071065989847716
G3 X13.624365482233502 Y7.055837563451776 I-1.0406091370558377 J0.4314720812182741
G3 X13.535532994923859 Y7.4873096446700504 I-1.1269035532994924 J0
G3 X13.289340101522843 Y7.8578680203045685 I-1.0558375634517767 J-0.4390862944162437
G3 X12.921319796954315 Y8.104060913705585 I-0.8071065989847716 J-0.8071065989847716
G3 X12.48730964467005 Y8.190355329949238 I-0.4314720812182741 J-1.0406091370558377
G3 X12.147208121827411 Y8.137055837563452 I0 J-1.119289340101523
G3 X11.83756345177665 Y7.982233502538071 I0.3426395939086294 J-1.0736040609137056
G3 X11.593908629441625 Y7.748730964467006 I0.6649746192893401 J-0.9365482233502538
G3 X11.487309644670052 Y7.583756345177664 I0.9060913705583756 J-0.7005076142131981
G1 X6.068527918781726 Y7.730964467005076
G3 X5.956852791878172 Y7.934010152284264 I-1.0964467005076142 J-0.47715736040609136
G3 X5.7005076142131985 Y8.203045685279188 I-0.9873096446700508 J-0.6802030456852792
G3 X5.362944162436548 Y8.383248730964466 I-0.7157360406091371 J-0.9340101522842639
G3 X4.987309644670051 Y8.446700507614214 I-0.3756345177664975 J-1.1040609137055837
G3 X4.535532994923858 Y8.355329949238579 I0 J-1.1751269035532994
G3 X4.149746192893401 Y8.098984771573605 I0.4593908629441624 J-1.1015228426395938
G3 X3.8908629441624365 Y7.713197969543147 I0.8426395939086294 J-0.8451776649746192
G3 X3.799492385786802 Y7.261421319796955 I1.0837563451776648 J-0.45177664974619286
G3 X3.8908629441624365 Y6.809644670050762 I1.1751269035532994 J0
G3 X4.149746192893401 Y6.423857868020305 I1.1040609137055837 J0.4593908629441624
G3 X4.535532994923858 Y6.164974619289341 I0.8451776649746192 J0.8451776649746192
G3 X4.987309644670051 Y6.076142131979695 I0.45177664974619286 J1.0837563451776648
G3 X5.347715736040609 Y6.131979695431472 I0 J1.1649746192893402
G3 X5.675126903553299 Y6.299492385786802 I-0.3654822335025381 J1.119289340101523
G3 X5.928934010152284 Y6.550761421319797 I-0.7055837563451777 J0.9720812182741116
G3 X6.040609137055838 Y6.730964467005077 I-0.9593908629441625 J0.7208121827411168
G0 Z2
G0 X6.04238578680203 Y9.272081218274112
G1 Z-0.25 F50
G1 X11.461928934010153 Y9.124365482233504 F150
G3 X11.568527918781726 Y8.939086294416244 I1.0431472081218274 J0.47969543147208127
G3 X11.812182741116752 Y8.68781725888325 I0.9365482233502538 J0.6624365482233502
G3 X12.131979695431472 Y8.51776649746193 I0.6776649746192893 J0.8984771573604061
G3 X12.48730964467005 Y8.459390862944163 I0.3553299492385787 J1.0583756345177666
G3 X12.921319796954315 Y8.545685279187817 I0 J1.1269035532994924
G3 X13.289340101522843 Y8.794416243654823 I-0.4390862944162437 J1.0558375634517767
G3 X13.535532994923859 Y9.16243654822335 I-0.8071065989847716 J0.8071065989847716
G3 X13.624365482233502 Y9.596446700507613 I-1.0406091370558377 J0.4314720812182741
G3 X13.535532994923859 Y10.027918781725889 I-1.1269035532994924 J0
G3 X13.289340101522843 Y10.395939086294417 I-1.0558375634517767 J-0.4390862944162437
G3 X12.921319796954315 Y10.644670050761423 I-0.8071065989847716 J-0.8071065989847716
G3 X12.48730964467005 Y10.730964467005075 I-0.4314720812182741 J-1.0406091370558377
G3 X12.147208121827411 Y10.67766497461929 I0 J-1.119289340101523
G3 X11.83756345177665 Y10.522842639593907 I0.3451776649746193 J-1.0736040609137056
G3 X11.593908629441625 Y10.286802030456851 I0.6649746192893401 J-0.9365482233502538
G3 X11.487309644670052 Y10.121827411167512 I0.9086294416243655 J-0.7005076142131981
G1 X6.068527918781726 Y10.271573604060913
G3 X5.956852791878172 Y10.472081218274113 I-1.0964467005076142 J-0.47715736040609136
G3 X5.7005076142131985 Y10.743654822335024 I-0.9898477157360407 J-0.6802030456852792
G3 X5.362944162436548 Y10.923857868020303 I-0.7182741116751269 J-0.9340101522842639
G3 X4.987309644670051 Y10.987309644670052 I-0.3756345177664975 J-1.1015228426395938
G3 X4.535532994923858 Y10.895939086294417 I0 J-1.1751269035532994
G3 X4.149746192893401 Y10.637055837563452 I0.4593908629441624 J-1.1015228426395938
G3 X3.8908629441624365 Y10.253807106598984 I0.8451776649746192 J-0.8451776649746192
G3 X3.799492385786802 Y9.802030456852792 I1.0862944162436547 J-0.45177664974619286
G3 X3.8908629441624365 Y9.350253807106599 I1.1751269035532994 J0
G3 X4.149746192893401 Y8.964467005076141 I1.1015228426395938 J0.4593908629441624
G3 X4.535532994923858 Y8.705583756345177 I0.8451776649746192 J0.8451776649746192
G3 X4.987309644670051 Y8.614213197969544 I0.45177664974619286 J1.0837563451776648
G3 X5.347715736040609 Y8.67258883248731 I0 J1.16751269035533
G3 X5.675126903553299 Y8.84010152284264 I-0.3654822335025381 J1.119289340101523
G3 X5.928934010152284 Y9.088832487309645 I-0.7055837563451777 J0.9720812182741116
G3 X6.043147208121828 Y9.271573604060915 I-0.9593908629441625 J0.7208121827411168
G0 Z2
G0 X6.04238578680203 Y4.192131979695431
G1 Z-0.25 F50
G1 X11.461928934010153 Y4.043147208121828 F150
G3 X11.568527918781726 Y3.8604060913705585 I1.0431472081218274 J0.47969543147208127
G3 X11.812182741116752 Y3.6065989847715736 I0.9390862944162437 J0.6624365482233502
G3 X12.131979695431472 Y3.439086294416244 I0.6776649746192893 J0.8984771573604061
G3 X12.48730964467005 Y3.380710659898477 I0.3553299492385787 J1.0558375634517767
G3 X12.921319796954315 Y3.4670050761421316 I0 J1.1269035532994924
G3 X13.289340101522843 Y3.713197969543147 I-0.4390862944162437 J1.0558375634517767
G3 X13.535532994923859 Y4.081218274111675 I-0.8071065989847716 J0.8071065989847716
G3 X13.624365482233502 Y4.5152284263959395 I-1.0406091370558377 J0.4314720812182741
G3 X13.535532994923859 Y4.946700507614214 I-1.1269035532994924 J0
G3 X13.289340101522843 Y5.317258883248731 I-1.0558375634517767 J-0.4390862944162437
G3 X12.921319796954315 Y5.563451776649746 I-0.8071065989847716 J-0.8071065989847716
G3 X12.48730964467005 Y5.649746192893401 I-0.4314720812182741 J-1.0406091370558377
G3 X12.147208121827411 Y5.596446700507615 I0 J-1.119289340101523
G3 X11.83756345177665 Y5.441624365482234 I0.3426395939086294 J-1.0736040609137056
G3 X11.593908629441625 Y5.208121827411167 I0.6649746192893401 J-0.9365482233502538
G3 X11.487309644670052 Y5.043147208121828 I0.9060913705583756 J-0.7005076142131981
G1 X6.068527918781726 Y5.190355329949239
G3 X5.956852791878172 Y5.393401015228426 I-1.098984771573604 J-0.47715736040609136
G3 X5.7005076142131985 Y5.664974619289341 I-0.9898477157360407 J-0.6802030456852792
G3 X5.362944162436548 Y5.845177664974619 I-0.7182741116751269 J-0.9340101522842639
G3 X4.987309644670051 Y5.906091370558376 I-0.3756345177664975 J-1.1015228426395938
G3 X4.535532994923858 Y5.81725888324873 I0 J-1.1751269035532994
G3 X4.149746192893401 Y5.558375634517766 I0.4593908629441624 J-1.1015228426395938
G3 X3.8908629441624365 Y5.1725888324873095 I0.8451776649746192 J-0.8451776649746192
G3 X3.799492385786802 Y4.720812182741117 I1.0862944162436547 J-0.45177664974619286
G3 X3.8908629441624365 Y4.269035532994923 I1.1751269035532994 J0
G3 X4.149746192893401 Y3.8832487309644668 I1.1015228426395938 J0.4593908629441624
G3 X4.535532994923858 Y3.6269035532994924 I0.8451776649746192 J0.8451776649746192
G3 X4.987309644670051 Y3.535532994923858 I0.45177664974619286 J1.0862944162436547
G3 X5.347715736040609 Y3.5939086294416245 I0 J1.16751269035533
G3 X5.675126903553299 Y3.7588832487309642 I-0.3654822335025381 J1.119289340101523
G3 X5.928934010152284 Y4.01015228426396 I-0.7030456852791878 J0.9720812182741116
G3 X6.043147208121828 Y4.192893401015229 I-0.9568527918781726 J0.7182741116751269
G0 Z2
G0 X32.408121827411165 Y15.038832487309644
G1 Z-0.25 F50
G1 X28.756345177664976 Y15.144670050761421 F150
G3 X28.6497461928934 Y15.32994923857868 I-1.0431472081218274 J-0.47715736040609136
G3 X28.403553299492387 Y15.583756345177664 I-0.9365482233502538 J-0.6624365482233502
G3 X28.083756345177665 Y15.751269035532996 I-0.6776649746192893 J-0.8984771573604061
G3 X27.72842639593909 Y15.809644670050762 I-0.3553299492385787 J-1.0583756345177666
G3 X27.294416243654823 Y15.723350253807107 I0 J-1.1269035532994924
G3 X26.926395939086298 Y15.47715736040609 I0.4390862944162437 J-1.0558375634517767
G3 X26.680203045685282 Y15.109137055837563 I0.8071065989847716 J-0.8071065989847716
G3 X26.593908629441625 Y14.675126903553299 I1.0406091370558377 J-0.4314720812182741
G3 X26.680203045685282 Y14.243654822335026 I1.1269035532994924 J0
G3 X26.926395939086298 Y13.873096446700508 I1.0558375634517767 J0.4390862944162437
G3 X27.294416243654823 Y13.626903553299492 I0.8071065989847716 J0.8071065989847716
G3 X27.72842639593909 Y13.540609137055837 I0.4314720812182741 J1.0406091370558377
G3 X28.068527918781726 Y13.593908629441625 I0 J1.119289340101523
G3 X28.378172588832488 Y13.748730964467004 I-0.3426395939086294 J1.0736040609137056
G3 X28.621827411167512 Y13.98223350253807 I-0.6649746192893401 J0.9365482233502538
G3 X28.72842639593909 Y14.144670050761421 I-0.9060913705583756 J0.7030456852791878
G1 X32.378172588832484 Y14.040609137055837
G3 X32.48984771573604 Y13.83756345177665 I1.098984771573604 J0.47461928934010156
G3 X32.748730964467 Y13.565989847715736 I0.9898477157360407 J0.6802030456852792
G3 X33.08629441624365 Y13.385786802030458 I0.7182741116751269 J0.9340101522842639
G3 X33.46192893401015 Y13.322335025380712 I0.3756345177664975 J1.1040609137055837
G3 X33.91370558375635 Y13.413705583756347 I0 J1.1751269035532994
G3 X34.2994923857868 Y13.670050761421319 I-0.4593908629441624 J1.1015228426395938
G3 X34.558375634517766 Y14.055837563451776 I-0.8426395939086294 J0.8451776649746192
G3 X34.64720812182741 Y14.50761421319797 I-1.0837563451776648 J0.45177664974619286
G3 X34.558375634517766 Y14.959390862944161 I-1.1751269035532994 J0
G3 X34.2994923857868 Y15.345177664974619 I-1.1040609137055837 J-0.4593908629441624
G3 X33.91370558375635 Y15.604060913705585 I-0.8451776649746192 J-0.8451776649746192
G3 X33.46192893401015 Y15.69289340101523 I-0.45177664974619286 J-1.0837563451776648
G3 X33.101522842639596 Y15.637055837563452 I0 J-1.1649746192893402
G3 X32.776649746192895 Y15.469543147208123 I0.3654822335025381 J-1.119289340101523
G3 X32.52030456852792 Y15.220812182741117 I0.7055837563451777 J-0.9720812182741116
G3 X32.40862944162436 Y15.038071065989849 I0.9593908629441625 J-0.7233502538071066
G0 Z2
G0 X28.72766497461929 Y11.605837563451777
G1 Z-0.25 F50
G1 X32.380710659898476 Y11.5 F150
G3 X32.49238578680203 Y11.296954314720812 I1.098984771573604 J0.47715736040609136
G3 X32.748730964467 Y11.025380710659897 I0.9898477157360407 J0.6802030456852792
G3 X33.08629441624365 Y10.845177664974619 I0.7182741116751269 J0.9340101522842639
G3 X33.46192893401015 Y10.781725888324873 I0.3756345177664975 J1.1015228426395938
G3 X33.91370558375635 Y10.873096446700508 I0 J1.1751269035532994
G3 X34.2994923857868 Y11.131979695431474 I-0.4593908629441624 J1.1015228426395938
G3 X34.558375634517766 Y11.515228426395938 I-0.8451776649746192 J0.8451776649746192
G3 X34.64720812182741 Y11.967005076142133 I-1.0862944162436547 J0.45177664974619286
G3 X34.558375634517766 Y12.421319796954315 I-1.1751269035532994 J0
G3 X34.2994923857868 Y12.804568527918782 I-1.1015228426395938 J-0.4593908629441624
G3 X33.91370558375635 Y13.063451776649746 I-0.8451776649746192 J-0.8451776649746192
G3 X33.46192893401015 Y13.15482233502538 I-0.45177664974619286 J-1.0837563451776648
G3 X33.101522842639596 Y13.096446700507613 I0 J-1.16751269035533
G3 X32.776649746192895 Y12.931472081218274 I0.3629441624365482 J-1.119289340101523
G3 X32.52030456852792 Y12.680203045685278 I0.7030456852791878 J-0.9720812182741116
G3 X32.40862944162436 Y12.5 I0.9593908629441625 J-0.7208121827411168
G1 X28.756345177664976 Y12.604060913705585
G3 X28.6497461928934 Y12.789340101522843 I-1.0431472081218274 J-0.47715736040609136
G3 X28.403553299492387 Y13.043147208121828 I-0.9365482233502538 J-0.6624365482233502
G3 X28.083756345177665 Y13.210659898477157 I-0.6776649746192893 J-0.8984771573604061
G3 X27.72842639593909 Y13.269035532994923 I-0.3553299492385787 J-1.0583756345177666
G3 X27.294416243654823 Y13.182741116751268 I0 J-1.1269035532994924
G3 X26.926395939086298 Y12.936548223350254 I0.4390862944162437 J-1.0558375634517767
G3 X26.680203045685282 Y12.568527918781726 I0.8071065989847716 J-0.8071065989847716
G3 X26.593908629441625 Y12.134517766497462 I1.0406091370558377 J-0.4314720812182741
G3 X26.680203045685282 Y11.703045685279188 I1.1269035532994924 J0
G3 X26.926395939086298 Y11.33502538071066 I1.0558375634517767 J0.4390862944162437
G3 X27.294416243654823 Y11.086294416243653 I0.8071065989847716 J0.8071065989847716
G3 X27.72842639593909 Y11 I0.4314720812182741 J1.0406091370558377
G3 X28.068527918781726 Y11.053299492385786 I0 J1.119289340101523
G3 X28.378172588832488 Y11.20812182741117 I-0.3426395939086294 J1.0736040609137056
G3 X28.621827411167512 Y11.441624365482232 I-0.6649746192893401 J0.9365482233502538
G3 X28.72842639593909 Y11.606598984771574 I-0.9060913705583756 J0.7030456852791878
G0 Z2
G0 X32.40761421319797 Y9.958883248730965
G1 Z-0.25 F50
G1 X28.756345177664976 Y10.065989847715734 F150
G3 X28.6497461928934 Y10.248730964467006 I-1.0431472081218274 J-0.47715736040609136
G3 X28.403553299492387 Y10.50253807106599 I-0.9390862944162437 J-0.6624365482233502
G3 X28.083756345177665 Y10.672588832487309 I-0.6802030456852792 J-0.8984771573604061
G3 X27.72842639593909 Y10.730964467005075 I-0.3553299492385787 J-1.0583756345177666
G3 X27.294416243654823 Y10.644670050761423 I0 J-1.1269035532994924
G3 X26.926395939086298 Y10.395939086294417 I0.4390862944162437 J-1.0558375634517767
G3 X26.680203045685282 Y10.027918781725889 I0.8071065989847716 J-0.8071065989847716
G3 X26.593908629441625 Y9.596446700507613 I1.0406091370558377 J-0.4314720812182741
G3 X26.680203045685282 Y9.16243654822335 I1.1269035532994924 J0
G3 X26.926395939086298 Y8.794416243654823 I1.0558375634517767 J0.4390862944162437
G3 X27.294416243654823 Y8.545685279187817 I0.8071065989847716 J0.8071065989847716
G3 X27.72842639593909 Y8.459390862944163 I0.4314720812182741 J1.0406091370558377
G3 X28.068527918781726 Y8.51269035532995 I0 J1.119289340101523
G3 X28.378172588832488 Y8.66751269035533 I-0.3426395939086294 J1.0736040609137056
G3 X28.621827411167512 Y8.901015228426395 I-0.6649746192893401 J0.9365482233502538
G3 X28.72842639593909 Y9.065989847715736 I-0.9060913705583756 J0.7030456852791878
G1 X32.380710659898476 Y8.959390862944161
G3 X32.49238578680203 Y8.758883248730964 I1.098984771573604 J0.47715736040609136
G3 X32.748730964467 Y8.48730964467005 I0.9898477157360407 J0.6802030456852792
G3 X33.08629441624365 Y8.304568527918782 I0.7182741116751269 J0.9340101522842639
G3 X33.46192893401015 Y8.243654822335026 I0.3756345177664975 J1.1015228426395938
G3 X33.91370558375635 Y8.332487309644671 I0 J1.1751269035532994
G3 X34.2994923857868 Y8.591370558375635 I-0.4593908629441624 J1.1015228426395938
G3 X34.558375634517766 Y8.977157360406093 I-0.8451776649746192 J0.8451776649746192
G3 X34.64720812182741 Y9.428934010152284 I-1.0837563451776648 J0.45177664974619286
G3 X34.558375634517766 Y9.880710659898478 I-1.1751269035532994 J0
G3 X34.2994923857868 Y10.266497461928934 I-1.1015228426395938 J-0.4593908629441624
G3 X33.91370558375635 Y10.522842639593907 I-0.8451776649746192 J-0.8451776649746192
G3 X33.46192893401015 Y10.614213197969544 I-0.45177664974619286 J-1.0862944162436547
G3 X33.101522842639596 Y10.555837563451778 I0 J-1.16751269035533
G3 X32.776649746192895 Y10.390862944162436 I0.3629441624365482 J-1.119289340101523
G3 X32.52030456852792 Y10.13959390862944 I0.7030456852791878 J-0.9720812182741116
G3 X32.40862944162436 Y9.959390862944163 I0.9568527918781726 J-0.7208121827411168
G0 Z2
G0 X32.40736040609137 Y17.578426395939086
G1 Z-0.25 F50
G1 X28.756345177664976 Y17.685279187817258 F150
G3 X28.6497461928934 Y17.868020304568528 I-1.0431472081218274 J-0.47715736040609136
G3 X28.403553299492387 Y18.121827411167512 I-0.9365482233502538 J-0.6624365482233502
G3 X28.083756345177665 Y18.291878172588834 I-0.6776649746192893 J-0.8984771573604061
G3 X27.72842639593909 Y18.350253807106597 I-0.3553299492385787 J-1.0583756345177666
G3 X27.294416243654823 Y18.263959390862944 I0 J-1.1269035532994924
G3 X26.926395939086298 Y18.01522842639594 I0.4390862944162437 J-1.0558375634517767
G3 X26.680203045685282 Y17.64720812182741 I0.8071065989847716 J-0.8071065989847716
G3 X26.593908629441625 Y17.215736040609137 I1.0406091370558377 J-0.4314720812182741
G3 X26.680203045685282 Y16.78172588832487 I1.1269035532994924 J0
G3 X26.926395939086298 Y16.413705583756347 I1.0558375634517767 J0.4390862944162437
G3 X27.294416243654823 Y16.16751269035533 I0.8071065989847716 J0.8071065989847716
G3 X27.72842639593909 Y16.078680203045685 I0.4314720812182741 J1.0406091370558377
G3 X28.068527918781726 Y16.131979695431472 I0 J1.119289340101523
G3 X28.378172588832488 Y16.289340101522843 I-0.3426395939086294 J1.0736040609137056
G3 X28.621827411167512 Y16.522842639593907 I-0.6649746192893401 J0.9365482233502538
G3 X28.72842639593909 Y16.685279187817258 I-0.9086294416243655 J0.7005076142131981
G1 X32.380710659898476 Y16.578680203045685
G3 X32.49238578680203 Y16.378172588832488 I1.098984771573604 J0.47715736040609136
G3 X32.748730964467 Y16.106598984771573 I0.9898477157360407 J0.6802030456852792
G3 X33.08629441624365 Y15.923857868020303 I0.7182741116751269 J0.9340101522842639
G3 X33.46192893401015 Y15.862944162436548 I0.3756345177664975 J1.1015228426395938
G3 X33.91370558375635 Y15.951776649746192 I0 J1.1751269035532994
G3 X34.2994923857868 Y16.210659898477157 I-0.4593908629441624 J1.1015228426395938
G3 X34.558375634517766 Y16.596446700507613 I-0.8451776649746192 J0.8451776649746192
G3 X34.64720812182741 Y17.048223350253807 I-1.0862944162436547 J0.45177664974619286
G3 X34.558375634517766 Y17.5 I-1.1751269035532994 J0
G3 X34.2994923857868 Y17.885786802030456 I-1.1015228426395938 J-0.4593908629441624
G3 X33.91370558375635 Y18.144670050761423 I-0.8451776649746192 J-0.8451776649746192
G3 X33.46192893401015 Y18.23350253807107 I-0.45177664974619286 J-1.0837563451776648
G3 X33.101522842639596 Y18.17766497461929 I0 J-1.16751269035533
G3 X32.7741116751269 Y18.01015228426396 I0.3629441624365482 J-1.119289340101523
G3 X32.52030456852792 Y17.758883248730967 I0.7030456852791878 J-0.9720812182741116
G3 X32.40862944162436 Y17.578680203045685 I0.9593908629441625 J-0.7208121827411168
G0 Z2
G0 X31.920304568527918 Y25.796446700507616
G1 Z-0.25 F50
G1 X35.28172588832487 Y25.195431472081218 F150
G1 X35.28172588832487 Y24.441624365482234
G3 X35.47715736040609 Y24.246192893401016 I0.1954314720812183 J0
G1 X37.30710659898477 Y24.246192893401016
G1 X37.56091370558376 Y24.246192893401016
G3 X37.756345177664976 Y24.441624365482234 I0 J0.1954314720812183
G1 X37.756345177664976 Y26.522842639593907
G3 X37.56091370558376 Y26.71827411167513 I-0.1954314720812183 J0
G1 X35.47715736040609 Y26.71827411167513
G3 X35.28172588832487 Y26.522842639593907 I0 J-0.1954314720812183
G1 X35.28172588832487 Y26.210659898477154
G1 X32.390862944162436 Y26.72842639593909
G1 X31.550761421319798 Y29.31218274111675
G3 X31.631979695431475 Y29.398477157360404 I-0.8197969543147209 J0.8553299492385786
G3 X31.776649746192895 Y29.614213197969544 I-0.8781725888324874 J0.748730964467005
G3 X31.873096446700508 Y29.86802030456853 I-1.00253807106599 J0.5228426395939086
G3 X31.903553299492383 Y30.13451776649746 I-1.0913705583756346 J0.26649746192893403
G3 X31.81725888324873 Y30.571065989847718 I-1.1370558375634519 J0
G3 X31.565989847715734 Y30.944162436548226 I-1.0685279187817258 J-0.4467005076142132
G3 X31.192893401015226 Y31.195431472081218 I-0.8197969543147209 J-0.8197969543147209
G3 X30.756345177664976 Y31.281725888324875 I-0.4365482233502538 J-1.0482233502538072
G3 X30.31979695431472 Y31.195431472081218 I0 J-1.134517766497462
G3 X29.946700507614214 Y30.944162436548226 I0.44416243654822335 J-1.0659898477157361
G3 X29.695431472081218 Y30.571065989847718 I0.8197969543147209 J-0.817258883248731
G3 X29.609137055837564 Y30.13451776649746 I1.050761421319797 J-0.4365482233502538
G3 X29.695431472081218 Y29.700507614213198 I1.1370558375634519 J0
G3 X29.941624365482234 Y29.329949238578678 I1.0659898477157361 J0.4416243654822335
G3 X30.30964467005076 Y29.078680203045685 I0.8197969543147209 J0.8147208121827411
G3 X30.601522842639596 Y29 I0.4467005076142132 J1.0482233502538072
G1 X31.51522842639594 Y26.18781725888325
G3 X31.560913705583754 Y26.058375634517766 I0.48984771573604063 J0.09898477157360405
G3 X31.652284263959388 Y25.934010152284266 I0.44416243654822335 J0.23096446700507614
G3 X31.776649746192895 Y25.84517766497462 I0.35279187817258884 J0.3553299492385787
G3 X31.921319796954315 Y25.796954314720814 I0.22842639593908629 J0.44416243654822335
G0 Z2
G0 X33.84796954314721 Y33.16395939086294
G1 Z-0.25 F50
G1 X36.03807106598985 Y35.01269035532995 F150
G1 X36.055837563451774 Y35.005076142131976
G3 X36.20558375634518 Y34.9492385786802 I0.48984771573604063 J1.0710659898477157
G3 X36.36802030456853 Y34.911167512690355 I0.33248730964467005 J1.1065989847715736
G3 X36.535532994923855 Y34.901015228426395 I0.16751269035532995 J1.131979695431472
G3 X36.98730964467005 Y34.98984771573604 I0 J1.1751269035532994
G3 X37.37309644670051 Y35.248730964467 I-0.4593908629441624 J1.1015228426395938
G3 X37.63197969543147 Y35.63451776649746 I-0.8451776649746192 J0.8451776649746192
G3 X37.72081218274111 Y36.08629441624365 I-1.0837563451776648 J0.45177664974619286
G3 X37.63197969543147 Y36.53807106598985 I-1.1751269035532994 J0
G3 X37.37309644670051 Y36.923857868020306 I-1.1015228426395938 J-0.4593908629441624
G3 X36.98730964467005 Y37.180203045685275 I-0.8451776649746192 J-0.8451776649746192
G3 X36.535532994923855 Y37.27157360406091 I-0.45177664974619286 J-1.0837563451776648
G3 X36.08375634517766 Y37.180203045685275 I0 J-1.1751269035532994
G3 X35.69796954314721 Y36.923857868020306 I0.4593908629441624 J-1.1015228426395938
G3 X35.441624365482234 Y36.53807106598985 I0.8451776649746192 J-0.8451776649746192
G3 X35.3502538071066 Y36.08629441624365 I1.0837563451776648 J-0.45177664974619286
G3 X35.35279187817259 Y36.04822335025381 I0.1954314720812183 J0
G1 X35.40609137055838 Y35.786802030456855
G1 X33.21573604060914 Y33.93908629441624
G3 X33.192893401015226 Y33.95177664974619 I-0.5609137055837563 J-1.134517766497462
G3 X33.03045685279188 Y34.01269035532995 I-0.5203045685279188 J-1.114213197969543
G3 X32.85532994923858 Y34.05329949238579 I-0.3553299492385787 J-1.1624365482233503
G3 X32.67766497461929 Y34.065989847715734 I-0.1802030456852792 J-1.1979695431472082
G3 X32.20558375634518 Y33.97208121827411 I0 J-1.2258883248730965
G3 X31.80456852791878 Y33.70304568527919 I0.47969543147208127 J-1.1497461928934012
G3 X31.53299492385787 Y33.30203045685279 I0.8807106598984772 J-0.8807106598984772
G3 X31.439086294416242 Y32.82994923857868 I1.131979695431472 J-0.47208121827411165
G3 X31.52030456852792 Y32.39340101522843 I1.215736040609137 J0
G3 X31.753807106598984 Y32.01269035532995 I1.1497461928934012 J0.4416243654822335
G3 X32.098984771573605 Y31.743654822335024 I0.9314720812182741 J0.83248730964467
G3 X32.37309644670051 Y31.63705583756345 I0.5786802030456852 J1.0939086294416243
G1 X32.8248730964467 Y29.012690355329948
G3 X32.83756345177665 Y28.911167512690355 I0.5 J0.017766497461928935
G3 X32.880710659898476 Y28.799492385786802 I0.4847715736040609 J0.11928934010152284
G3 X32.9492385786802 Y28.700507614213198 I0.4416243654822335 J0.23096446700507614
G3 X33.03553299492386 Y28.624365482233504 I0.3756345177664975 J0.3299492385786802
G3 X33.12690355329949 Y28.571065989847714 I0.29441624365482233 J0.4035532994923858
G3 X33.21827411167513 Y28.54060913705584 I0.20304568527918782 J0.45685279187817257
G1 X35.29187817258883 Y27.885786802030456
G3 X35.378172588832484 Y27.555837563451778 I1.2385786802030458 J0.1446700507614213
G3 X35.64467005076142 Y27.1497461928934 I1.1522842639593909 J0.47208121827411165
G3 X36.045685279187815 Y26.880710659898476 I0.8807106598984772 J0.8730964467005076
G3 X36.51776649746193 Y26.78680203045685 I0.47208121827411165 J1.1294416243654823
G3 X36.98984771573604 Y26.880710659898476 I0 J1.2258883248730965
G3 X37.390862944162436 Y27.1497461928934 I-0.47969543147208127 J1.1497461928934012
G3 X37.65989847715736 Y27.550761421319798 I-0.8807106598984772 J0.8807106598984772
G3 X37.756345177664976 Y28.02284263959391 I-1.131979695431472 J0.47208121827411165
G3 X37.65989847715736 Y28.492385786802032 I-1.2233502538071066 J0
G3 X37.390862944162436 Y28.895939086294415 I-1.1472081218274113 J-0.47969543147208127
G3 X36.98984771573604 Y29.16497461928934 I-0.8807106598984772 J-0.8807106598984772
G3 X36.51776649746193 Y29.258883248730964 I-0.47208121827411165 J-1.134517766497462
G3 X36.21827411167513 Y29.220812182741117 I0 J-1.2258883248730965
G3 X35.93654822335025 Y29.111675126903553 I0.29949238578680204 J-1.1903553299492384
G3 X35.69796954314721 Y28.941624365482234 I0.5913705583756345 J-1.0964467005076142
G3 X35.59390862944162 Y28.837563451776653 I0.8375634517766497 J-0.9365482233502538
G1 X33.76903553299493 Y29.413705583756347
G1 X33.360406091370564 Y31.80710659898477
G3 X33.50761421319797 Y31.921319796954315 I-0.7005076142131981 J1.050761421319797
G3 X33.723350253807105 Y32.17766497461929 I-0.8401015228426396 J0.9238578680203046
G3 X33.86548223350254 Y32.48984771573604 I-1.032994923857868 J0.6548223350253807
G3 X33.91370558375635 Y32.82994923857868 I-1.1649746192893402 J0.3401015228426396
G3 X33.90862944162436 Y32.870558375634516 I-0.1954314720812183 J0
G1 X33.84771573604061 Y33.16497461928934
G0 Z2
G0 X23.804568527918782 Y41.996700507614214
G1 Z-0.25 F50
G1 X24.203045685279186 Y40.934010152284266 F150
G3 X24.385786802030456 Y40.807106598984774 I0.18274111675126906 J0.06852791878172589
G1 X24.62944162436548 Y40.807106598984774
G3 X24.809644670050762 Y40.934010152284266 I0 J0.1954314720812183
G1 X25.205583756345177 Y41.982233502538065
G3 X25.31979695431472 Y41.97208121827411 I0.07614213197969544 J0.1802030456852792
G1 X25.423857868020306 Y41.992385786802025
G1 X25.423857868020306 Y41.368020304568525
G1 X25.30964467005076 Y41.368020304568525
G3 X25.11421319796954 Y41.17258883248731 I0 J-0.1954314720812183
G1 X25.11421319796954 Y41.002538071065985
G3 X25.30964467005076 Y40.807106598984774 I0.1954314720812183 J0
G1 X26.126903553299492 Y40.807106598984774
G3 X26.31472081218274 Y40.944162436548226 I0 J0.1954314720812183
G3 X26.32233502538071 Y41.002538071065985 I-0.18527918781725888 J0.05837563451776649
G1 X26.32233502538071 Y41.17258883248731
G3 X26.304568527918782 Y41.253807106598984 I-0.1954314720812183 J0
G3 X26.126903553299492 Y41.368020304568525 I-0.17766497461928935 J-0.08121827411167513
G1 X26.01269035532995 Y41.368020304568525
G1 X26.01269035532995 Y42.41624365482234
G3 X25.817258883248734 Y42.609137055837564 I-0.1954314720812183 J0
G1 X25.621827411167516 Y42.609137055837564
G3 X25.583756345177665 Y42.60659898477157 I0 J-0.1954314720812183
G1 X25.243654822335024 Y42.53807106598985
G3 X25.086294416243653 Y42.34517766497462 I0.03807106598984772 J-0.1903553299492386
G1 X25.086294416243653 Y42.25126903553299
G3 X25.027918781725887 Y42.26142131979695 I-0.05837563451776649 J-0.18527918781725888
G1 X24.83248730964467 Y42.26142131979695
G3 X24.6497461928934 Y42.13197969543147 I0 J-0.1954314720812183
G1 X24.507614213197968 Y41.75126903553299
G1 X24.36548223350254 Y42.13197969543147
G3 X24.182741116751266 Y42.26142131979695 I-0.18274111675126906 J-0.06852791878172589
G1 X23.98730964467005 Y42.26142131979695
G3 X23.79187817258883 Y42.065989847715734 I0 J-0.1954314720812183
G3 X23.804568527918782 Y41.99746192893401 I0.1954314720812183 J0
G0 Z2
G0 X28.7753807106599 Y19.329441624365483
G1 Z-0.25 F50
G1 X29.763959390862947 Y19.401015228426395 F150
G3 X29.870558375634516 Y19.246192893401016 I0.9974619289340102 J0.5786802030456852
G3 X30.116751269035532 Y19.0253807106599 I0.8959390862944162 J0.7385786802030457
G3 X30.421319796954315 Y18.878172588832488 I0.6421319796954316 J0.9492385786802031
G3 X30.756345177664976 Y18.82741116751269 I0.3350253807106599 J1.0862944162436547
G3 X31.192893401015226 Y18.913705583756347 I0 J1.1370558375634519
G3 X31.565989847715734 Y19.164974619289342 I-0.4467005076142132 J1.0685279187817258
G3 X31.81725888324873 Y19.538071065989847 I-0.8197969543147209 J0.8197969543147209
G3 X31.903553299492383 Y19.9746192893401 I-1.0482233502538072 J0.4365482233502538
G3 X31.81725888324873 Y20.411167512690355 I-1.134517766497462 J0
G3 X31.565989847715734 Y20.784263959390863 I-1.0659898477157361 J-0.44416243654822335
G3 X31.192893401015226 Y21.03553299492386 I-0.817258883248731 J-0.8197969543147209
G3 X30.756345177664976 Y21.121827411167512 I-0.4365482233502538 J-1.050761421319797
G3 X30.383248730964464 Y21.058375634517766 I0 J-1.131979695431472
G3 X30.050761421319798 Y20.875634517766496 I0.3756345177664975 J-1.0786802030456852
G3 X29.799492385786802 Y20.601522842639596 I0.7208121827411168 J-0.9111675126903553
G3 X29.695431472081218 Y20.398477157360407 I0.9644670050761421 J-0.6319796954314721
G1 X28.70812182741117 Y20.327411167512693
G3 X28.601522842639593 Y20.47715736040609 I-0.9822335025380711 J-0.5761421319796954
G3 X28.36040609137056 Y20.69543147208122 I-0.883248730964467 J-0.7335025380710659
G3 X28.058375634517766 Y20.84010152284264 I-0.6345177664974619 J-0.9390862944162437
G3 X27.72842639593909 Y20.89086294416244 I-0.3299492385786802 J-1.0761421319796955
G3 X27.294416243654823 Y20.804568527918782 I0 J-1.1269035532994924
G3 X26.926395939086298 Y20.555837563451774 I0.4390862944162437 J-1.0558375634517767
G3 X26.680203045685282 Y20.187817258883246 I0.8071065989847716 J-0.8071065989847716
G3 X26.593908629441625 Y19.756345177664976 I1.0406091370558377 J-0.4314720812182741
G3 X26.680203045685282 Y19.32233502538071 I1.1269035532994924 J0
G3 X26.926395939086298 Y18.95431472081218 I1.0558375634517767 J0.4390862944162437
G3 X27.294416243654823 Y18.70812182741117 I0.8071065989847716 J0.8071065989847716
G3 X27.72842639593909 Y18.619289340101524 I0.4314720812182741 J1.0406091370558377
G3 X28.096446700507617 Y18.68274111675127 I0 J1.116751269035533
G3 X28.423857868020303 Y18.860406091370557 I-0.37055837563451777 J1.0659898477157361
G3 X28.67005076142132 Y19.131979695431472 I-0.7106598984771574 J0.9035532994923857
G3 X28.774111675126903 Y19.32994923857868 I-0.9543147208121827 J0.6294416243654822
G0 Z2
G0 X11.457106598984772 Y17.675888324873096
G1 Z-0.25 F50
G1 X10.52030456852792 Y17.63959390862944 F150
G3 X10.406091370558375 Y17.81725888324873 I-1.0659898477157361 J-0.5507614213197969
G3 X10.152284263959391 Y18.065989847715734 I-0.9543147208121827 J-0.7284263959390863
G3 X9.827411167512691 Y18.228426395939085 I-0.6852791878172588 J-0.9568527918781726
G3 X9.469543147208121 Y18.284263959390863 I-0.35786802030456855 J-1.1116751269035532
G3 X9.01776649746193 Y18.195431472081218 I0 J-1.1725888324873095
G3 X8.631979695431472 Y17.936548223350254 I0.4593908629441624 J-1.1015228426395938
G3 X8.375634517766496 Y17.550761421319795 I0.8451776649746192 J-0.8451776649746192
G3 X8.284263959390863 Y17.098984771573605 I1.0862944162436547 J-0.45177664974619286
G3 X8.375634517766496 Y16.64720812182741 I1.1751269035532994 J0
G3 X8.631979695431472 Y16.261421319796952 I1.1015228426395938 J0.4593908629441624
G3 X9.01776649746193 Y16.00253807106599 I0.8451776649746192 J0.8426395939086294
G3 X9.469543147208121 Y15.913705583756347 I0.45177664974619286 J1.0837563451776648
G3 X9.847715736040609 Y15.97715736040609 I0 J1.1649746192893402
G3 X10.18781725888325 Y16.15989847715736 I-0.383248730964467 J1.114213197969543
G3 X10.446700507614214 Y16.436548223350254 I-0.7360406091370558 J0.9492385786802031
G3 X10.558375634517766 Y16.64213197969543 I-0.9898477157360407 J0.6700507614213198
G1 X11.49238578680203 Y16.67766497461929
G3 X11.598984771573605 Y16.51522842639594 I1.0076142131979695 J0.5456852791878173
G3 X11.84263959390863 Y16.284263959390863 I0.9035532994923857 J0.7106598984771574
G3 X12.1497461928934 Y16.131979695431472 I0.6497461928934011 J0.9238578680203046
G3 X12.48730964467005 Y16.078680203045685 I0.3375634517766497 J1.0685279187817258
G3 X12.921319796954315 Y16.16751269035533 I0 J1.1269035532994924
G3 X13.289340101522843 Y16.413705583756347 I-0.4390862944162437 J1.0558375634517767
G3 X13.535532994923859 Y16.78172588832487 I-0.8071065989847716 J0.8071065989847716
G3 X13.624365482233502 Y17.215736040609137 I-1.0406091370558377 J0.4314720812182741
G3 X13.535532994923859 Y17.64720812182741 I-1.1269035532994924 J0
G3 X13.289340101522843 Y18.01522842639594 I-1.0558375634517767 J-0.4390862944162437
G3 X12.921319796954315 Y18.263959390862944 I-0.8071065989847716 J-0.8071065989847716
G3 X12.48730964467005 Y18.350253807106597 I-0.4314720812182741 J-1.0406091370558377
G3 X12.129441624365482 Y18.289340101522843 I0 J-1.116751269035533
G3 X11.80964467005076 Y18.119289340101524 I0.3604060913705584 J-1.0659898477157361
G3 X11.563451776649746 Y17.86294416243655 I0.6954314720812182 J-0.9137055837563451
G3 X11.456852791878172 Y17.6751269035533 I0.9416243654822334 J-0.6548223350253807
G0 Z2
G0 X11.457106598984772 Y20.215736040609137
G1 Z-0.25 F50
G1 X10.52030456852792 Y20.180203045685282 F150
G3 X10.406091370558375 Y20.357868020304572 I-1.0659898477157361 J-0.5507614213197969
G3 X10.152284263959391 Y20.60406091370558 I-0.9543147208121827 J-0.7284263959390863
G3 X9.827411167512691 Y20.76903553299492 I-0.6852791878172588 J-0.9568527918781726
G3 X9.469543147208121 Y20.824873096446698 I-0.35786802030456855 J-1.1116751269035532
G3 X9.01776649746193 Y20.733502538071065 I0 J-1.1751269035532994
G3 X8.631979695431472 Y20.47715736040609 I0.4593908629441624 J-1.1015228426395938
G3 X8.375634517766496 Y20.091370558375633 I0.8451776649746192 J-0.8451776649746192
G3 X8.284263959390863 Y19.639593908629443 I1.0862944162436547 J-0.45177664974619286
G3 X8.375634517766496 Y19.18781725888325 I1.1751269035532994 J0
G3 X8.631979695431472 Y18.80203045685279 I1.1015228426395938 J0.4593908629441624
G3 X9.01776649746193 Y18.54314720812183 I0.8426395939086294 J0.8426395939086294
G3 X9.469543147208121 Y18.454314720812185 I0.45177664974619286 J1.0862944162436547
G3 X9.847715736040609 Y18.517766497461928 I0 J1.16751269035533
G3 X10.18781725888325 Y18.700507614213198 I-0.383248730964467 J1.114213197969543
G3 X10.446700507614214 Y18.9746192893401 I-0.7360406091370558 J0.9492385786802031
G3 X10.558375634517766 Y19.180203045685282 I-0.9898477157360407 J0.6700507614213198
G1 X11.49238578680203 Y19.215736040609137
G3 X11.598984771573605 Y19.055837563451774 I1.0076142131979695 J0.5456852791878173
G3 X11.84263959390863 Y18.8248730964467 I0.9035532994923857 J0.7081218274111676
G3 X12.1497461928934 Y18.67258883248731 I0.6497461928934011 J0.9238578680203046
G3 X12.48730964467005 Y18.619289340101524 I0.3375634517766497 J1.0685279187817258
G3 X12.921319796954315 Y18.70812182741117 I0 J1.1269035532994924
G3 X13.289340101522843 Y18.95431472081218 I-0.4390862944162437 J1.0558375634517767
G3 X13.535532994923859 Y19.32233502538071 I-0.8071065989847716 J0.8071065989847716
G3 X13.624365482233502 Y19.756345177664976 I-1.0406091370558377 J0.4314720812182741
G3 X13.535532994923859 Y20.187817258883246 I-1.1269035532994924 J0
G3 X13.289340101522843 Y20.555837563451774 I-1.0558375634517767 J-0.4390862944162437
G3 X12.921319796954315 Y20.804568527918782 I-0.8071065989847716 J-0.8071065989847716
G3 X12.48730964467005 Y20.89086294416244 I-0.4314720812182741 J-1.0406091370558377
G3 X12.129441624365482 Y20.82994923857868 I0 J-1.116751269035533
G3 X11.80964467005076 Y20.65989847715736 I0.3604060913705584 J-1.0659898477157361
G3 X11.563451776649746 Y20.403553299492387 I0.6954314720812182 J-0.9137055837563451
G3 X11.456852791878172 Y20.215736040609137 I0.9416243654822334 J-0.6548223350253807
G0 Z2
G0 X11.456345177664975 Y15.13527918781726
G1 Z-0.25 F50
G1 X10.52030456852792 Y15.098984771573605 F150
G3 X10.406091370558375 Y15.276649746192895 I-1.0659898477157361 J-0.5507614213197969
G3 X10.152284263959391 Y15.525380710659899 I-0.9543147208121827 J-0.7284263959390863
G3 X9.827411167512691 Y15.687817258883248 I-0.6852791878172588 J-0.9568527918781726
G3 X9.469543147208121 Y15.743654822335024 I-0.35786802030456855 J-1.1116751269035532
G3 X9.01776649746193 Y15.65482233502538 I0 J-1.1751269035532994
G3 X8.631979695431472 Y15.395939086294417 I0.4593908629441624 J-1.1015228426395938
G3 X8.375634517766496 Y15.01015228426396 I0.8426395939086294 J-0.8426395939086294
G3 X8.284263959390863 Y14.558375634517766 I1.0862944162436547 J-0.45177664974619286
G3 X8.375634517766496 Y14.106598984771574 I1.1776649746192893 J0
G3 X8.631979695431472 Y13.723350253807107 I1.1040609137055837 J0.4593908629441624
G3 X9.01776649746193 Y13.464467005076141 I0.8451776649746192 J0.8426395939086294
G3 X9.469543147208121 Y13.373096446700508 I0.45177664974619286 J1.0837563451776648
G3 X9.847715736040609 Y13.436548223350254 I0 J1.1649746192893402
G3 X10.18781725888325 Y13.619289340101524 I-0.383248730964467 J1.114213197969543
G3 X10.446700507614214 Y13.895939086294415 I-0.7360406091370558 J0.9492385786802031
G3 X10.558375634517766 Y14.101522842639593 I-0.9898477157360407 J0.6700507614213198
G1 X11.49238578680203 Y14.137055837563452
G3 X11.598984771573605 Y13.974619289340103 I1.0050761421319796 J0.5456852791878173
G3 X11.84263959390863 Y13.746192893401014 I0.9035532994923857 J0.7106598984771574
G3 X12.1497461928934 Y13.593908629441625 I0.6497461928934011 J0.9238578680203046
G3 X12.48730964467005 Y13.540609137055837 I0.3375634517766497 J1.0685279187817258
G3 X12.921319796954315 Y13.626903553299492 I0 J1.1269035532994924
G3 X13.289340101522843 Y13.873096446700508 I-0.4390862944162437 J1.0558375634517767
G3 X13.535532994923859 Y14.243654822335026 I-0.8071065989847716 J0.8071065989847716
G3 X13.624365482233502 Y14.675126903553299 I-1.0406091370558377 J0.4314720812182741
G3 X13.535532994923859 Y15.109137055837563 I-1.1269035532994924 J0
G3 X13.289340101522843 Y15.47715736040609 I-1.0558375634517767 J-0.4390862944162437
G3 X12.921319796954315 Y15.723350253807107 I-0.8071065989847716 J-0.8071065989847716
G3 X12.48730964467005 Y15.809644670050762 I-0.4314720812182741 J-1.0406091370558377
G3 X12.129441624365482 Y15.751269035532996 I0 J-1.116751269035533
G3 X11.80710659898477 Y15.578680203045685 I0.3604060913705584 J-1.0659898477157361
G3 X11.560913705583758 Y15.322335025380712 I0.6954314720812182 J-0.9137055837563451
G3 X11.456852791878172 Y15.134517766497462 I0.9416243654822334 J-0.6548223350253807
G0 Z2
G0 X3.155329949238579 Y11.85761421319797
G1 Z-0.25 F50
G1 X3.913705583756345 Y11.850253807106599 F150
G3 X4.025380710659898 Y11.657360406091371 I1.0913705583756346 J0.5
G3 X4.281725888324873 Y11.393401015228426 I0.9796954314720813 J0.6954314720812182
G3 X4.616751269035532 Y11.215736040609137 I0.7081218274111676 J0.9390862944162437
G3 X4.987309644670051 Y11.154822335025381 I0.37055837563451777 J1.1040609137055837
G3 X5.439086294416243 Y11.246192893401014 I0 J1.1751269035532994
G3 X5.822335025380711 Y11.50507614213198 I-0.4593908629441624 J1.1015228426395938
G3 X6.081218274111675 Y11.890862944162437 I-0.8451776649746192 J0.8451776649746192
G3 X6.17258883248731 Y12.342639593908629 I-1.0837563451776648 J0.45177664974619286
G3 X6.081218274111675 Y12.794416243654823 I-1.1751269035532994 J0
G3 X5.822335025380711 Y13.17766497461929 I-1.1015228426395938 J-0.4593908629441624
G3 X5.439086294416243 Y13.436548223350254 I-0.8451776649746192 J-0.8451776649746192
G3 X4.987309644670051 Y13.525380710659897 I-0.45177664974619286 J-1.0862944162436547
G3 X4.619289340101523 Y13.467005076142131 I0 J-1.1649746192893402
G3 X4.289340101522843 Y13.296954314720812 I0.3680203045685279 J-1.116751269035533
G3 X4.035532994923858 Y13.038071065989847 I0.7131979695431472 J-0.9644670050761421
G3 X3.9213197969543145 Y12.8502538071066 I0.9695431472081218 J-0.7081218274111676
G1 X3.16497461928934 Y12.857868020304569
G3 X3.0558375634517763 Y13.038071065989847 I-1.0482233502538072 J-0.5
G3 X2.8096446700507616 Y13.289340101522843 I-0.9416243654822334 J-0.6802030456852792
G3 X2.487309644670051 Y13.456852791878173 I-0.6802030456852792 J-0.9137055837563451
G3 X2.1319796954314723 Y13.51522842639594 I-0.3553299492385787 J-1.0710659898477157
G3 X1.6954314720812182 Y13.426395939086294 I0 J-1.1370558375634519
G3 X1.3223350253807107 Y13.17766497461929 I0.44416243654822335 J-1.0685279187817258
G3 X1.0710659898477157 Y12.804568527918782 I0.817258883248731 J-0.817258883248731
G3 X0.9847715736040609 Y12.368020304568528 I1.0482233502538072 J-0.4365482233502538
G3 X1.0710659898477157 Y11.928934010152282 I1.1370558375634519 J0
G3 X1.3223350253807107 Y11.555837563451776 I1.0685279187817258 J0.44416243654822335
G3 X1.6954314720812182 Y11.30710659898477 I0.817258883248731 J0.8197969543147209
G3 X2.1319796954314723 Y11.218274111675125 I0.4365482233502538 J1.050761421319797
G3 X2.482233502538071 Y11.274111675126903 I0 J1.1269035532994924
G3 X2.799492385786802 Y11.436548223350254 I-0.3553299492385787 J1.0837563451776648
G3 X3.048223350253807 Y11.68274111675127 I-0.6852791878172588 J0.9390862944162437
G3 X3.1548223350253806 Y11.857868020304569 I-0.9314720812182741 J0.6928934010152283
G0 Z2
G0 X21.369035532994925 Y41.7251269035533
G1 Z-0.25 F50
G1 X21.3502538071066 Y41.723350253807105 F150
G1 X21.19035532994924 Y41.723350253807105
G1 X21.19035532994924 Y41.37309644670051
G1 X21.192893401015226 Y41.352791878172596
G1 X21.3502538071066 Y41.352791878172596
G1 X21.368020304568528 Y41.352791878172596
G1 X21.368020304568528 Y41.35532994923857
G1 X21.368020304568528 Y41.7258883248731
G0 Z2
G0 X21.94441624365482 Y41.3738578680203
G1 Z-0.25 F50
G1 X21.949238578680202 Y41.352791878172596 F150
G1 X22.065989847715738 Y41.352791878172596
G1 X22.065989847715738 Y41.368020304568525
G2 X22.053299492385786 Y41.52284263959391 I0.9467005076142132 J0.15482233502538073
G2 X22.063451776649746 Y41.68020304568528 I1.0583756345177666 J0
G2 X22.071065989847718 Y41.723350253807105 I0.7944162436548223 J-0.11928934010152284
G1 X21.944162436548226 Y41.723350253807105
G1 X21.944162436548226 Y41.37309644670051
G0 Z2
G0 X15.059390862944163 Y41.69720812182741
G1 Z-0.25 F50
G2 X14.888324873096446 Y41.68527918781726 I-0.09644670050761422 J0.1700507614213198 F150
G1 X14.771573604060915 Y41.73350253807107
G1 X14.65989847715736 Y41.748730964467
G3 X14.621827411167512 Y41.74365482233503 I0.012690355329949238 J-0.27411167512690354
G3 X14.593908629441625 Y41.73604060913705 I0.025380710659898477 J-0.13705583756345177
G1 X14.573604060913706 Y41.723350253807105
G3 X14.553299492385786 Y41.70812182741117 I0.06345177664974619 J-0.08883248730964467
G3 X14.538071065989849 Y41.682741116751274 I0.09390862944162437 J-0.08375634517766498
G3 X14.52284263959391 Y41.64720812182742 I0.17512690355329952 J-0.09644670050761422
G3 X14.51269035532995 Y41.60152284263959 I0.2639593908629442 J-0.08121827411167513
G3 X14.50761421319797 Y41.53299492385787 I0.5126903553299492 J-0.07106598984771574
G3 X14.51269035532995 Y41.46192893401015 I0.5203045685279188 J0
G3 X14.52284263959391 Y41.41878172588832 I0.2766497461928934 J0.03807106598984772
G3 X14.538071065989849 Y41.380710659898476 I0.1954314720812183 J0.06091370558375635
G3 X14.553299492385786 Y41.357868020304565 I0.11421319796954314 J0.06345177664974619
G1 X14.571065989847716 Y41.340101522842644
G1 X14.593908629441625 Y41.32741116751269
G3 X14.621827411167512 Y41.31979695431472 I0.053299492385786795 J0.1319796954314721
G3 X14.65989847715736 Y41.31725888324873 I0.04822335025380711 J0.2715736040609137
G1 X14.771573604060915 Y41.32994923857868
G1 X14.888324873096446 Y41.380710659898476
G2 X15.058375634517766 Y41.368020304568525 I0.07360406091370558 J-0.1802030456852792
G1 X15.058375634517766 Y41.6979695431472
G0 Z2
G0 X17.50507614213198 Y41.46065989847716
G1 Z-0.25 F50
G3 X17.51269035532995 Y41.41370558375635 I0.3477157360406091 J0.04060913705583757 F150
G3 X17.527918781725887 Y41.37309644670051 I0.2436548223350254 J0.06345177664974619
G3 X17.54060913705584 Y41.3502538071066 I0.1218274111675127 J0.05583756345177665
G1 X17.553299492385786 Y41.33756345177665
G1 X17.565989847715734 Y41.32994923857868
G3 X17.593908629441625 Y41.3248730964467 I0.030456852791878174 J0.1116751269035533
G1 X17.619289340101524 Y41.32741116751269
G1 X17.629441624365484 Y41.33502538071066
G1 X17.64720812182741 Y41.3502538071066
G3 X17.659898477157363 Y41.37309644670051 I-0.1116751269035533 J0.08121827411167513
G3 X17.6751269035533 Y41.41370558375635 I-0.22588832487309643 J0.10406091370558375
G3 X17.685279187817258 Y41.46192893401015 I-0.3299492385786802 J0.08883248730964467
G3 X17.68781725888325 Y41.53299492385787 I-0.6065989847715736 J0.07106598984771574
G3 X17.685279187817258 Y41.60406091370558 I-0.6091370558375635 J0
G3 X17.6751269035533 Y41.65228426395939 I-0.3350253807106599 J-0.03807106598984772
G3 X17.66243654822335 Y41.69035532994924 I-0.23604060913705582 J-0.06345177664974619
G3 X17.64720812182741 Y41.713197969543145 I-0.1218274111675127 J-0.05583756345177665
G3 X17.626903553299492 Y41.73096446700508 I-0.07106598984771574 J-0.05583756345177665
G3 X17.593908629441625 Y41.73857868020305 I-0.04060913705583757 J-0.10659898477157359
G1 X17.568527918781726 Y41.73604060913705
G1 X17.558375634517766 Y41.73096446700508
G1 X17.54060913705584 Y41.713197969543145
G1 X17.527918781725887 Y41.692893401015226
G3 X17.51269035532995 Y41.65228426395939 I0.2233502538071066 J-0.10152284263959391
G3 X17.50507614213198 Y41.60406091370558 I0.33248730964467005 J-0.08629441624365483
G3 X17.5 Y41.53299492385787 I0.6319796954314721 J-0.07106598984771574
G3 X17.50507614213198 Y41.45939086294416 I0.6395939086294417 J0
G0 Z2
G0 X18.773096446700507 Y41.45380710659899
G1 Z-0.25 F50
G1 X18.774111675126903 Y42.065989847715734 F150
G3 X18.578680203045685 Y42.26142131979695 I-0.1954314720812183 J0
G1 X18.393401015228427 Y42.26142131979695
G3 X18.230964467005077 Y42.172588832487314 I0 J-0.1954314720812183
G3 X18.065989847715734 Y42.26142131979695 I-0.16243654822335027 J-0.10659898477157359
G1 X17.883248730964468 Y42.26142131979695
G3 X17.789340101522843 Y42.23604060913706 I0 J-0.1954314720812183
G1 X17.596446700507617 Y42.28172588832487
G3 X17.550761421319795 Y42.28426395939087 I-0.043147208121827416 J-0.1903553299492386
G3 X17.416243654822335 Y42.27157360406092 I0 J-0.6319796954314721
G3 X17.289340101522843 Y42.2258883248731 I0.11928934010152284 J-0.5456852791878173
G3 X17.18020304568528 Y42.15482233502538 I0.24619289340101522 J-0.5050761421319797
G3 X17.083756345177665 Y42.055837563451774 I0.416243654822335 J-0.5025380710659898
G3 X17.01522842639594 Y41.95177664974619 I0.5456852791878173 J-0.42639593908629436
G1 X17.012690355329948 Y41.95685279187817
G3 X16.931472081218274 Y42.07106598984772 I-0.565989847715736 J-0.31218274111675126
G3 X16.827411167512693 Y42.16497461928934 I-0.46954314720812185 J-0.4111675126903553
G3 X16.705583756345177 Y42.233502538071065 I-0.3553299492385787 J-0.49492385786802034
G3 X16.573604060913706 Y42.27157360406092 I-0.24873096446700507 J-0.5964467005076142
G3 X16.426395939086294 Y42.28426395939087 I-0.14720812182741116 J-0.799492385786802
G3 X16.279187817258883 Y42.27157360406092 I0 J-0.817258883248731
G3 X16.14720812182741 Y42.233502538071065 I0.11675126903553298 J-0.6370558375634517
G3 X16.048223350253807 Y42.180203045685275 I0.23350253807106597 J-0.5634517766497462
G3 X15.906091370558375 Y42.2741116751269 I-0.16751269035532995 J-0.09898477157360405
G1 X15.842639593908629 Y42.28172588832487
G1 X15.80456852791878 Y42.28426395939087
G3 X15.743654822335024 Y42.28172588832487 I-0.015228426395939087 J-0.1954314720812183
G1 X15.535532994923857 Y42.233502538071065
G3 X15.439086294416244 Y42.26142131979695 I-0.09644670050761422 J-0.1700507614213198
G1 X15.253807106598984 Y42.26142131979695
G3 X15.086294416243655 Y42.16497461928934 I0 J-0.1954314720812183
G3 X15.02284263959391 Y42.200507614213194 I-0.12436548223350254 J-0.14974619289340102
G1 X14.880710659898478 Y42.24873096446701
G3 X14.84010152284264 Y42.256345177664976 I-0.06091370558375635 J-0.18527918781725888
G1 X14.68527918781726 Y42.2741116751269
G1 X14.664974619289339 Y42.2741116751269
G3 X14.51269035532995 Y42.26142131979695 I0 J-0.9263959390862944
G3 X14.378172588832488 Y42.2258883248731 I0.11675126903553298 J-0.6979695431472082
G3 X14.248730964467004 Y42.15989847715736 I0.23096446700507614 J-0.6116751269035533
G3 X14.139593908629442 Y42.068527918781726 I0.35279187817258884 J-0.5355329949238579
G3 X14.053299492385786 Y41.95685279187817 I0.46954314720812185 J-0.44923857868020306
G3 X13.99238578680203 Y41.8248730964467 I0.5939086294416244 J-0.3604060913705584
G3 X13.959390862944163 Y41.68781725888324 I0.7258883248730964 J-0.25380710659898476
G3 X13.946700507614214 Y41.53299492385787 I1.015228426395939 J-0.15482233502538073
G3 X13.959390862944163 Y41.37817258883249 I1.015228426395939 J0
G3 X13.99238578680203 Y41.24365482233503 I0.7614213197969544 J0.11675126903553298
G3 X14.053299492385786 Y41.11421319796954 I0.6624365482233502 J0.23096446700507614
G3 X14.137055837563452 Y41 I0.5685279187817259 J0.3401015228426396
G3 X14.246192893401016 Y40.90862944162437 I0.47208121827411165 J0.44416243654822335
G3 X14.370558375634516 Y40.84263959390863 I0.3604060913705584 J0.5304568527918782
G3 X14.50507614213198 Y40.804568527918775 I0.2512690355329949 J0.6345177664974619
G3 X14.65228426395939 Y40.79187817258883 I0.14974619289340102 J0.8553299492385786
G1 X14.67258883248731 Y40.79187817258883
G1 X14.83756345177665 Y40.80964467005076
G3 X14.878172588832488 Y40.817258883248726 I-0.020304568527918784 J0.19289340101522845
G1 X15.025380710659899 Y40.86548223350253
G3 X15.086294416243655 Y40.90101522842639 I-0.06345177664974619 J0.18527918781725888
G3 X15.253807106598984 Y40.807106598984774 I0.16751269035532995 J0.09898477157360405
G1 X15.439086294416244 Y40.807106598984774
G3 X15.634517766497462 Y41.002538071065985 I0 J0.1954314720812183
G1 X15.634517766497462 Y41.56091370558376
G2 X15.637055837563452 Y41.6243654822335 I0.5101522842639594 J0
G2 X15.644670050761423 Y41.66243654822335 I0.25380710659898476 J-0.03299492385786802
G2 X15.65736040609137 Y41.692893401015226 I0.1649746192893401 J-0.04822335025380711
G1 X15.66751269035533 Y41.70812182741117
G1 X15.680203045685278 Y41.72081218274112
G1 X15.700507614213198 Y41.7258883248731
G2 X15.728426395939085 Y41.73096446700508 I0.03553299492385787 J-0.19289340101522845
G1 X15.761421319796954 Y41.7258883248731
G3 X15.753807106598984 Y41.68781725888324 I0.8147208121827411 J-0.15228426395939088
G3 X15.743654822335024 Y41.53299492385787 I1.116751269035533 J-0.15482233502538073
G3 X15.753807106598984 Y41.37817258883249 I1.1243654822335025 J0
G3 X15.784263959390863 Y41.24111675126904 I0.8223350253807106 J0.11421319796954314
G3 X15.842639593908629 Y41.10913705583756 I0.7055837563451777 J0.2233502538071066
G3 X15.921319796954315 Y40.994923857868024 I0.5736040609137056 J0.3147208121827411
G3 X16.0253807106599 Y40.90101522842639 I0.46954314720812185 J0.4111675126903553
G3 X16.14720812182741 Y40.83248730964467 I0.3553299492385787 J0.49492385786802034
G3 X16.279187817258883 Y40.79187817258883 I0.24873096446700507 J0.5964467005076142
G3 X16.426395939086294 Y40.77918781725888 I0.14720812182741116 J0.8020304568527918
G3 X16.573604060913706 Y40.79187817258883 I0 J0.8121827411167513
G3 X16.705583756345177 Y40.83248730964467 I-0.11675126903553298 J0.6370558375634517
G3 X16.827411167512693 Y40.90101522842639 I-0.23350253807106597 J0.5634517766497462
G3 X16.931472081218274 Y40.994923857868024 I-0.3654822335025381 J0.5050761421319797
G3 X17.012690355329948 Y41.10913705583756 I-0.48984771573604063 J0.4289340101522843
G1 X17.01522842639594 Y41.11421319796954
G3 X17.083756345177665 Y41.00761421319797 I0.6116751269035533 J0.3197969543147208
G3 X17.18020304568528 Y40.90862944162437 I0.5126903553299492 J0.4035532994923858
G3 X17.289340101522843 Y40.83756345177665 I0.35786802030456855 J0.434010152284264
G3 X17.416243654822335 Y40.79441624365482 I0.24619289340101522 J0.5
G3 X17.550761421319795 Y40.77918781725888 I0.13705583756345177 J0.616751269035533
G3 X17.596446700507617 Y40.78426395939086 I0 J0.1954314720812183
G1 X17.68781725888325 Y40.804568527918775
G1 X17.68781725888325 Y40.601522842639596
G3 X17.883248730964468 Y40.40609137055838 I0.1954314720812183 J0
G1 X18.065989847715734 Y40.40609137055838
G3 X18.261421319796952 Y40.601522842639596 I0 J0.1954314720812183
G1 X18.261421319796952 Y41.088832487309645
G3 X18.274111675126903 Y41.06345177664974 I0.583756345177665 J0.2639593908629442
G3 X18.34010152284264 Y40.96446700507614 I0.4619289340101523 J0.23350253807106597
G3 X18.426395939086294 Y40.88324873096447 I0.3781725888324873 J0.3147208121827411
G3 X18.532994923857867 Y40.82233502538071 I0.2969543147208122 J0.4086294416243655
G3 X18.64467005076142 Y40.789340101522846 I0.2081218274111675 J0.5050761421319797
G3 X18.769035532994923 Y40.77918781725888 I0.12436548223350254 J0.6954314720812182
G3 X18.814720812182742 Y40.78426395939086 I0 J0.1954314720812183
G1 X19.007614213197968 Y40.82994923857868
G3 X19.101522842639593 Y40.807106598984774 I0.09390862944162437 J0.1700507614213198
G1 X19.286802030456855 Y40.807106598984774
G3 X19.482233502538072 Y41.002538071065985 I0 J0.1954314720812183
G1 X19.482233502538072 Y41.09137055837564
G3 X19.568527918781726 Y40.984771573604064 I0.5609137055837563 J0.3654822335025381
G3 X19.68274111675127 Y40.89340101522843 I0.47208121827411165 J0.47715736040609136
G3 X19.814720812182742 Y40.827411167512686 I0.37055837563451777 J0.5862944162436547
G3 X19.951776649746193 Y40.79187817258883 I0.25888324873096447 J0.7055837563451777
G3 X20.109137055837564 Y40.77918781725888 I0.15736040609137056 J0.9593908629441625
G1 X20.129441624365484 Y40.77918781725888
G1 X20.329949238578678 Y40.8020304568528
G3 X20.365482233502537 Y40.80964467005076 I-0.020304568527918784 J0.19289340101522845
G1 X20.558375634517766 Y40.870558375634516
G3 X20.690355329949238 Y41.015228426395936 I-0.05837563451776649 J0.18527918781725888
G3 X20.751269035532992 Y40.93908629441624 I0.32487309644670054 J0.19289340101522845
G3 X20.84010152284264 Y40.87309644670051 I0.2639593908629442 J0.2715736040609137
G3 X20.94670050761421 Y40.83248730964467 I0.24111675126903553 J0.46446700507614214
G3 X21.045685279187815 Y40.81472081218274 I0.17258883248730966 J0.6421319796954316
G3 X21.167512690355327 Y40.807106598984774 I0.1218274111675127 J1.1015228426395938
G1 X21.3502538071066 Y40.807106598984774
G3 X21.5253807106599 Y40.91878172588832 I0 J0.1954314720812183
G3 X21.593908629441625 Y40.87309644670051 I0.2436548223350254 J0.2893401015228426
G3 X21.700507614213194 Y40.83248730964467 I0.24111675126903553 J0.4619289340101523
G3 X21.7994923857868 Y40.81472081218274 I0.17258883248730966 J0.6370558375634517
G3 X21.921319796954315 Y40.807106598984774 I0.1218274111675127 J1.1015228426395938
G1 X22.104060913705585 Y40.807106598984774
G3 X22.294416243654823 Y40.95177664974619 I0 J0.1954314720812183
G3 X22.370558375634516 Y40.89340101522843 I0.4365482233502538 J0.5076142131979695
G3 X22.50253807106599 Y40.827411167512686 I0.37055837563451777 J0.5862944162436547
G3 X22.64213197969543 Y40.79187817258883 I0.25888324873096447 J0.7055837563451777
G3 X22.799492385786802 Y40.77918781725888 I0.15736040609137056 J0.9593908629441625
G1 X22.81979695431472 Y40.77918781725888
G1 X23.01776649746193 Y40.8020304568528
G3 X23.055837563451774 Y40.80964467005076 I-0.020304568527918784 J0.19289340101522845
G1 X23.246192893401016 Y40.870558375634516
G3 X23.383248730964468 Y41.05329949238579 I-0.05837563451776649 J0.18527918781725888
G1 X23.388324873096447 Y41.23096446700508
G1 X23.388324873096447 Y41.233502538071065
G3 X23.35786802030457 Y41.33756345177665 I-0.1954314720812183 J0
G3 X23.428934010152282 Y41.487309644670056 I-0.12436548223350254 J0.14974619289340102
G1 X23.428934010152282 Y41.576142131979694
G3 X23.41624365482233 Y41.723350253807105 I-0.9898477157360407 J0
G3 X23.385786802030456 Y41.8502538071066 I-0.7436548223350253 J-0.10913705583756345
G3 X23.32994923857868 Y41.974619289340104 I-0.6446700507614213 J-0.21573604060913704
G3 X23.253807106598984 Y42.08121827411168 I-0.5406091370558376 J-0.31218274111675126
G3 X23.152284263959395 Y42.172588832487314 I-0.44923857868020306 J-0.4035532994923858
G3 X23.032994923857867 Y42.23604060913706 I-0.3426395939086294 J-0.4847715736040609
G3 X22.908629441624363 Y42.2741116751269 I-0.23857868020304568 J-0.5812182741116751
G3 X22.769035532994923 Y42.28426395939087 I-0.13959390862944163 J-0.7741116751269035
G3 X22.616751269035532 Y42.27157360406092 I0 J-0.8527918781725887
G3 X22.47969543147208 Y42.233502538071065 I0.1218274111675127 J-0.6751269035532994
G3 X22.35279187817259 Y42.16497461928934 I0.2436548223350254 J-0.6015228426395939
G3 X22.29187817258883 Y42.11675126903553 I0.3807106598984772 J-0.5456852791878173
G3 X22.104060913705585 Y42.26142131979695 I-0.18781725888324874 J-0.050761421319796954
G1 X21.944162436548226 Y42.26142131979695
G1 X21.944162436548226 Y42.36294416243655
G3 X21.748730964467008 Y42.558375634517766 I-0.1954314720812183 J0
G1 X21.563451776649746 Y42.558375634517766
G3 X21.368020304568528 Y42.36294416243655 I0 J-0.1954314720812183
G1 X21.368020304568528 Y42.25888324873097
G1 X21.3502538071066 Y42.26142131979695
G1 X21.19035532994924 Y42.26142131979695
G1 X21.19035532994924 Y42.36294416243655
G3 X20.994923857868024 Y42.558375634517766 I-0.1954314720812183 J0
G1 X20.809644670050762 Y42.558375634517766
G3 X20.614213197969544 Y42.36294416243655 I0 J-0.1954314720812183
G1 X20.614213197969544 Y42.24873096446701
G3 X20.50253807106599 Y42.139593908629436 I0.06852791878172589 J-0.18274111675126906
G3 X20.461928934010153 Y42.172588832487314 I-0.3883248730964467 J-0.4619289340101523
G3 X20.34517766497462 Y42.23604060913706 I-0.3426395939086294 J-0.4847715736040609
G3 X20.218274111675125 Y42.2741116751269 I-0.23857868020304568 J-0.5812182741116751
G3 X20.078680203045685 Y42.28426395939087 I-0.13959390862944163 J-0.7741116751269035
G3 X19.926395939086294 Y42.27157360406092 I0 J-0.8527918781725887
G3 X19.79187817258883 Y42.233502538071065 I0.1218274111675127 J-0.6751269035532994
G3 X19.66497461928934 Y42.16497461928934 I0.2436548223350254 J-0.6015228426395939
G3 X19.555837563451778 Y42.068527918781726 I0.3807106598984772 J-0.5456852791878173
G3 X19.482233502538072 Y41.97208121827411 I0.49746192893401014 J-0.45685279187817257
G1 X19.482233502538072 Y42.065989847715734
G3 X19.286802030456855 Y42.26142131979695 I-0.1954314720812183 J0
G1 X19.101522842639593 Y42.26142131979695
G3 X18.908629441624363 Y42.065989847715734 I0 J-0.1954314720812183
G1 X18.908629441624363 Y41.46192893401015
G2 X18.903553299492387 Y41.41624365482233 I-0.3147208121827411 J0
G2 X18.898477157360407 Y41.39086294416244 I-0.15228426395939088 J0.022842639593908632
G1 X18.888324873096447 Y41.370558375634516
G1 X18.878172588832488 Y41.35532994923857
G1 X18.865482233502537 Y41.345177664974614
G1 X18.85532994923858 Y41.340101522842644
G1 X18.83756345177665 Y41.33502538071066
G1 X18.799492385786802 Y41.3502538071066
G1 X18.774111675126903 Y41.45431472081218
G0 Z2
G0 X28.160913705583756 Y6.006852791878172
G1 Z-0.25 F50
G3 X28.53045685279188 Y6.253807106598986 I-0.4390862944162437 J1.0558375634517767 F150
G3 X28.776649746192895 Y6.621827411167512 I-0.8071065989847716 J0.8071065989847716
G3 X28.86294416243655 Y7.055837563451776 I-1.0406091370558377 J0.4314720812182741
G3 X28.776649746192895 Y7.4873096446700504 I-1.1269035532994924 J0
G3 X28.53045685279188 Y7.8578680203045685 I-1.0558375634517767 J-0.4390862944162437
G3 X28.15989847715736 Y8.104060913705585 I-0.8071065989847716 J-0.8071065989847716
G3 X27.72842639593909 Y8.190355329949238 I-0.4314720812182741 J-1.0406091370558377
G3 X27.294416243654823 Y8.104060913705585 I0 J-1.1269035532994924
G3 X26.926395939086298 Y7.8578680203045685 I0.4390862944162437 J-1.0558375634517767
G3 X26.680203045685282 Y7.4873096446700504 I0.8071065989847716 J-0.8071065989847716
G3 X26.593908629441625 Y7.055837563451776 I1.0406091370558377 J-0.4314720812182741
G3 X26.680203045685282 Y6.621827411167512 I1.1269035532994924 J0
G3 X26.926395939086298 Y6.253807106598986 I1.0558375634517767 J0.4390862944162437
G3 X27.294416243654823 Y6.00761421319797 I0.8071065989847716 J0.8071065989847716
G3 X27.72842639593909 Y5.921319796954315 I0.4314720812182741 J1.0406091370558377
G3 X28.15989847715736 Y6.00761421319797 I0 J1.1269035532994924
G0 Z2
G0 X28.52994923857868 Y21.493908629441624
G1 Z-0.25 F50
G3 X28.776649746192895 Y21.86294416243655 I-0.8071065989847716 J0.8071065989847716 F150
G3 X28.86294416243655 Y22.294416243654823 I-1.0406091370558377 J0.4314720812182741
G3 X28.776649746192895 Y22.72842639593909 I-1.1269035532994924 J0
G3 X28.53045685279188 Y23.096446700507617 I-1.0558375634517767 J-0.4390862944162437
G3 X28.15989847715736 Y23.34263959390863 I-0.8071065989847716 J-0.8071065989847716
G3 X27.72842639593909 Y23.428934010152282 I-0.4314720812182741 J-1.0406091370558377
G3 X27.294416243654823 Y23.34263959390863 I0 J-1.1269035532994924
G3 X26.926395939086298 Y23.096446700507617 I0.4390862944162437 J-1.0558375634517767
G3 X26.680203045685282 Y22.72842639593909 I0.8071065989847716 J-0.8071065989847716
G3 X26.593908629441625 Y22.294416243654823 I1.0406091370558377 J-0.4314720812182741
G3 X26.680203045685282 Y21.86294416243655 I1.1269035532994924 J0
G3 X26.926395939086298 Y21.49492385786802 I1.0558375634517767 J0.4390862944162437
G3 X27.294416243654823 Y21.246192893401016 I0.8071065989847716 J0.8071065989847716
G3 X27.72842639593909 Y21.159898477157363 I0.4314720812182741 J1.0406091370558377
G3 X28.15989847715736 Y21.246192893401016 I0 J1.1269035532994924
G3 X28.53045685279188 Y21.49492385786802 I-0.4390862944162437 J1.0558375634517767
G0 Z2
G0 X28.52994923857868 Y31.653807106598986
G1 Z-0.25 F50
G3 X28.776649746192895 Y32.02284263959391 I-0.8071065989847716 J0.8071065989847716 F150
G3 X28.86294416243655 Y32.45431472081218 I-1.0406091370558377 J0.4314720812182741
G3 X28.776649746192895 Y32.88832487309645 I-1.1269035532994924 J0
G3 X28.53045685279188 Y33.256345177664976 I-1.0558375634517767 J-0.4390862944162437
G3 X28.15989847715736 Y33.502538071065985 I-0.8071065989847716 J-0.8071065989847716
G3 X27.72842639593909 Y33.59137055837564 I-0.4314720812182741 J-1.0406091370558377
G3 X27.294416243654823 Y33.502538071065985 I0 J-1.1269035532994924
G3 X26.926395939086298 Y33.256345177664976 I0.4390862944162437 J-1.0558375634517767
G3 X26.680203045685282 Y32.88832487309645 I0.8071065989847716 J-0.8071065989847716
G3 X26.593908629441625 Y32.45431472081218 I1.0406091370558377 J-0.4314720812182741
G3 X26.680203045685282 Y32.02284263959391 I1.1269035532994924 J0
G3 X26.926395939086298 Y31.65482233502538 I1.0558375634517767 J0.4390862944162437
G3 X27.294416243654823 Y31.40609137055838 I0.8071065989847716 J0.8071065989847716
G3 X27.72842639593909 Y31.31979695431472 I0.4314720812182741 J1.0406091370558377
G3 X28.15989847715736 Y31.40609137055838 I0 J1.1269035532994924
G3 X28.53045685279188 Y31.65482233502538 I-0.4390862944162437 J1.0558375634517767
G0 Z2
G0 X28.776649746192895 Y30.34746192893401
G1 Z-0.25 F50
G3 X28.53045685279188 Y30.715736040609137 I-1.0558375634517767 J-0.4390862944162437 F150
G3 X28.15989847715736 Y30.961928934010153 I-0.8071065989847716 J-0.8071065989847716
G3 X27.72842639593909 Y31.050761421319798 I-0.4314720812182741 J-1.0406091370558377
G3 X27.294416243654823 Y30.961928934010153 I0 J-1.1269035532994924
G3 X26.926395939086298 Y30.715736040609137 I0.4390862944162437 J-1.0558375634517767
G3 X26.680203045685282 Y30.34771573604061 I0.8071065989847716 J-0.8071065989847716
G3 X26.593908629441625 Y29.913705583756347 I1.0406091370558377 J-0.4314720812182741
G3 X26.680203045685282 Y29.48223350253807 I1.1269035532994924 J0
G3 X26.926395939086298 Y29.114213197969544 I1.0558375634517767 J0.4390862944162437
G3 X27.294416243654823 Y28.865482233502537 I0.8071065989847716 J0.8071065989847716
G3 X27.72842639593909 Y28.779187817258883 I0.4314720812182741 J1.0406091370558377
G3 X28.15989847715736 Y28.865482233502537 I0 J1.1269035532994924
G3 X28.53045685279188 Y29.114213197969544 I-0.4390862944162437 J1.0558375634517767
G3 X28.776649746192895 Y29.48223350253807 I-0.8071065989847716 J0.8071065989847716
G3 X28.86294416243655 Y29.913705583756347 I-1.0406091370558377 J0.4314720812182741
G3 X28.776649746192895 Y30.34771573604061 I-1.1269035532994924 J0
G0 Z2
G0 X28.52994923857868 Y26.573857868020305
G1 Z-0.25 F50
G3 X28.776649746192895 Y26.941624365482234 I-0.8071065989847716 J0.8071065989847716 F150
G3 X28.86294416243655 Y27.375634517766496 I-1.0406091370558377 J0.4314720812182741
G3 X28.776649746192895 Y27.807106598984774 I-1.1269035532994924 J0
G3 X28.53045685279188 Y28.177664974619287 I-1.0558375634517767 J-0.4390862944162437
G3 X28.15989847715736 Y28.423857868020303 I-0.8071065989847716 J-0.8071065989847716
G3 X27.72842639593909 Y28.51015228426396 I-0.4314720812182741 J-1.0406091370558377
G3 X27.294416243654823 Y28.423857868020303 I0 J-1.1269035532994924
G3 X26.926395939086298 Y28.177664974619287 I0.4390862944162437 J-1.0558375634517767
G3 X26.680203045685282 Y27.807106598984774 I0.8071065989847716 J-0.8071065989847716
G3 X26.593908629441625 Y27.375634517766496 I1.0406091370558377 J-0.4314720812182741
G3 X26.680203045685282 Y26.941624365482234 I1.1269035532994924 J0
G3 X26.926395939086298 Y26.573604060913706 I1.0558375634517767 J0.4390862944162437
G3 X27.294416243654823 Y26.32741116751269 I0.8071065989847716 J0.8071065989847716
G3 X27.72842639593909 Y26.241116751269033 I0.4314720812182741 J1.0406091370558377
G3 X28.15989847715736 Y26.32741116751269 I0 J1.1269035532994924
G3 X28.53045685279188 Y26.573604060913706 I-0.4390862944162437 J1.0558375634517767
G0 Z2
G0 X28.52994923857868 Y3.713197969543147
G1 Z-0.25 F50
G3 X28.776649746192895 Y4.081218274111675 I-0.8071065989847716 J0.8071065989847716 F150
G3 X28.86294416243655 Y4.5152284263959395 I-1.0406091370558377 J0.4314720812182741
G3 X28.776649746192895 Y4.946700507614214 I-1.1269035532994924 J0
G3 X28.53045685279188 Y5.317258883248731 I-1.0558375634517767 J-0.4390862944162437
G3 X28.15989847715736 Y5.563451776649746 I-0.8071065989847716 J-0.8071065989847716
G3 X27.72842639593909 Y5.649746192893401 I-0.4314720812182741 J-1.0406091370558377
G3 X27.294416243654823 Y5.563451776649746 I0 J-1.1269035532994924
G3 X26.926395939086298 Y5.317258883248731 I0.4390862944162437 J-1.0558375634517767
G3 X26.680203045685282 Y4.946700507614214 I0.8071065989847716 J-0.8071065989847716
G3 X26.593908629441625 Y4.5152284263959395 I1.0406091370558377 J-0.4314720812182741
G3 X26.680203045685282 Y4.081218274111675 I1.1269035532994924 J0
G3 X26.926395939086298 Y3.713197969543147 I1.0558375634517767 J0.4390862944162437
G3 X27.294416243654823 Y3.4670050761421316 I0.8071065989847716 J0.8071065989847716
G3 X27.72842639593909 Y3.380710659898477 I0.4314720812182741 J1.0406091370558377
G3 X28.15989847715736 Y3.4670050761421316 I0 J1.1269035532994924
G3 X28.53045685279188 Y3.713197969543147 I-0.4390862944162437 J1.0558375634517767
G0 Z2
G0 X16.211167512690356 Y24.494162436548223
G1 Z-0.25 F50
G3 X15.842639593908629 Y24.741116751269033 I-0.8071065989847716 J-0.8071065989847716 F150
G3 X15.408629441624367 Y24.82741116751269 I-0.4314720812182741 J-1.0406091370558377
G3 X14.97715736040609 Y24.741116751269033 I0 J-1.1269035532994924
G3 X14.609137055837564 Y24.494923857868017 I0.4390862944162437 J-1.0558375634517767
G3 X14.360406091370558 Y24.124365482233504 I0.8071065989847716 J-0.8071065989847716
G3 X14.274111675126903 Y23.692893401015226 I1.0406091370558377 J-0.4314720812182741
G3 X14.360406091370558 Y23.258883248730964 I1.1269035532994924 J0
G3 X14.609137055837564 Y22.890862944162436 I1.0558375634517767 J0.4390862944162437
G3 X14.97715736040609 Y22.64467005076142 I0.8071065989847716 J0.8071065989847716
G3 X15.408629441624367 Y22.558375634517766 I0.4314720812182741 J1.0406091370558377
G3 X15.842639593908629 Y22.64467005076142 I0 J1.1269035532994924
G3 X16.210659898477157 Y22.890862944162436 I-0.4390862944162437 J1.0558375634517767
G3 X16.45939086294416 Y23.258883248730964 I-0.8071065989847716 J0.8071065989847716
G3 X16.545685279187815 Y23.692893401015226 I-1.0406091370558377 J0.4314720812182741
G3 X16.45939086294416 Y24.124365482233504 I-1.1269035532994924 J0
G3 X16.210659898477157 Y24.494923857868017 I-1.0558375634517767 J-0.4390862944162437
G0 Z2
G0 X16.45812182741117 Y21.584771573604062
G1 Z-0.25 F50
G3 X16.210659898477157 Y21.95431472081218 I-1.0558375634517767 J-0.4390862944162437 F150
G3 X15.842639593908629 Y22.200507614213198 I-0.8071065989847716 J-0.8071065989847716
G3 X15.408629441624367 Y22.286802030456855 I-0.4314720812182741 J-1.0406091370558377
G3 X14.97715736040609 Y22.200507614213198 I0 J-1.1269035532994924
G3 X14.609137055837564 Y21.95431472081218 I0.4390862944162437 J-1.0558375634517767
G3 X14.360406091370558 Y21.58375634517767 I0.8071065989847716 J-0.8071065989847716
G3 X14.274111675126903 Y21.15228426395939 I1.0406091370558377 J-0.4314720812182741
G3 X14.360406091370558 Y20.71827411167513 I1.1269035532994924 J0
G3 X14.609137055837564 Y20.3502538071066 I1.0558375634517767 J0.4390862944162437
G3 X14.97715736040609 Y20.104060913705585 I0.8071065989847716 J0.8071065989847716
G3 X15.408629441624367 Y20.017766497461928 I0.4314720812182741 J1.0406091370558377
G3 X15.842639593908629 Y20.104060913705585 I0 J1.1269035532994924
G3 X16.210659898477157 Y20.3502538071066 I-0.4390862944162437 J1.0558375634517767
G3 X16.45939086294416 Y20.71827411167513 I-0.8071065989847716 J0.8071065989847716
G3 X16.545685279187815 Y21.15228426395939 I-1.0406091370558377 J0.4314720812182741
G3 X16.45939086294416 Y21.58375634517767 I-1.1269035532994924 J0
G0 Z2
G0 X23.116751269035532 Y34.19390862944162
G1 Z-0.25 F50
G3 X23.48477157360406 Y33.94670050761421 I0.8071065989847716 J0.8071065989847716 F150
G3 X23.918781725888323 Y33.86040609137056 I0.4314720812182741 J1.0406091370558377
G3 X24.350253807106597 Y33.94670050761421 I0 J1.1269035532994924
G3 X24.72081218274112 Y34.192893401015226 I-0.4390862944162437 J1.0558375634517767
