( Made using CamBam - http://www.cambam.co.uk )
( structure_face 5/19/2016 11:16:23 PM )
( T4 : 3.175 )
G21 G90 G64 G40
G0 Z3.0
( T4 : 3.175 )
T4 M6
( Poche1 )
G17
M3 S1000
G0 X199.4125 Y125.4125
G0 Z1.0
G1 F300.0 Z-1.0
G1 F800.0 Y125.3875
G1 X2.5875
G1 Y125.4125
G1 X97.4308
G1 X104.5692
G1 X199.4125
( Contour1 )
S1000
G0 Z3.0
G0 X12.5875 Y133.1625
G0 Z1.0
G1 F300.0 Z-1.0
G1 F800.0 X14.0
G3 X15.5875 Y134.75 I0.0 J1.5875
G1 Y138.4125
G1 X18.4125
G1 Y134.75
G3 X20.0 Y133.1625 I1.5875 J0.0
G1 X21.4125
G1 Y132.8375
G1 X12.5875
G1 Y133.1625
G1 F300.0 Z-2.0
G1 F800.0 X14.0
G3 X15.5875 Y134.75 I0.0 J1.5875
G1 Y138.4125
G1 X18.4125
G1 Y134.75
G3 X20.0 Y133.1625 I1.5875 J0.0
G1 X21.4125
G1 Y132.8375
G1 X12.5875
G1 Y133.1625
G1 F300.0 Z-3.0
G1 F800.0 X14.0
G3 X15.5875 Y134.75 I0.0 J1.5875
G1 Y138.4125
G1 X18.4125
G1 Y134.75
G3 X20.0 Y133.1625 I1.5875 J0.0
G1 X21.4125
G1 Y132.8375
G1 X12.5875
G1 Y133.1625
G1 F300.0 Z-4.0
G1 F800.0 X14.0
G3 X15.5875 Y134.75 I0.0 J1.5875
G1 Y138.4125
G1 X18.4125
G1 Y134.75
G3 X20.0 Y133.1625 I1.5875 J0.0
G1 X21.4125
G1 Y132.8375
G1 X12.5875
G1 Y133.1625
G1 F300.0 Z-5.0
G1 F800.0 X14.0
G3 X15.5875 Y134.75 I0.0 J1.5875
G1 Y138.4125
G1 X18.4125
G1 Y134.75
G3 X20.0 Y133.1625 I1.5875 J0.0
G1 X21.4125
G1 Y132.8375
G1 X12.5875
G1 Y133.1625
G1 F300.0 Z-6.0
G1 F800.0 X14.0
G3 X15.5875 Y134.75 I0.0 J1.5875
G1 Y138.4125
G1 X18.4125
G1 Y134.75
G3 X20.0 Y133.1625 I1.5875 J0.0
G1 X21.4125
G1 Y132.8375
G1 X12.5875
G1 Y133.1625
G0 Z3.0
G0 Y148.5875
G0 Z1.0
G1 F300.0 Z-1.0
G1 F800.0 Y153.4125
G1 X21.4125
G1 Y148.5875
G1 X12.5875
G1 F300.0 Z-2.0
G1 F800.0 Y153.4125
G1 X21.4125
G1 Y148.5875
G1 X12.5875
G1 F300.0 Z-3.0
G1 F800.0 Y153.4125
G1 X21.4125
G1 Y148.5875
G1 X12.5875
G1 F300.0 Z-4.0
G1 F800.0 Y153.4125
G1 X21.4125
G1 Y148.5875
G1 X12.5875
G1 F300.0 Z-5.0
G1 F800.0 Y153.4125
G1 X21.4125
G1 Y148.5875
G1 X12.5875
G1 F300.0 Z-6.0
G1 F800.0 Y153.4125
G1 X21.4125
G1 Y148.5875
G1 X12.5875
G0 Z3.0
G0 X15.5875 Y163.5875
G0 Z1.0
G1 F300.0 Z-1.0
G1 F800.0 Y167.25
G3 X14.0 Y168.8375 I-1.5875 J0.0
G1 X12.5875
G1 Y169.1625
G1 X21.4125
G1 Y168.8375
G1 X20.0
G3 X18.4125 Y167.25 I0.0 J-1.5875
G1 Y163.5875
G1 X17.0
G1 X15.5875
G1 F300.0 Z-2.0
G1 F800.0 Y167.25
G3 X14.0 Y168.8375 I-1.5875 J0.0
G1 X12.5875
G1 Y169.1625
G1 X21.4125
G1 Y168.8375
G1 X20.0
G3 X18.4125 Y167.25 I0.0 J-1.5875
G1 Y163.5875
G1 X17.0
G1 X15.5875
G1 F300.0 Z-3.0
G1 F800.0 Y167.25
G3 X14.0 Y168.8375 I-1.5875 J0.0
G1 X12.5875
G1 Y169.1625
G1 X21.4125
G1 Y168.8375
G1 X20.0
G3 X18.4125 Y167.25 I0.0 J-1.5875
G1 Y163.5875
G1 X17.0
G1 X15.5875
G1 F300.0 Z-4.0
G1 F800.0 Y167.25
G3 X14.0 Y168.8375 I-1.5875 J0.0
G1 X12.5875
G1 Y169.1625
G1 X21.4125
G1 Y168.8375
G1 X20.0
G3 X18.4125 Y167.25 I0.0 J-1.5875
G1 Y163.5875
G1 X17.0
G1 X15.5875
G1 F300.0 Z-5.0
G1 F800.0 Y167.25
G3 X14.0 Y168.8375 I-1.5875 J0.0
G1 X12.5875
G1 Y169.1625
G1 X21.4125
G1 Y168.8375
G1 X20.0
G3 X18.4125 Y167.25 I0.0 J-1.5875
G1 Y163.5875
G1 X17.0
G1 X15.5875
G1 F300.0 Z-6.0
G1 F800.0 Y167.25
G3 X14.0 Y168.8375 I-1.5875 J0.0
G1 X12.5875
G1 Y169.1625
G1 X21.4125
G1 Y168.8375
G1 X20.0
G3 X18.4125 Y167.25 I0.0 J-1.5875
G1 Y163.5875
G1 X17.0
G1 X15.5875
G0 Z3.0
G0 X74.713 Y158.2661
G0 Z1.0
G1 F300.0 Z-1.0
G1 F800.0 X74.8281 Y159.5452
G1 X75.2513 Y161.877
G1 X75.8817 Y164.1614
G1 X76.7144 Y166.3801
G1 X77.7427 Y168.5153
G1 X78.9582 Y170.5497
G1 X80.3511 Y172.4669
G1 X81.9103 Y174.2516
G1 X83.6232 Y175.8893
G1 X85.4761 Y177.3669
G1 X87.4539 Y178.6724
G1 X89.5407 Y179.7954
G1 X91.7199 Y180.7268
G1 X93.9737 Y181.4591
G1 X96.2842 Y181.9865
G1 X98.6325 Y182.3046
G1 X101.0 Y182.4109
G1 X103.3675 Y182.3046
G1 X105.7158 Y181.9865
G1 X108.0263 Y181.4591
G1 X110.2801 Y180.7268
G1 X112.4593 Y179.7954
G1 X114.5461 Y178.6724
G1 X116.5239 Y177.3669
G1 X118.3768 Y175.8893
G1 X120.0897 Y174.2516
G1 X121.6489 Y172.4669
G1 X123.0418 Y170.5497
G1 X124.2573 Y168.5153
G1 X125.2856 Y166.3801
G1 X126.1183 Y164.1614
G1 X126.7487 Y161.877
G1 X127.1719 Y159.5452
G1 X127.3843 Y157.1849
G1 Y154.8151
G1 X127.1719 Y152.4548
G1 X126.7487 Y150.123
G1 X126.1183 Y147.8386
G1 X125.2856 Y145.6199
G1 X124.2573 Y143.4847
G1 X123.0418 Y141.4503
G1 X121.6489 Y139.5331
G1 X120.0897 Y137.7484
G1 X118.3768 Y136.1107
G1 X116.5239 Y134.6331
G1 X114.5461 Y133.3276
G1 X112.4593 Y132.2046
G1 X110.2801 Y131.2732
G1 X108.0263 Y130.5409
G1 X105.7158 Y130.0135
G1 X103.3675 Y129.6954
G1 X101.0 Y129.5891
G1 X98.6325 Y129.6954
G1 X96.2842 Y130.0135
G1 X93.9737 Y130.5409
G1 X91.7199 Y131.2732
G1 X89.5407 Y132.2046
G1 X87.4539 Y133.3276
G1 X85.4761 Y134.6331
G1 X83.6232 Y136.1107
G1 X81.9103 Y137.7484
G1 X80.3511 Y139.5331
G1 X78.9582 Y141.4503
G1 X77.7427 Y143.4847
G1 X76.7144 Y145.6199
G1 X75.8817 Y147.8386
G1 X75.2513 Y150.123
G1 X74.8281 Y152.4548
G1 X74.6157 Y154.8151
G1 Y157.1849
G1 X74.713 Y158.2661
G1 F300.0 Z-2.0
G1 F800.0 X74.8281 Y159.5452
G1 X75.2513 Y161.877
G1 X75.8817 Y164.1614
G1 X76.7144 Y166.3801
G1 X77.7427 Y168.5153
G1 X78.9582 Y170.5497
G1 X80.3511 Y172.4669
G1 X81.9103 Y174.2516
G1 X83.6232 Y175.8893
G1 X85.4761 Y177.3669
G1 X87.4539 Y178.6724
G1 X89.5407 Y179.7954
G1 X91.7199 Y180.7268
G1 X93.9737 Y181.4591
G1 X96.2842 Y181.9865
G1 X98.6325 Y182.3046
G1 X101.0 Y182.4109
G1 X103.3675 Y182.3046
G1 X105.7158 Y181.9865
G1 X108.0263 Y181.4591
G1 X110.2801 Y180.7268
G1 X112.4593 Y179.7954
G1 X114.5461 Y178.6724
G1 X116.5239 Y177.3669
G1 X118.3768 Y175.8893
G1 X120.0897 Y174.2516
G1 X121.6489 Y172.4669
G1 X123.0418 Y170.5497
G1 X124.2573 Y168.5153
G1 X125.2856 Y166.3801
G1 X126.1183 Y164.1614
G1 X126.7487 Y161.877
G1 X127.1719 Y159.5452
G1 X127.3843 Y157.1849
G1 Y154.8151
G1 X127.1719 Y152.4548
G1 X126.7487 Y150.123
G1 X126.1183 Y147.8386
G1 X125.2856 Y145.6199
G1 X124.2573 Y143.4847
G1 X123.0418 Y141.4503
G1 X121.6489 Y139.5331
G1 X120.0897 Y137.7484
G1 X118.3768 Y136.1107
G1 X116.5239 Y134.6331
G1 X114.5461 Y133.3276
G1 X112.4593 Y132.2046
G1 X110.2801 Y131.2732
G1 X108.0263 Y130.5409
G1 X105.7158 Y130.0135
G1 X103.3675 Y129.6954
G1 X101.0 Y129.5891
G1 X98.6325 Y129.6954
G1 X96.2842 Y130.0135
G1 X93.9737 Y130.5409
G1 X91.7199 Y131.2732
G1 X89.5407 Y132.2046
G1 X87.4539 Y133.3276
G1 X85.4761 Y134.6331
G1 X83.6232 Y136.1107
G1 X81.9103 Y137.7484
G1 X80.3511 Y139.5331
G1 X78.9582 Y141.4503
G1 X77.7427 Y143.4847
G1 X76.7144 Y145.6199
G1 X75.8817 Y147.8386
G1 X75.2513 Y150.123
G1 X74.8281 Y152.4548
G1 X74.6157 Y154.8151
G1 Y157.1849
G1 X74.713 Y158.2661
G1 F300.0 Z-3.0
G1 F800.0 X74.8281 Y159.5452
G1 X75.2513 Y161.877
G1 X75.8817 Y164.1614
G1 X76.7144 Y166.3801
G1 X77.7427 Y168.5153
G1 X78.9582 Y170.5497
G1 X80.3511 Y172.4669
G1 X81.9103 Y174.2516
G1 X83.6232 Y175.8893
G1 X85.4761 Y177.3669
G1 X87.4539 Y178.6724
G1 X89.5407 Y179.7954
G1 X91.7199 Y180.7268
G1 X93.9737 Y181.4591
G1 X96.2842 Y181.9865
G1 X98.6325 Y182.3046
G1 X101.0 Y182.4109
G1 X103.3675 Y182.3046
G1 X105.7158 Y181.9865
G1 X108.0263 Y181.4591
G1 X110.2801 Y180.7268
G1 X112.4593 Y179.7954
G1 X114.5461 Y178.6724
G1 X116.5239 Y177.3669
G1 X118.3768 Y175.8893
G1 X120.0897 Y174.2516
G1 X121.6489 Y172.4669
G1 X123.0418 Y170.5497
G1 X124.2573 Y168.5153
G1 X125.2856 Y166.3801
G1 X126.1183 Y164.1614
G1 X126.7487 Y161.877
G1 X127.1719 Y159.5452
G1 X127.3843 Y157.1849
G1 Y154.8151
G1 X127.1719 Y152.4548
G1 X126.7487 Y150.123
G1 X126.1183 Y147.8386
G1 X125.2856 Y145.6199
G1 X124.2573 Y143.4847
G1 X123.0418 Y141.4503
G1 X121.6489 Y139.5331
G1 X120.0897 Y137.7484
G1 X118.3768 Y136.1107
G1 X116.5239 Y134.6331
G1 X114.5461 Y133.3276
G1 X112.4593 Y132.2046
G1 X110.2801 Y131.2732
G1 X108.0263 Y130.5409
G1 X105.7158 Y130.0135
G1 X103.3675 Y129.6954
G1 X101.0 Y129.5891
G1 X98.6325 Y129.6954
G1 X96.2842 Y130.0135
G1 X93.9737 Y130.5409
G1 X91.7199 Y131.2732
G1 X89.5407 Y132.2046
G1 X87.4539 Y133.3276
G1 X85.4761 Y134.6331
G1 X83.6232 Y136.1107
G1 X81.9103 Y137.7484
G1 X80.3511 Y139.5331
G1 X78.9582 Y141.4503
G1 X77.7427 Y143.4847
G1 X76.7144 Y145.6199
G1 X75.8817 Y147.8386
G1 X75.2513 Y150.123
G1 X74.8281 Y152.4548
G1 X74.6157 Y154.8151
G1 Y157.1849
G1 X74.713 Y158.2661
G1 F300.0 Z-4.0
G1 F800.0 X74.8281 Y159.5452
G1 X75.2513 Y161.877
G1 X75.8817 Y164.1614
G1 X76.7144 Y166.3801
G1 X77.7427 Y168.5153
G1 X78.9582 Y170.5497
G1 X80.3511 Y172.4669
G1 X81.9103 Y174.2516
G1 X83.6232 Y175.8893
G1 X85.4761 Y177.3669
G1 X87.4539 Y178.6724
G1 X89.5407 Y179.7954
G1 X91.7199 Y180.7268
G1 X93.9737 Y181.4591
G1 X96.2842 Y181.9865
G1 X98.6325 Y182.3046
G1 X101.0 Y182.4109
G1 X103.3675 Y182.3046
G1 X105.7158 Y181.9865
G1 X108.0263 Y181.4591
G1 X110.2801 Y180.7268
G1 X112.4593 Y179.7954
G1 X114.5461 Y178.6724
G1 X116.5239 Y177.3669
G1 X118.3768 Y175.8893
G1 X120.0897 Y174.2516
G1 X121.6489 Y172.4669
G1 X123.0418 Y170.5497
G1 X124.2573 Y168.5153
G1 X125.2856 Y166.3801
G1 X126.1183 Y164.1614
G1 X126.7487 Y161.877
G1 X127.1719 Y159.5452
G1 X127.3843 Y157.1849
G1 Y154.8151
G1 X127.1719 Y152.4548
G1 X126.7487 Y150.123
G1 X126.1183 Y147.8386
G1 X125.2856 Y145.6199
G1 X124.2573 Y143.4847
G1 X123.0418 Y141.4503
G1 X121.6489 Y139.5331
G1 X120.0897 Y137.7484
G1 X118.3768 Y136.1107
G1 X116.5239 Y134.6331
G1 X114.5461 Y133.3276
G1 X112.4593 Y132.2046
G1 X110.2801 Y131.2732
G1 X108.0263 Y130.5409
G1 X105.7158 Y130.0135
G1 X103.3675 Y129.6954
G1 X101.0 Y129.5891
G1 X98.6325 Y129.6954
G1 X96.2842 Y130.0135
G1 X93.9737 Y130.5409
G1 X91.7199 Y131.2732
G1 X89.5407 Y132.2046
G1 X87.4539 Y133.3276
G1 X85.4761 Y134.6331
G1 X83.6232 Y136.1107
G1 X81.9103 Y137.7484
G1 X80.3511 Y139.5331
G1 X78.9582 Y141.4503
G1 X77.7427 Y143.4847
G1 X76.7144 Y145.6199
G1 X75.8817 Y147.8386
G1 X75.2513 Y150.123
G1 X74.8281 Y152.4548
G1 X74.6157 Y154.8151
G1 Y157.1849
G1 X74.713 Y158.2661
G1 F300.0 Z-5.0
G1 F800.0 X74.8281 Y159.5452
G1 X75.2513 Y161.877
G1 X75.8817 Y164.1614
G1 X76.7144 Y166.3801
G1 X77.7427 Y168.5153
G1 X78.9582 Y170.5497
G1 X80.3511 Y172.4669
G1 X81.9103 Y174.2516
G1 X83.6232 Y175.8893
G1 X85.4761 Y177.3669
G1 X87.4539 Y178.6724
G1 X89.5407 Y179.7954
G1 X91.7199 Y180.7268
G1 X93.9737 Y181.4591
G1 X96.2842 Y181.9865
G1 X98.6325 Y182.3046
G1 X101.0 Y182.4109
G1 X103.3675 Y182.3046
G1 X105.7158 Y181.9865
G1 X108.0263 Y181.4591
G1 X110.2801 Y180.7268
G1 X112.4593 Y179.7954
G1 X114.5461 Y178.6724
G1 X116.5239 Y177.3669
G1 X118.3768 Y175.8893
G1 X120.0897 Y174.2516
G1 X121.6489 Y172.4669
G1 X123.0418 Y170.5497
G1 X124.2573 Y168.5153
G1 X125.2856 Y166.3801
G1 X126.1183 Y164.1614
G1 X126.7487 Y161.877
G1 X127.1719 Y159.5452
G1 X127.3843 Y157.1849
G1 Y154.8151
G1 X127.1719 Y152.4548
G1 X126.7487 Y150.123
G1 X126.1183 Y147.8386
G1 X125.2856 Y145.6199
G1 X124.2573 Y143.4847
G1 X123.0418 Y141.4503
G1 X121.6489 Y139.5331
G1 X120.0897 Y137.7484
G1 X118.3768 Y136.1107
G1 X116.5239 Y134.6331
G1 X114.5461 Y133.3276
G1 X112.4593 Y132.2046
G1 X110.2801 Y131.2732
G1 X108.0263 Y130.5409
G1 X105.7158 Y130.0135
G1 X103.3675 Y129.6954
G1 X101.0 Y129.5891
G1 X98.6325 Y129.6954
G1 X96.2842 Y130.0135
G1 X93.9737 Y130.5409
G1 X91.7199 Y131.2732
G1 X89.5407 Y132.2046
G1 X87.4539 Y133.3276
G1 X85.4761 Y134.6331
G1 X83.6232 Y136.1107
G1 X81.9103 Y137.7484
G1 X80.3511 Y139.5331
G1 X78.9582 Y141.4503
G1 X77.7427 Y143.4847
G1 X76.7144 Y145.6199
G1 X75.8817 Y147.8386
G1 X75.2513 Y150.123
G1 X74.8281 Y152.4548
G1 X74.6157 Y154.8151
G1 Y157.1849
G1 X74.713 Y158.2661
G1 F300.0 Z-6.0
G1 F800.0 X74.8281 Y159.5452
G1 X75.2513 Y161.877
G1 X75.8817 Y164.1614
G1 X76.7144 Y166.3801
G1 X77.7427 Y168.5153
G1 X78.9582 Y170.5497
G1 X80.3511 Y172.4669
G1 X81.9103 Y174.2516
G1 X83.6232 Y175.8893
G1 X85.4761 Y177.3669
G1 X87.4539 Y178.6724
G1 X89.5407 Y179.7954
G1 X91.7199 Y180.7268
G1 X93.9737 Y181.4591
G1 X96.2842 Y181.9865
G1 X98.6325 Y182.3046
G1 X101.0 Y182.4109
G1 X103.3675 Y182.3046
G1 X105.7158 Y181.9865
G1 X108.0263 Y181.4591
G1 X110.2801 Y180.7268
G1 X112.4593 Y179.7954
G1 X114.5461 Y178.6724
G1 X116.5239 Y177.3669
G1 X118.3768 Y175.8893
G1 X120.0897 Y174.2516
G1 X121.6489 Y172.4669
G1 X123.0418 Y170.5497
G1 X124.2573 Y168.5153
G1 X125.2856 Y166.3801
G1 X126.1183 Y164.1614
G1 X126.7487 Y161.877
G1 X127.1719 Y159.5452
G1 X127.3843 Y157.1849
G1 Y154.8151
G1 X127.1719 Y152.4548
G1 X126.7487 Y150.123
G1 X126.1183 Y147.8386
G1 X125.2856 Y145.6199
G1 X124.2573 Y143.4847
G1 X123.0418 Y141.4503
G1 X121.6489 Y139.5331
G1 X120.0897 Y137.7484
G1 X118.3768 Y136.1107
G1 X116.5239 Y134.6331
G1 X114.5461 Y133.3276
G1 X112.4593 Y132.2046
G1 X110.2801 Y131.2732
G1 X108.0263 Y130.5409
G1 X105.7158 Y130.0135
G1 X103.3675 Y129.6954
G1 X101.0 Y129.5891
G1 X98.6325 Y129.6954
G1 X96.2842 Y130.0135
G1 X93.9737 Y130.5409
G1 X91.7199 Y131.2732
G1 X89.5407 Y132.2046
G1 X87.4539 Y133.3276
G1 X85.4761 Y134.6331
G1 X83.6232 Y136.1107
G1 X81.9103 Y137.7484
G1 X80.3511 Y139.5331
G1 X78.9582 Y141.4503
G1 X77.7427 Y143.4847
G1 X76.7144 Y145.6199
G1 X75.8817 Y147.8386
G1 X75.2513 Y150.123
G1 X74.8281 Y152.4548
G1 X74.6157 Y154.8151
G1 Y157.1849
G1 X74.713 Y158.2661
G0 Z3.0
G0 X180.5875 Y153.4125
G0 Z1.0
G1 F300.0 Z-1.0
G1 F800.0 X189.4125
G1 Y150.49
G1 Y148.5875
G1 X180.5875
G1 Y153.4125
G1 F300.0 Z-2.0
G1 F800.0 X189.4125
G1 Y150.49
G1 Y148.5875
G1 X180.5875
G1 Y153.4125
G1 F300.0 Z-3.0
G1 F800.0 X189.4125
G1 Y150.49
G1 Y148.5875
G1 X180.5875
G1 Y153.4125
G1 F300.0 Z-4.0
G1 F800.0 X189.4125
G1 Y150.49
G1 Y148.5875
G1 X180.5875
G1 Y153.4125
G1 F300.0 Z-5.0
G1 F800.0 X189.4125
G1 Y150.49
G1 Y148.5875
G1 X180.5875
G1 Y153.4125
G1 F300.0 Z-6.0
G1 F800.0 X189.4125
G1 Y150.49
G1 Y148.5875
G1 X180.5875
G1 Y153.4125
G0 Z3.0
G0 X183.5875 Y163.5875
G0 Z1.0
G1 F300.0 Z-1.0
G1 F800.0 Y167.25
G3 X182.0 Y168.8375 I-1.5875 J0.0
G1 X180.5875
G1 Y169.1625
G1 X189.4125
G1 Y168.8375
G1 X188.0
G3 X186.4125 Y167.25 I0.0 J-1.5875
G1 Y163.5875
G1 X185.0
G1 X183.5875
G1 F300.0 Z-2.0
G1 F800.0 Y167.25
G3 X182.0 Y168.8375 I-1.5875 J0.0
G1 X180.5875
G1 Y169.1625
G1 X189.4125
G1 Y168.8375
G1 X188.0
G3 X186.4125 Y167.25 I0.0 J-1.5875
G1 Y163.5875
G1 X185.0
G1 X183.5875
G1 F300.0 Z-3.0
G1 F800.0 Y167.25
G3 X182.0 Y168.8375 I-1.5875 J0.0
G1 X180.5875
G1 Y169.1625
G1 X189.4125
G1 Y168.8375
G1 X188.0
G3 X186.4125 Y167.25 I0.0 J-1.5875
G1 Y163.5875
G1 X185.0
G1 X183.5875
G1 F300.0 Z-4.0
G1 F800.0 Y167.25
G3 X182.0 Y168.8375 I-1.5875 J0.0
G1 X180.5875
G1 Y169.1625
G1 X189.4125
G1 Y168.8375
G1 X188.0
G3 X186.4125 Y167.25 I0.0 J-1.5875
G1 Y163.5875
G1 X185.0
G1 X183.5875
G1 F300.0 Z-5.0
G1 F800.0 Y167.25
G3 X182.0 Y168.8375 I-1.5875 J0.0
G1 X180.5875
G1 Y169.1625
G1 X189.4125
G1 Y168.8375
G1 X188.0
G3 X186.4125 Y167.25 I0.0 J-1.5875
G1 Y163.5875
G1 X185.0
G1 X183.5875
G1 F300.0 Z-6.0
G1 F800.0 Y167.25
G3 X182.0 Y168.8375 I-1.5875 J0.0
G1 X180.5875
G1 Y169.1625
G1 X189.4125
G1 Y168.8375
G1 X188.0
G3 X186.4125 Y167.25 I0.0 J-1.5875
G1 Y163.5875
G1 X185.0
G1 X183.5875
G0 Z3.0
G0 Y138.4125
G0 Z1.0
G1 F300.0 Z-1.0
G1 F800.0 X186.4125
G1 Y134.75
G3 X188.0 Y133.1625 I1.5875 J0.0
G1 X189.4125
G1 Y132.8375
G1 X180.5875
G1 Y133.1625
G1 X182.0
G3 X183.5875 Y134.75 I0.0 J1.5875
G1 Y138.4125
G1 F300.0 Z-2.0
G1 F800.0 X186.4125
G1 Y134.75
G3 X188.0 Y133.1625 I1.5875 J0.0
G1 X189.4125
G1 Y132.8375
G1 X180.5875
G1 Y133.1625
G1 X182.0
G3 X183.5875 Y134.75 I0.0 J1.5875
G1 Y138.4125
G1 F300.0 Z-3.0
G1 F800.0 X186.4125
G1 Y134.75
G3 X188.0 Y133.1625 I1.5875 J0.0
G1 X189.4125
G1 Y132.8375
G1 X180.5875
G1 Y133.1625
G1 X182.0
G3 X183.5875 Y134.75 I0.0 J1.5875
G1 Y138.4125
G1 F300.0 Z-4.0
G1 F800.0 X186.4125
G1 Y134.75
G3 X188.0 Y133.1625 I1.5875 J0.0
G1 X189.4125
G1 Y132.8375
G1 X180.5875
G1 Y133.1625
G1 X182.0
G3 X183.5875 Y134.75 I0.0 J1.5875
G1 Y138.4125
G1 F300.0 Z-5.0
G1 F800.0 X186.4125
G1 Y134.75
G3 X188.0 Y133.1625 I1.5875 J0.0
G1 X189.4125
G1 Y132.8375
G1 X180.5875
G1 Y133.1625
G1 X182.0
G3 X183.5875 Y134.75 I0.0 J1.5875
G1 Y138.4125
G1 F300.0 Z-6.0
G1 F800.0 X186.4125
G1 Y134.75
G3 X188.0 Y133.1625 I1.5875 J0.0
G1 X189.4125
G1 Y132.8375
G1 X180.5875
G1 Y133.1625
G1 X182.0
G3 X183.5875 Y134.75 I0.0 J1.5875
G1 Y138.4125
G0 Z3.0
G0 Y392.8375
G0 Z1.0
G1 F300.0 Z-1.0
G1 F800.0 X180.5875
G1 Y393.1625
G1 X182.0
G3 X183.5875 Y394.75 I0.0 J1.5875
G1 Y398.4125
G1 X186.4125
G1 Y394.75
G3 X188.0 Y393.1625 I1.5875 J0.0
G1 X189.4125
G1 Y392.8375
G1 X183.5875
G1 F300.0 Z-2.0
G1 F800.0 X180.5875
G1 Y393.1625
G1 X182.0
G3 X183.5875 Y394.75 I0.0 J1.5875
G1 Y398.4125
G1 X186.4125
G1 Y394.75
G3 X188.0 Y393.1625 I1.5875 J0.0
G1 X189.4125
G1 Y392.8375
G1 X183.5875
G1 F300.0 Z-3.0
G1 F800.0 X180.5875
G1 Y393.1625
G1 X182.0
G3 X183.5875 Y394.75 I0.0 J1.5875
G1 Y398.4125
G1 X186.4125
G1 Y394.75
G3 X188.0 Y393.1625 I1.5875 J0.0
G1 X189.4125
G1 Y392.8375
G1 X183.5875
G1 F300.0 Z-4.0
G1 F800.0 X180.5875
G1 Y393.1625
G1 X182.0
G3 X183.5875 Y394.75 I0.0 J1.5875
G1 Y398.4125
G1 X186.4125
G1 Y394.75
G3 X188.0 Y393.1625 I1.5875 J0.0
G1 X189.4125
G1 Y392.8375
G1 X183.5875
G1 F300.0 Z-5.0
G1 F800.0 X180.5875
G1 Y393.1625
G1 X182.0
G3 X183.5875 Y394.75 I0.0 J1.5875
G1 Y398.4125
G1 X186.4125
G1 Y394.75
G3 X188.0 Y393.1625 I1.5875 J0.0
G1 X189.4125
G1 Y392.8375
G1 X183.5875
G1 F300.0 Z-6.0
G1 F800.0 X180.5875
G1 Y393.1625
G1 X182.0
G3 X183.5875 Y394.75 I0.0 J1.5875
G1 Y398.4125
G1 X186.4125
G1 Y394.75
G3 X188.0 Y393.1625 I1.5875 J0.0
G1 X189.4125
G1 Y392.8375
G1 X183.5875
G0 Z3.0
G0 Y408.5875
G0 Z1.0
G1 F300.0 Z-1.0
G1 F800.0 X180.5875
G1 Y413.4125
G1 X189.4125
G1 Y410.49
G1 Y408.5875
G1 X183.5875
G1 F300.0 Z-2.0
G1 F800.0 X180.5875
G1 Y413.4125
G1 X189.4125
G1 Y410.49
G1 Y408.5875
G1 X183.5875
G1 F300.0 Z-3.0
G1 F800.0 X180.5875
G1 Y413.4125
G1 X189.4125
G1 Y410.49
G1 Y408.5875
G1 X183.5875
G1 F300.0 Z-4.0
G1 F800.0 X180.5875
G1 Y413.4125
G1 X189.4125
G1 Y410.49
G1 Y408.5875
G1 X183.5875
G1 F300.0 Z-5.0
G1 F800.0 X180.5875
G1 Y413.4125
G1 X189.4125
G1 Y410.49
G1 Y408.5875
G1 X183.5875
G1 F300.0 Z-6.0
G1 F800.0 X180.5875
G1 Y413.4125
G1 X189.4125
G1 Y410.49
G1 Y408.5875
G1 X183.5875
G0 Z3.0
G0 Y423.5875
G0 Z1.0
G1 F300.0 Z-1.0
G1 F800.0 Y427.25
G3 X182.0 Y428.8375 I-1.5875 J0.0
G1 X180.5875
G1 Y429.1625
G1 X189.4125
G1 Y428.8375
G1 X188.0
G3 X186.4125 Y427.25 I0.0 J-1.5875
G1 Y423.5875
G1 X185.0
G1 X183.5875
G1 F300.0 Z-2.0
G1 F800.0 Y427.25
G3 X182.0 Y428.8375 I-1.5875 J0.0
G1 X180.5875
G1 Y429.1625
G1 X189.4125
G1 Y428.8375
G1 X188.0
G3 X186.4125 Y427.25 I0.0 J-1.5875
G1 Y423.5875
G1 X185.0
G1 X183.5875
G1 F300.0 Z-3.0
G1 F800.0 Y427.25
G3 X182.0 Y428.8375 I-1.5875 J0.0
G1 X180.5875
G1 Y429.1625
G1 X189.4125
G1 Y428.8375
G1 X188.0
G3 X186.4125 Y427.25 I0.0 J-1.5875
G1 Y423.5875
G1 X185.0
G1 X183.5875
G1 F300.0 Z-4.0
G1 F800.0 Y427.25
G3 X182.0 Y428.8375 I-1.5875 J0.0
G1 X180.5875
G1 Y429.1625
G1 X189.4125
G1 Y428.8375
G1 X188.0
G3 X186.4125 Y427.25 I0.0 J-1.5875
G1 Y423.5875
G1 X185.0
G1 X183.5875
G1 F300.0 Z-5.0
G1 F800.0 Y427.25
G3 X182.0 Y428.8375 I-1.5875 J0.0
G1 X180.5875
G1 Y429.1625
G1 X189.4125
G1 Y428.8375
G1 X188.0
G3 X186.4125 Y427.25 I0.0 J-1.5875
G1 Y423.5875
G1 X185.0
G1 X183.5875
G1 F300.0 Z-6.0
G1 F800.0 Y427.25
G3 X182.0 Y428.8375 I-1.5875 J0.0
G1 X180.5875
G1 Y429.1625
G1 X189.4125
G1 Y428.8375
G1 X188.0
G3 X186.4125 Y427.25 I0.0 J-1.5875
G1 Y423.5875
G1 X185.0
G1 X183.5875
G0 Z3.0
G0 X103.4125 Y490.5875
G0 Z1.0
G1 F300.0 Z-1.0
G1 F800.0 X98.5875
G1 Y499.4125
G1 X103.4125
G1 Y490.5875
G1 F300.0 Z-2.0
G1 F800.0 X98.5875
G1 Y499.4125
G1 X103.4125
G1 Y490.5875
G1 F300.0 Z-3.0
G1 F800.0 X98.5875
G1 Y499.4125
G1 X103.4125
G1 Y490.5875
G1 F300.0 Z-4.0
G1 F800.0 X98.5875
G1 Y499.4125
G1 X103.4125
G1 Y490.5875
G1 F300.0 Z-5.0
G1 F800.0 X98.5875
G1 Y499.4125
G1 X103.4125
G1 Y490.5875
G1 F300.0 Z-6.0
G1 F800.0 X98.5875
G1 Y499.4125
G1 X103.4125
G1 Y490.5875
G0 Z3.0
G0 X21.4125 Y429.1625
G0 Z1.0
G1 F300.0 Z-1.0
G1 F800.0 Y428.8375
G1 X20.0
G3 X18.4125 Y427.25 I0.0 J-1.5875
G1 Y423.5875
G1 X17.0
G1 X15.5875
G1 Y427.25
G3 X14.0 Y428.8375 I-1.5875 J0.0
G1 X12.5875
G1 Y429.1625
G1 X21.4125
G1 F300.0 Z-2.0
G1 F800.0 Y428.8375
G1 X20.0
G3 X18.4125 Y427.25 I0.0 J-1.5875
G1 Y423.5875
G1 X17.0
G1 X15.5875
G1 Y427.25
G3 X14.0 Y428.8375 I-1.5875 J0.0
G1 X12.5875
G1 Y429.1625
G1 X21.4125
G1 F300.0 Z-3.0
G1 F800.0 Y428.8375
G1 X20.0
G3 X18.4125 Y427.25 I0.0 J-1.5875
G1 Y423.5875
G1 X17.0
G1 X15.5875
G1 Y427.25
G3 X14.0 Y428.8375 I-1.5875 J0.0
G1 X12.5875
G1 Y429.1625
G1 X21.4125
G1 F300.0 Z-4.0
G1 F800.0 Y428.8375
G1 X20.0
G3 X18.4125 Y427.25 I0.0 J-1.5875
G1 Y423.5875
G1 X17.0
G1 X15.5875
G1 Y427.25
G3 X14.0 Y428.8375 I-1.5875 J0.0
G1 X12.5875
G1 Y429.1625
G1 X21.4125
G1 F300.0 Z-5.0
G1 F800.0 Y428.8375
G1 X20.0
G3 X18.4125 Y427.25 I0.0 J-1.5875
G1 Y423.5875
G1 X17.0
G1 X15.5875
G1 Y427.25
G3 X14.0 Y428.8375 I-1.5875 J0.0
G1 X12.5875
G1 Y429.1625
G1 X21.4125
G1 F300.0 Z-6.0
G1 F800.0 Y428.8375
G1 X20.0
G3 X18.4125 Y427.25 I0.0 J-1.5875
G1 Y423.5875
G1 X17.0
G1 X15.5875
G1 Y427.25
G3 X14.0 Y428.8375 I-1.5875 J0.0
G1 X12.5875
G1 Y429.1625
G1 X21.4125
G0 Z3.0
G0 Y413.4125
G0 Z1.0
G1 F300.0 Z-1.0
G1 F800.0 Y408.5875
G1 X12.5875
G1 Y413.4125
G1 X21.4125
G1 F300.0 Z-2.0
G1 F800.0 Y408.5875
G1 X12.5875
G1 Y413.4125
G1 X21.4125
G1 F300.0 Z-3.0
G1 F800.0 Y408.5875
G1 X12.5875
G1 Y413.4125
G1 X21.4125
G1 F300.0 Z-4.0
G1 F800.0 Y408.5875
G1 X12.5875
G1 Y413.4125
G1 X21.4125
G1 F300.0 Z-5.0
G1 F800.0 Y408.5875
G1 X12.5875
G1 Y413.4125
G1 X21.4125
G1 F300.0 Z-6.0
G1 F800.0 Y408.5875
G1 X12.5875
G1 Y413.4125
G1 X21.4125
G0 Z3.0
G0 X18.4125 Y398.4125
G0 Z1.0
G1 F300.0 Z-1.0
G1 F800.0 Y394.75
G3 X20.0 Y393.1625 I1.5875 J0.0
G1 X21.4125
G1 Y392.8375
G1 X12.5875
G1 Y393.1625
G1 X14.0
G3 X15.5875 Y394.75 I0.0 J1.5875
G1 Y398.4125
G1 X18.4125
G1 F300.0 Z-2.0
G1 F800.0 Y394.75
G3 X20.0 Y393.1625 I1.5875 J0.0
G1 X21.4125
G1 Y392.8375
G1 X12.5875
G1 Y393.1625
G1 X14.0
G3 X15.5875 Y394.75 I0.0 J1.5875
G1 Y398.4125
G1 X18.4125
G1 F300.0 Z-3.0
G1 F800.0 Y394.75
G3 X20.0 Y393.1625 I1.5875 J0.0
G1 X21.4125
G1 Y392.8375
G1 X12.5875
G1 Y393.1625
G1 X14.0
G3 X15.5875 Y394.75 I0.0 J1.5875
G1 Y398.4125
G1 X18.4125
G1 F300.0 Z-4.0
G1 F800.0 Y394.75
G3 X20.0 Y393.1625 I1.5875 J0.0
G1 X21.4125
G1 Y392.8375
G1 X12.5875
G1 Y393.1625
G1 X14.0
G3 X15.5875 Y394.75 I0.0 J1.5875
G1 Y398.4125
G1 X18.4125
G1 F300.0 Z-5.0
G1 F800.0 Y394.75
G3 X20.0 Y393.1625 I1.5875 J0.0
G1 X21.4125
G1 Y392.8375
G1 X12.5875
G1 Y393.1625
G1 X14.0
G3 X15.5875 Y394.75 I0.0 J1.5875
G1 Y398.4125
G1 X18.4125
G1 F300.0 Z-6.0
G1 F800.0 Y394.75
G3 X20.0 Y393.1625 I1.5875 J0.0
G1 X21.4125
G1 Y392.8375
G1 X12.5875
G1 Y393.1625
G1 X14.0
G3 X15.5875 Y394.75 I0.0 J1.5875
G1 Y398.4125
G1 X18.4125
( Contour2 )
S1000
G0 Z3.0
G0 X202.5875 Y123.8
G0 Z1.0
G1 F300.0 Z-1.0
G1 F800.0 Y127.0
G1 Y511.0
G3 X201.0 Y512.5875 I-1.5875 J0.0
G1 X1.0
G3 X-0.5875 Y511.0 I0.0 J-1.5875
G1 Y127.0
G1 Y123.8
G1 Y1.0
G3 X1.0 Y-0.5875 I1.5875 J0.0
G1 X16.0
G3 X17.5863 Y0.9377 I0.0 J1.5875
G1 X17.8459 Y7.5444
G1 X18.6157 Y14.0484
G1 X19.8934 Y20.472
G1 X21.6712 Y26.7755
G1 X23.938 Y32.9201
G1 X26.68 Y38.8679
G1 X29.8802 Y44.5823
G1 X33.5189 Y50.0279
G1 X37.5736 Y55.1713
G1 X42.0193 Y59.9807
G1 X46.8287 Y64.4264
G1 X51.9721 Y68.4811
G1 X57.4177 Y72.1198
G1 X63.1321 Y75.32
G1 X69.0799 Y78.062
G1 X75.2245 Y80.3288
G1 X81.528 Y82.1066
G1 X87.9516 Y83.3843
G1 X94.4556 Y84.1541
G1 X101.0 Y84.4113
G1 X107.5444 Y84.1541
G1 X114.0484 Y83.3843
G1 X120.472 Y82.1066
G1 X126.7755 Y80.3288
G1 X132.9201 Y78.062
G1 X138.8679 Y75.32
G1 X144.5823 Y72.1198
G1 X150.0279 Y68.4811
G1 X155.1713 Y64.4264
G1 X159.9807 Y59.9807
G1 X164.4264 Y55.1713
G1 X168.4811 Y50.0279
G1 X172.1198 Y44.5823
G1 X175.32 Y38.8679
G1 X178.062 Y32.9201
G1 X180.3288 Y26.7755
G1 X182.1066 Y20.472
G1 X183.3843 Y14.0484
G1 X184.1541 Y7.5444
G1 X184.4137 Y0.9377
G3 X186.0 Y-0.5875 I1.5863 J0.0623
G1 X201.0
G3 X202.5875 Y1.0 I0.0 J1.5875
G1 Y123.8
G1 F300.0 Z-2.0
G1 F800.0 Y127.0
G1 Y511.0
G3 X201.0 Y512.5875 I-1.5875 J0.0
G1 X1.0
G3 X-0.5875 Y511.0 I0.0 J-1.5875
G1 Y127.0
G1 Y123.8
G1 Y1.0
G3 X1.0 Y-0.5875 I1.5875 J0.0
G1 X16.0
G3 X17.5863 Y0.9377 I0.0 J1.5875
G1 X17.8459 Y7.5444
G1 X18.6157 Y14.0484
G1 X19.8934 Y20.472
G1 X21.6712 Y26.7755
G1 X23.938 Y32.9201
G1 X26.68 Y38.8679
G1 X29.8802 Y44.5823
G1 X33.5189 Y50.0279
G1 X37.5736 Y55.1713
G1 X42.0193 Y59.9807
G1 X46.8287 Y64.4264
G1 X51.9721 Y68.4811
G1 X57.4177 Y72.1198
G1 X63.1321 Y75.32
G1 X69.0799 Y78.062
G1 X75.2245 Y80.3288
G1 X81.528 Y82.1066
G1 X87.9516 Y83.3843
G1 X94.4556 Y84.1541
G1 X101.0 Y84.4113
G1 X107.5444 Y84.1541
G1 X114.0484 Y83.3843
G1 X120.472 Y82.1066
G1 X126.7755 Y80.3288
G1 X132.9201 Y78.062
G1 X138.8679 Y75.32
G1 X144.5823 Y72.1198
G1 X150.0279 Y68.4811
G1 X155.1713 Y64.4264
G1 X159.9807 Y59.9807
G1 X164.4264 Y55.1713
G1 X168.4811 Y50.0279
G1 X172.1198 Y44.5823
G1 X175.32 Y38.8679
G1 X178.062 Y32.9201
G1 X180.3288 Y26.7755
G1 X182.1066 Y20.472
G1 X183.3843 Y14.0484
G1 X184.1541 Y7.5444
G1 X184.4137 Y0.9377
G3 X186.0 Y-0.5875 I1.5863 J0.0623
G1 X201.0
G3 X202.5875 Y1.0 I0.0 J1.5875
G1 Y123.8
G1 F300.0 Z-3.0
G1 F800.0 Y127.0
G1 Y511.0
G3 X201.0 Y512.5875 I-1.5875 J0.0
G1 X1.0
G3 X-0.5875 Y511.0 I0.0 J-1.5875
G1 Y127.0
G1 Y123.8
G1 Y1.0
G3 X1.0 Y-0.5875 I1.5875 J0.0
G1 X16.0
G3 X17.5863 Y0.9377 I0.0 J1.5875
G1 X17.8459 Y7.5444
G1 X18.6157 Y14.0484
G1 X19.8934 Y20.472
G1 X21.6712 Y26.7755
G1 X23.938 Y32.9201
G1 X26.68 Y38.8679
G1 X29.8802 Y44.5823
G1 X33.5189 Y50.0279
G1 X37.5736 Y55.1713
G1 X42.0193 Y59.9807
G1 X46.8287 Y64.4264
G1 X51.9721 Y68.4811
G1 X57.4177 Y72.1198
G1 X63.1321 Y75.32
G1 X69.0799 Y78.062
G1 X75.2245 Y80.3288
G1 X81.528 Y82.1066
G1 X87.9516 Y83.3843
G1 X94.4556 Y84.1541
G1 X101.0 Y84.4113
G1 X107.5444 Y84.1541
G1 X114.0484 Y83.3843
G1 X120.472 Y82.1066
G1 X126.7755 Y80.3288
G1 X132.9201 Y78.062
G1 X138.8679 Y75.32
G1 X144.5823 Y72.1198
G1 X150.0279 Y68.4811
G1 X155.1713 Y64.4264
G1 X159.9807 Y59.9807
G1 X164.4264 Y55.1713
G1 X168.4811 Y50.0279
G1 X172.1198 Y44.5823
G1 X175.32 Y38.8679
G1 X178.062 Y32.9201
G1 X180.3288 Y26.7755
G1 X182.1066 Y20.472
G1 X183.3843 Y14.0484
G1 X184.1541 Y7.5444
G1 X184.4137 Y0.9377
G3 X186.0 Y-0.5875 I1.5863 J0.0623
G1 X201.0
G3 X202.5875 Y1.0 I0.0 J1.5875
G1 Y123.8
G1 F300.0 Z-4.0
G1 F800.0 Y127.0
G1 Y511.0
G3 X201.0 Y512.5875 I-1.5875 J0.0
G1 X1.0
G3 X-0.5875 Y511.0 I0.0 J-1.5875
G1 Y127.0
G1 Y123.8
G1 Y1.0
G3 X1.0 Y-0.5875 I1.5875 J0.0
G1 X16.0
G3 X17.5863 Y0.9377 I0.0 J1.5875
G1 X17.8459 Y7.5444
G1 X18.6157 Y14.0484
G1 X19.8934 Y20.472
G1 X21.6712 Y26.7755
G1 X23.938 Y32.9201
G1 X26.68 Y38.8679
G1 X29.8802 Y44.5823
G1 X33.5189 Y50.0279
G1 X37.5736 Y55.1713
G1 X42.0193 Y59.9807
G1 X46.8287 Y64.4264
G1 X51.9721 Y68.4811
G1 X57.4177 Y72.1198
G1 X63.1321 Y75.32
G1 X69.0799 Y78.062
G1 X75.2245 Y80.3288
G1 X81.528 Y82.1066
G1 X87.9516 Y83.3843
G1 X94.4556 Y84.1541
G1 X101.0 Y84.4113
G1 X107.5444 Y84.1541
G1 X114.0484 Y83.3843
G1 X120.472 Y82.1066
G1 X126.7755 Y80.3288
G1 X132.9201 Y78.062
G1 X138.8679 Y75.32
G1 X144.5823 Y72.1198
G1 X150.0279 Y68.4811
G1 X155.1713 Y64.4264
G1 X159.9807 Y59.9807
G1 X164.4264 Y55.1713
G1 X168.4811 Y50.0279
G1 X172.1198 Y44.5823
G1 X175.32 Y38.8679
G1 X178.062 Y32.9201
G1 X180.3288 Y26.7755
G1 X182.1066 Y20.472
G1 X183.3843 Y14.0484
G1 X184.1541 Y7.5444
G1 X184.4137 Y0.9377
G3 X186.0 Y-0.5875 I1.5863 J0.0623
G1 X201.0
G3 X202.5875 Y1.0 I0.0 J1.5875
G1 Y123.8
G1 F300.0 Z-5.0
G1 F800.0 Y127.0
G1 Y511.0
G3 X201.0 Y512.5875 I-1.5875 J0.0
G1 X1.0
G3 X-0.5875 Y511.0 I0.0 J-1.5875
G1 Y127.0
G1 Y123.8
G1 Y1.0
G3 X1.0 Y-0.5875 I1.5875 J0.0
G1 X16.0
G3 X17.5863 Y0.9377 I0.0 J1.5875
G1 X17.8459 Y7.5444
G1 X18.6157 Y14.0484
G1 X19.8934 Y20.472
G1 X21.6712 Y26.7755
G1 X23.938 Y32.9201
G1 X26.68 Y38.8679
G1 X29.8802 Y44.5823
G1 X33.5189 Y50.0279
G1 X37.5736 Y55.1713
G1 X42.0193 Y59.9807
G1 X46.8287 Y64.4264
G1 X51.9721 Y68.4811
G1 X57.4177 Y72.1198
G1 X63.1321 Y75.32
G1 X69.0799 Y78.062
G1 X75.2245 Y80.3288
G1 X81.528 Y82.1066
G1 X87.9516 Y83.3843
G1 X94.4556 Y84.1541
G1 X101.0 Y84.4113
G1 X107.5444 Y84.1541
G1 X114.0484 Y83.3843
G1 X120.472 Y82.1066
G1 X126.7755 Y80.3288
G1 X132.9201 Y78.062
G1 X138.8679 Y75.32
G1 X144.5823 Y72.1198
G1 X150.0279 Y68.4811
G1 X155.1713 Y64.4264
G1 X159.9807 Y59.9807
G1 X164.4264 Y55.1713
G1 X168.4811 Y50.0279
G1 X172.1198 Y44.5823
G1 X175.32 Y38.8679
G1 X178.062 Y32.9201
G1 X180.3288 Y26.7755
G1 X182.1066 Y20.472
G1 X183.3843 Y14.0484
G1 X184.1541 Y7.5444
G1 X184.4137 Y0.9377
G3 X186.0 Y-0.5875 I1.5863 J0.0623
G1 X201.0
G3 X202.5875 Y1.0 I0.0 J1.5875
G1 Y123.8
G1 F300.0 Z-6.0
G1 F800.0 Y127.0
G1 Y511.0
G3 X201.0 Y512.5875 I-1.5875 J0.0
G1 X1.0
G3 X-0.5875 Y511.0 I0.0 J-1.5875
G1 Y127.0
G1 Y123.8
G1 Y1.0
G3 X1.0 Y-0.5875 I1.5875 J0.0
G1 X16.0
G3 X17.5863 Y0.9377 I0.0 J1.5875
G1 X17.8459 Y7.5444
G1 X18.6157 Y14.0484
G1 X19.8934 Y20.472
G1 X21.6712 Y26.7755
G1 X23.938 Y32.9201
G1 X26.68 Y38.8679
G1 X29.8802 Y44.5823
G1 X33.5189 Y50.0279
G1 X37.5736 Y55.1713
G1 X42.0193 Y59.9807
G1 X46.8287 Y64.4264
G1 X51.9721 Y68.4811
G1 X57.4177 Y72.1198
G1 X63.1321 Y75.32
G1 X69.0799 Y78.062
G1 X75.2245 Y80.3288
G1 X81.528 Y82.1066
G1 X87.9516 Y83.3843
G1 X94.4556 Y84.1541
G1 X101.0 Y84.4113
G1 X107.5444 Y84.1541
G1 X114.0484 Y83.3843
G1 X120.472 Y82.1066
G1 X126.7755 Y80.3288
G1 X132.9201 Y78.062
G1 X138.8679 Y75.32
G1 X144.5823 Y72.1198
G1 X150.0279 Y68.4811
G1 X155.1713 Y64.4264
G1 X159.9807 Y59.9807
G1 X164.4264 Y55.1713
G1 X168.4811 Y50.0279
G1 X172.1198 Y44.5823
G1 X175.32 Y38.8679
G1 X178.062 Y32.9201
G1 X180.3288 Y26.7755
G1 X182.1066 Y20.472
G1 X183.3843 Y14.0484
G1 X184.1541 Y7.5444
G1 X184.4137 Y0.9377
G3 X186.0 Y-0.5875 I1.5863 J0.0623
G1 X201.0
G3 X202.5875 Y1.0 I0.0 J1.5875
G1 Y123.8
G0 Z3.0
M5
M30
