( Made using CamBam - http://www.cambam.co.uk )
( structure_side 5/19/2016 11:14:57 PM )
( T4 : 3.175 )
G21 G90 G64 G40
G0 Z3.0
( T4 : 3.175 )
T4 M6
( Poche1 )
G17
M3 S1000
G0 X15.9175 Y125.4125
G0 Z1.0
G1 F300.0 Z-1.0
G1 F800.0 X202.7425
G1 Y125.3875
G1 X15.9175
G1 Y125.4125
( Contour1 )
S1000
G0 Z3.0
G0 X56.6675 Y495.0
G0 Z1.0
G1 F300.0 Z-1.0
G1 F800.0 Y496.4125
G1 X60.33
G3 X61.9175 Y498.0 I0.0 J1.5875
G1 Y499.4125
G1 X62.2425
G1 Y490.5875
G1 X61.9175
G1 Y492.0
G3 X60.33 Y493.5875 I-1.5875 J0.0
G1 X56.6675
G1 Y495.0
G1 F300.0 Z-2.0
G1 F800.0 Y496.4125
G1 X60.33
G3 X61.9175 Y498.0 I0.0 J1.5875
G1 Y499.4125
G1 X62.2425
G1 Y490.5875
G1 X61.9175
G1 Y492.0
G3 X60.33 Y493.5875 I-1.5875 J0.0
G1 X56.6675
G1 Y495.0
G1 F300.0 Z-3.0
G1 F800.0 Y496.4125
G1 X60.33
G3 X61.9175 Y498.0 I0.0 J1.5875
G1 Y499.4125
G1 X62.2425
G1 Y490.5875
G1 X61.9175
G1 Y492.0
G3 X60.33 Y493.5875 I-1.5875 J0.0
G1 X56.6675
G1 Y495.0
G1 F300.0 Z-4.0
G1 F800.0 Y496.4125
G1 X60.33
G3 X61.9175 Y498.0 I0.0 J1.5875
G1 Y499.4125
G1 X62.2425
G1 Y490.5875
G1 X61.9175
G1 Y492.0
G3 X60.33 Y493.5875 I-1.5875 J0.0
G1 X56.6675
G1 Y495.0
G1 F300.0 Z-5.0
G1 F800.0 Y496.4125
G1 X60.33
G3 X61.9175 Y498.0 I0.0 J1.5875
G1 Y499.4125
G1 X62.2425
G1 Y490.5875
G1 X61.9175
G1 Y492.0
G3 X60.33 Y493.5875 I-1.5875 J0.0
G1 X56.6675
G1 Y495.0
G1 F300.0 Z-6.0
G1 F800.0 Y496.4125
G1 X60.33
G3 X61.9175 Y498.0 I0.0 J1.5875
G1 Y499.4125
G1 X62.2425
G1 Y490.5875
G1 X61.9175
G1 Y492.0
G3 X60.33 Y493.5875 I-1.5875 J0.0
G1 X56.6675
G1 Y495.0
G0 Z3.0
G0 X46.4925
G0 Z1.0
G1 F300.0 Z-1.0
G1 F800.0 Y490.5875
G1 X41.6675
G1 Y499.4125
G1 X46.4925
G1 Y495.0
G1 F300.0 Z-2.0
G1 F800.0 Y490.5875
G1 X41.6675
G1 Y499.4125
G1 X46.4925
G1 Y495.0
G1 F300.0 Z-3.0
G1 F800.0 Y490.5875
G1 X41.6675
G1 Y499.4125
G1 X46.4925
G1 Y495.0
G1 F300.0 Z-4.0
G1 F800.0 Y490.5875
G1 X41.6675
G1 Y499.4125
G1 X46.4925
G1 Y495.0
G1 F300.0 Z-5.0
G1 F800.0 Y490.5875
G1 X41.6675
G1 Y499.4125
G1 X46.4925
G1 Y495.0
G1 F300.0 Z-6.0
G1 F800.0 Y490.5875
G1 X41.6675
G1 Y499.4125
G1 X46.4925
G1 Y495.0
G0 Z3.0
G0 X31.4925
G0 Z1.0
G1 F300.0 Z-1.0
G1 F800.0 Y493.5875
G1 X27.83
G3 X26.2425 Y492.0 I0.0 J-1.5875
G1 Y490.5875
G1 X25.9175
G1 Y499.4125
G1 X26.2425
G1 Y498.0
G3 X27.83 Y496.4125 I1.5875 J0.0
G1 X31.4925
G1 Y495.0
G1 F300.0 Z-2.0
G1 F800.0 Y493.5875
G1 X27.83
G3 X26.2425 Y492.0 I0.0 J-1.5875
G1 Y490.5875
G1 X25.9175
G1 Y499.4125
G1 X26.2425
G1 Y498.0
G3 X27.83 Y496.4125 I1.5875 J0.0
G1 X31.4925
G1 Y495.0
G1 F300.0 Z-3.0
G1 F800.0 Y493.5875
G1 X27.83
G3 X26.2425 Y492.0 I0.0 J-1.5875
G1 Y490.5875
G1 X25.9175
G1 Y499.4125
G1 X26.2425
G1 Y498.0
G3 X27.83 Y496.4125 I1.5875 J0.0
G1 X31.4925
G1 Y495.0
G1 F300.0 Z-4.0
G1 F800.0 Y493.5875
G1 X27.83
G3 X26.2425 Y492.0 I0.0 J-1.5875
G1 Y490.5875
G1 X25.9175
G1 Y499.4125
G1 X26.2425
G1 Y498.0
G3 X27.83 Y496.4125 I1.5875 J0.0
G1 X31.4925
G1 Y495.0
G1 F300.0 Z-5.0
G1 F800.0 Y493.5875
G1 X27.83
G3 X26.2425 Y492.0 I0.0 J-1.5875
G1 Y490.5875
G1 X25.9175
G1 Y499.4125
G1 X26.2425
G1 Y498.0
G3 X27.83 Y496.4125 I1.5875 J0.0
G1 X31.4925
G1 Y495.0
G1 F300.0 Z-6.0
G1 F800.0 Y493.5875
G1 X27.83
G3 X26.2425 Y492.0 I0.0 J-1.5875
G1 Y490.5875
G1 X25.9175
G1 Y499.4125
G1 X26.2425
G1 Y498.0
G3 X27.83 Y496.4125 I1.5875 J0.0
G1 X31.4925
G1 Y495.0
G0 Z3.0
G0 X156.4175
G0 Z1.0
G1 F300.0 Z-1.0
G1 F800.0 Y499.4125
G1 X156.7425
G1 Y498.0
G3 X158.33 Y496.4125 I1.5875 J0.0
G1 X161.9925
G1 Y493.5875
G1 X158.33
G3 X156.7425 Y492.0 I0.0 J-1.5875
G1 Y490.5875
G1 X156.4175
G1 Y495.0
G1 F300.0 Z-2.0
G1 F800.0 Y499.4125
G1 X156.7425
G1 Y498.0
G3 X158.33 Y496.4125 I1.5875 J0.0
G1 X161.9925
G1 Y493.5875
G1 X158.33
G3 X156.7425 Y492.0 I0.0 J-1.5875
G1 Y490.5875
G1 X156.4175
G1 Y495.0
G1 F300.0 Z-3.0
G1 F800.0 Y499.4125
G1 X156.7425
G1 Y498.0
G3 X158.33 Y496.4125 I1.5875 J0.0
G1 X161.9925
G1 Y493.5875
G1 X158.33
G3 X156.7425 Y492.0 I0.0 J-1.5875
G1 Y490.5875
G1 X156.4175
G1 Y495.0
G1 F300.0 Z-4.0
G1 F800.0 Y499.4125
G1 X156.7425
G1 Y498.0
G3 X158.33 Y496.4125 I1.5875 J0.0
G1 X161.9925
G1 Y493.5875
G1 X158.33
G3 X156.7425 Y492.0 I0.0 J-1.5875
G1 Y490.5875
G1 X156.4175
G1 Y495.0
G1 F300.0 Z-5.0
G1 F800.0 Y499.4125
G1 X156.7425
G1 Y498.0
G3 X158.33 Y496.4125 I1.5875 J0.0
G1 X161.9925
G1 Y493.5875
G1 X158.33
G3 X156.7425 Y492.0 I0.0 J-1.5875
G1 Y490.5875
G1 X156.4175
G1 Y495.0
G1 F300.0 Z-6.0
G1 F800.0 Y499.4125
G1 X156.7425
G1 Y498.0
G3 X158.33 Y496.4125 I1.5875 J0.0
G1 X161.9925
G1 Y493.5875
G1 X158.33
G3 X156.7425 Y492.0 I0.0 J-1.5875
G1 Y490.5875
G1 X156.4175
G1 Y495.0
G0 Z3.0
G0 X172.1675
G0 Z1.0
G1 F300.0 Z-1.0
G1 F800.0 Y499.4125
G1 X176.9925
G1 Y490.5875
G1 X172.1675
G1 Y495.0
G1 F300.0 Z-2.0
G1 F800.0 Y499.4125
G1 X176.9925
G1 Y490.5875
G1 X172.1675
G1 Y495.0
G1 F300.0 Z-3.0
G1 F800.0 Y499.4125
G1 X176.9925
G1 Y490.5875
G1 X172.1675
G1 Y495.0
G1 F300.0 Z-4.0
G1 F800.0 Y499.4125
G1 X176.9925
G1 Y490.5875
G1 X172.1675
G1 Y495.0
G1 F300.0 Z-5.0
G1 F800.0 Y499.4125
G1 X176.9925
G1 Y490.5875
G1 X172.1675
G1 Y495.0
G1 F300.0 Z-6.0
G1 F800.0 Y499.4125
G1 X176.9925
G1 Y490.5875
G1 X172.1675
G1 Y495.0
G0 Z3.0
G0 X187.1675
G0 Z1.0
G1 F300.0 Z-1.0
G1 F800.0 Y496.4125
G1 X190.83
G3 X192.4175 Y498.0 I0.0 J1.5875
G1 Y499.4125
G1 X192.7425
G1 Y490.5875
G1 X192.4175
G1 Y492.0
G3 X190.83 Y493.5875 I-1.5875 J0.0
G1 X187.1675
G1 Y495.0
G1 F300.0 Z-2.0
G1 F800.0 Y496.4125
G1 X190.83
G3 X192.4175 Y498.0 I0.0 J1.5875
G1 Y499.4125
G1 X192.7425
G1 Y490.5875
G1 X192.4175
G1 Y492.0
G3 X190.83 Y493.5875 I-1.5875 J0.0
G1 X187.1675
G1 Y495.0
G1 F300.0 Z-3.0
G1 F800.0 Y496.4125
G1 X190.83
G3 X192.4175 Y498.0 I0.0 J1.5875
G1 Y499.4125
G1 X192.7425
G1 Y490.5875
G1 X192.4175
G1 Y492.0
G3 X190.83 Y493.5875 I-1.5875 J0.0
G1 X187.1675
G1 Y495.0
G1 F300.0 Z-4.0
G1 F800.0 Y496.4125
G1 X190.83
G3 X192.4175 Y498.0 I0.0 J1.5875
G1 Y499.4125
G1 X192.7425
G1 Y490.5875
G1 X192.4175
G1 Y492.0
G3 X190.83 Y493.5875 I-1.5875 J0.0
G1 X187.1675
G1 Y495.0
G1 F300.0 Z-5.0
G1 F800.0 Y496.4125
G1 X190.83
G3 X192.4175 Y498.0 I0.0 J1.5875
G1 Y499.4125
G1 X192.7425
G1 Y490.5875
G1 X192.4175
G1 Y492.0
G3 X190.83 Y493.5875 I-1.5875 J0.0
G1 X187.1675
G1 Y495.0
G1 F300.0 Z-6.0
G1 F800.0 Y496.4125
G1 X190.83
G3 X192.4175 Y498.0 I0.0 J1.5875
G1 Y499.4125
G1 X192.7425
G1 Y490.5875
G1 X192.4175
G1 Y492.0
G3 X190.83 Y493.5875 I-1.5875 J0.0
G1 X187.1675
G1 Y495.0
( Contour2 )
S1000
G0 Z3.0
G0 X187.587 Y5.9235
G0 Z1.0
G1 F300.0 Z-1.0
G1 F800.0 X187.7433 Y0.9501
G3 X189.33 Y-0.5875 I1.5867 J0.0499
G1 X204.33
G3 X205.9175 Y1.0 I0.0 J1.5875
G1 Y26.0
G1 Y123.8
G1 Y127.0
G1 Y129.5
G3 X204.33 Y131.0875 I-1.5875 J0.0
G1 X175.9175
G1 Y131.4125
G1 X208.7425
G1 Y129.5
G3 X210.33 Y127.9125 I1.5875 J0.0
G1 X217.33
G3 X218.9175 Y129.5 I0.0 J1.5875
G1 Y136.5
G3 X217.33 Y138.0875 I-1.5875 J0.0
G1 X175.9175
G1 Y138.4125
G1 X204.33
G3 X205.9175 Y140.0 I0.0 J1.5875
G1 Y143.5
G3 X204.33 Y145.0875 I-1.5875 J0.0
G1 X202.9175
G1 Y145.4125
G1 X217.33
G3 X218.9175 Y147.0 I0.0 J1.5875
G1 Y155.0
G3 X217.33 Y156.5875 I-1.5875 J0.0
G1 X202.9175
G1 Y156.9125
G1 X204.33
G3 X205.9175 Y158.5 I0.0 J1.5875
G1 Y162.0
G3 X204.33 Y163.5875 I-1.5875 J0.0
G1 X175.9175
G1 Y163.9125
G1 X217.33
G3 X218.9175 Y165.5 I0.0 J1.5875
G1 Y172.5
G3 X217.33 Y174.0875 I-1.5875 J0.0
G1 X210.33
G3 X208.7425 Y172.5 I0.0 J-1.5875
G1 Y170.5875
G1 X175.8166
G1 X175.7952 Y170.9125
G1 X204.33
G3 X205.9175 Y172.5 I0.0 J1.5875
G1 Y389.5
G3 X204.33 Y391.0875 I-1.5875 J0.0
G1 X175.9175
G1 Y391.4125
G1 X208.7425
G1 Y389.5
G3 X210.33 Y387.9125 I1.5875 J0.0
G1 X217.33
G3 X218.9175 Y389.5 I0.0 J1.5875
G1 Y396.5
G3 X217.33 Y398.0875 I-1.5875 J0.0
G1 X175.9175
G1 Y398.4125
G1 X204.33
G3 X205.9175 Y400.0 I0.0 J1.5875
G1 Y403.5
G3 X204.33 Y405.0875 I-1.5875 J0.0
G1 X202.9175
G1 Y405.4125
G1 X217.33
G3 X218.9175 Y407.0 I0.0 J1.5875
G1 Y415.0
G3 X217.33 Y416.5875 I-1.5875 J0.0
G1 X202.9175
G1 Y416.9125
G1 X204.33
G3 X205.9175 Y418.5 I0.0 J1.5875
G1 Y422.0
G3 X204.33 Y423.5875 I-1.5875 J0.0
G1 X175.9175
G1 Y423.9125
G1 X217.33
G3 X218.9175 Y425.5 I0.0 J1.5875
G1 Y432.5
G3 X217.33 Y434.0875 I-1.5875 J0.0
G1 X210.33
G3 X208.7425 Y432.5 I0.0 J-1.5875
G1 Y430.5875
G1 X175.8166
G1 X175.7952 Y430.9125
G1 X204.33
G3 X205.9175 Y432.5 I0.0 J1.5875
G1 Y511.0
G3 X204.33 Y512.5875 I-1.5875 J0.0
G1 X14.33
G3 X12.7425 Y511.0 I0.0 J-1.5875
G1 Y432.5
G3 X14.33 Y430.9125 I1.5875 J0.0
G1 X42.7425
G1 Y430.5875
G1 X9.9175
G1 Y432.5
G3 X8.33 Y434.0875 I-1.5875 J0.0
G1 X1.33
G3 X-0.2575 Y432.5 I0.0 J-1.5875
G1 Y425.5
G3 X1.33 Y423.9125 I1.5875 J0.0
G1 X42.7425
G1 Y423.5875
G1 X14.33
G3 X12.7425 Y422.0 I0.0 J-1.5875
G1 Y418.5
G3 X14.33 Y416.9125 I1.5875 J0.0
G1 X15.7425
G1 Y416.5875
G1 X1.33
G3 X-0.2575 Y415.0 I0.0 J-1.5875
G1 Y407.0
G3 X1.33 Y405.4125 I1.5875 J0.0
G1 X15.7425
G1 Y405.0875
G1 X14.33
G3 X12.7425 Y403.5 I0.0 J-1.5875
G1 Y400.0
G3 X14.33 Y398.4125 I1.5875 J0.0
G1 X42.7425
G1 Y398.0875
G1 X1.33
G3 X-0.2575 Y396.5 I0.0 J-1.5875
G1 Y389.5
G3 X1.33 Y387.9125 I1.5875 J0.0
G1 X8.33
G3 X9.9175 Y389.5 I0.0 J1.5875
G1 Y391.4125
G1 X42.8434
G1 X42.8648 Y391.0875
G1 X14.33
G3 X12.7425 Y389.5 I0.0 J-1.5875
G1 Y172.5
G3 X14.33 Y170.9125 I1.5875 J0.0
G1 X42.7425
G1 Y170.5875
G1 X9.9175
G1 Y172.5
G3 X8.33 Y174.0875 I-1.5875 J0.0
G1 X1.33
G3 X-0.2575 Y172.5 I0.0 J-1.5875
G1 Y165.5
G3 X1.33 Y163.9125 I1.5875 J0.0
G1 X42.7425
G1 Y163.5875
G1 X14.33
G3 X12.7425 Y162.0 I0.0 J-1.5875
G1 Y158.5
G3 X14.33 Y156.9125 I1.5875 J0.0
G1 X15.7425
G1 Y156.5875
G1 X1.33
G3 X-0.2575 Y155.0 I0.0 J-1.5875
G1 Y147.0
G3 X1.33 Y145.4125 I1.5875 J0.0
G1 X15.7425
G1 Y145.0875
G1 X14.33
G3 X12.7425 Y143.5 I0.0 J-1.5875
G1 Y140.0
G3 X14.33 Y138.4125 I1.5875 J0.0
G1 X42.7425
G1 Y138.0875
G1 X1.33
G3 X-0.2575 Y136.5 I0.0 J-1.5875
G1 Y129.5
G3 X1.33 Y127.9125 I1.5875 J0.0
G1 X8.33
G3 X9.9175 Y129.5 I0.0 J1.5875
G1 Y131.4125
G1 X42.8434
G1 X42.8648 Y131.0875
G1 X14.33
G3 X12.7425 Y129.5 I0.0 J-1.5875
G1 Y127.0
G1 Y123.8
G1 Y1.0
G3 X14.33 Y-0.5875 I1.5875 J0.0
G1 X29.33
G3 X30.9167 Y0.9501 I0.0 J1.5875
G1 X31.073 Y5.9235
G1 X31.5366 Y10.8276
G1 X32.3072 Y15.6929
G1 X33.3817 Y20.5002
G1 X34.756 Y25.2306
G1 X36.4246 Y29.8653
G1 X38.381 Y34.3861
G1 X40.6173 Y38.7751
G1 X43.1248 Y43.0151
G1 X45.8936 Y47.0893
G1 X48.9127 Y50.9815
G1 X52.1703 Y54.6765
G1 X55.6535 Y58.1597
G1 X59.3485 Y61.4173
G1 X63.2407 Y64.4364
G1 X67.3149 Y67.2052
G1 X71.5549 Y69.7127
G1 X75.9439 Y71.949
G1 X80.4647 Y73.9054
G1 X85.0994 Y75.574
G1 X89.8298 Y76.9483
G1 X94.6371 Y78.0228
G1 X99.5024 Y78.7934
G1 X104.4065 Y79.257
G1 X109.33 Y79.4117
G1 X114.2535 Y79.257
G1 X119.1576 Y78.7934
G1 X124.0229 Y78.0228
G1 X128.8302 Y76.9483
G1 X133.5606 Y75.574
G1 X138.1953 Y73.9054
G1 X142.7161 Y71.949
G1 X147.1051 Y69.7127
G1 X151.3451 Y67.2052
G1 X155.4193 Y64.4364
G1 X159.3115 Y61.4173
G1 X163.0065 Y58.1597
G1 X166.4897 Y54.6765
G1 X169.7473 Y50.9815
G1 X172.7664 Y47.0893
G1 X175.5352 Y43.0151
G1 X178.0427 Y38.7751
G1 X180.279 Y34.3861
G1 X182.2354 Y29.8653
G1 X183.904 Y25.2306
G1 X185.2783 Y20.5002
G1 X186.3528 Y15.6929
G1 X187.1234 Y10.8276
G1 X187.587 Y5.9235
G1 F300.0 Z-2.0
G1 F800.0 X187.7433 Y0.9501
G3 X189.33 Y-0.5875 I1.5867 J0.0499
G1 X204.33
G3 X205.9175 Y1.0 I0.0 J1.5875
G1 Y26.0
G1 Y123.8
G1 Y127.0
G1 Y129.5
G3 X204.33 Y131.0875 I-1.5875 J0.0
G1 X175.9175
G1 Y131.4125
G1 X208.7425
G1 Y129.5
G3 X210.33 Y127.9125 I1.5875 J0.0
G1 X217.33
G3 X218.9175 Y129.5 I0.0 J1.5875
G1 Y136.5
G3 X217.33 Y138.0875 I-1.5875 J0.0
G1 X175.9175
G1 Y138.4125
G1 X204.33
G3 X205.9175 Y140.0 I0.0 J1.5875
G1 Y143.5
G3 X204.33 Y145.0875 I-1.5875 J0.0
G1 X202.9175
G1 Y145.4125
G1 X217.33
G3 X218.9175 Y147.0 I0.0 J1.5875
G1 Y155.0
G3 X217.33 Y156.5875 I-1.5875 J0.0
G1 X202.9175
G1 Y156.9125
G1 X204.33
G3 X205.9175 Y158.5 I0.0 J1.5875
G1 Y162.0
G3 X204.33 Y163.5875 I-1.5875 J0.0
G1 X175.9175
G1 Y163.9125
G1 X217.33
G3 X218.9175 Y165.5 I0.0 J1.5875
G1 Y172.5
G3 X217.33 Y174.0875 I-1.5875 J0.0
G1 X210.33
G3 X208.7425 Y172.5 I0.0 J-1.5875
G1 Y170.5875
G1 X175.8166
G1 X175.7952 Y170.9125
G1 X204.33
G3 X205.9175 Y172.5 I0.0 J1.5875
G1 Y389.5
G3 X204.33 Y391.0875 I-1.5875 J0.0
G1 X175.9175
G1 Y391.4125
G1 X208.7425
G1 Y389.5
G3 X210.33 Y387.9125 I1.5875 J0.0
G1 X217.33
G3 X218.9175 Y389.5 I0.0 J1.5875
G1 Y396.5
G3 X217.33 Y398.0875 I-1.5875 J0.0
G1 X175.9175
G1 Y398.4125
G1 X204.33
G3 X205.9175 Y400.0 I0.0 J1.5875
G1 Y403.5
G3 X204.33 Y405.0875 I-1.5875 J0.0
G1 X202.9175
G1 Y405.4125
G1 X217.33
G3 X218.9175 Y407.0 I0.0 J1.5875
G1 Y415.0
G3 X217.33 Y416.5875 I-1.5875 J0.0
G1 X202.9175
G1 Y416.9125
G1 X204.33
G3 X205.9175 Y418.5 I0.0 J1.5875
G1 Y422.0
G3 X204.33 Y423.5875 I-1.5875 J0.0
G1 X175.9175
G1 Y423.9125
G1 X217.33
G3 X218.9175 Y425.5 I0.0 J1.5875
G1 Y432.5
G3 X217.33 Y434.0875 I-1.5875 J0.0
G1 X210.33
G3 X208.7425 Y432.5 I0.0 J-1.5875
G1 Y430.5875
G1 X175.8166
G1 X175.7952 Y430.9125
G1 X204.33
G3 X205.9175 Y432.5 I0.0 J1.5875
G1 Y511.0
G3 X204.33 Y512.5875 I-1.5875 J0.0
G1 X14.33
G3 X12.7425 Y511.0 I0.0 J-1.5875
G1 Y432.5
G3 X14.33 Y430.9125 I1.5875 J0.0
G1 X42.7425
G1 Y430.5875
G1 X9.9175
G1 Y432.5
G3 X8.33 Y434.0875 I-1.5875 J0.0
G1 X1.33
G3 X-0.2575 Y432.5 I0.0 J-1.5875
G1 Y425.5
G3 X1.33 Y423.9125 I1.5875 J0.0
G1 X42.7425
G1 Y423.5875
G1 X14.33
G3 X12.7425 Y422.0 I0.0 J-1.5875
G1 Y418.5
G3 X14.33 Y416.9125 I1.5875 J0.0
G1 X15.7425
G1 Y416.5875
G1 X1.33
G3 X-0.2575 Y415.0 I0.0 J-1.5875
G1 Y407.0
G3 X1.33 Y405.4125 I1.5875 J0.0
G1 X15.7425
G1 Y405.0875
G1 X14.33
G3 X12.7425 Y403.5 I0.0 J-1.5875
G1 Y400.0
G3 X14.33 Y398.4125 I1.5875 J0.0
G1 X42.7425
G1 Y398.0875
G1 X1.33
G3 X-0.2575 Y396.5 I0.0 J-1.5875
G1 Y389.5
G3 X1.33 Y387.9125 I1.5875 J0.0
G1 X8.33
G3 X9.9175 Y389.5 I0.0 J1.5875
G1 Y391.4125
G1 X42.8434
G1 X42.8648 Y391.0875
G1 X14.33
G3 X12.7425 Y389.5 I0.0 J-1.5875
G1 Y172.5
G3 X14.33 Y170.9125 I1.5875 J0.0
G1 X42.7425
G1 Y170.5875
G1 X9.9175
G1 Y172.5
G3 X8.33 Y174.0875 I-1.5875 J0.0
G1 X1.33
G3 X-0.2575 Y172.5 I0.0 J-1.5875
G1 Y165.5
G3 X1.33 Y163.9125 I1.5875 J0.0
G1 X42.7425
G1 Y163.5875
G1 X14.33
G3 X12.7425 Y162.0 I0.0 J-1.5875
G1 Y158.5
G3 X14.33 Y156.9125 I1.5875 J0.0
G1 X15.7425
G1 Y156.5875
G1 X1.33
G3 X-0.2575 Y155.0 I0.0 J-1.5875
G1 Y147.0
G3 X1.33 Y145.4125 I1.5875 J0.0
G1 X15.7425
G1 Y145.0875
G1 X14.33
G3 X12.7425 Y143.5 I0.0 J-1.5875
G1 Y140.0
G3 X14.33 Y138.4125 I1.5875 J0.0
G1 X42.7425
G1 Y138.0875
G1 X1.33
G3 X-0.2575 Y136.5 I0.0 J-1.5875
G1 Y129.5
G3 X1.33 Y127.9125 I1.5875 J0.0
G1 X8.33
G3 X9.9175 Y129.5 I0.0 J1.5875
G1 Y131.4125
G1 X42.8434
G1 X42.8648 Y131.0875
G1 X14.33
G3 X12.7425 Y129.5 I0.0 J-1.5875
G1 Y127.0
G1 Y123.8
G1 Y1.0
G3 X14.33 Y-0.5875 I1.5875 J0.0
G1 X29.33
G3 X30.9167 Y0.9501 I0.0 J1.5875
G1 X31.073 Y5.9235
G1 X31.5366 Y10.8276
G1 X32.3072 Y15.6929
G1 X33.3817 Y20.5002
G1 X34.756 Y25.2306
G1 X36.4246 Y29.8653
G1 X38.381 Y34.3861
G1 X40.6173 Y38.7751
G1 X43.1248 Y43.0151
G1 X45.8936 Y47.0893
G1 X48.9127 Y50.9815
G1 X52.1703 Y54.6765
G1 X55.6535 Y58.1597
G1 X59.3485 Y61.4173
G1 X63.2407 Y64.4364
G1 X67.3149 Y67.2052
G1 X71.5549 Y69.7127
G1 X75.9439 Y71.949
G1 X80.4647 Y73.9054
G1 X85.0994 Y75.574
G1 X89.8298 Y76.9483
G1 X94.6371 Y78.0228
G1 X99.5024 Y78.7934
G1 X104.4065 Y79.257
G1 X109.33 Y79.4117
G1 X114.2535 Y79.257
G1 X119.1576 Y78.7934
G1 X124.0229 Y78.0228
G1 X128.8302 Y76.9483
G1 X133.5606 Y75.574
G1 X138.1953 Y73.9054
G1 X142.7161 Y71.949
G1 X147.1051 Y69.7127
G1 X151.3451 Y67.2052
G1 X155.4193 Y64.4364
G1 X159.3115 Y61.4173
G1 X163.0065 Y58.1597
G1 X166.4897 Y54.6765
G1 X169.7473 Y50.9815
G1 X172.7664 Y47.0893
G1 X175.5352 Y43.0151
G1 X178.0427 Y38.7751
G1 X180.279 Y34.3861
G1 X182.2354 Y29.8653
G1 X183.904 Y25.2306
G1 X185.2783 Y20.5002
G1 X186.3528 Y15.6929
G1 X187.1234 Y10.8276
G1 X187.587 Y5.9235
G1 F300.0 Z-3.0
G1 F800.0 X187.7433 Y0.9501
G3 X189.33 Y-0.5875 I1.5867 J0.0499
G1 X204.33
G3 X205.9175 Y1.0 I0.0 J1.5875
G1 Y26.0
G1 Y123.8
G1 Y127.0
G1 Y129.5
G3 X204.33 Y131.0875 I-1.5875 J0.0
G1 X175.9175
G1 Y131.4125
G1 X208.7425
G1 Y129.5
G3 X210.33 Y127.9125 I1.5875 J0.0
G1 X217.33
G3 X218.9175 Y129.5 I0.0 J1.5875
G1 Y136.5
G3 X217.33 Y138.0875 I-1.5875 J0.0
G1 X175.9175
G1 Y138.4125
G1 X204.33
G3 X205.9175 Y140.0 I0.0 J1.5875
G1 Y143.5
G3 X204.33 Y145.0875 I-1.5875 J0.0
G1 X202.9175
G1 Y145.4125
G1 X217.33
G3 X218.9175 Y147.0 I0.0 J1.5875
G1 Y155.0
G3 X217.33 Y156.5875 I-1.5875 J0.0
G1 X202.9175
G1 Y156.9125
G1 X204.33
G3 X205.9175 Y158.5 I0.0 J1.5875
G1 Y162.0
G3 X204.33 Y163.5875 I-1.5875 J0.0
G1 X175.9175
G1 Y163.9125
G1 X217.33
G3 X218.9175 Y165.5 I0.0 J1.5875
G1 Y172.5
G3 X217.33 Y174.0875 I-1.5875 J0.0
G1 X210.33
G3 X208.7425 Y172.5 I0.0 J-1.5875
G1 Y170.5875
G1 X175.8166
G1 X175.7952 Y170.9125
G1 X204.33
G3 X205.9175 Y172.5 I0.0 J1.5875
G1 Y389.5
G3 X204.33 Y391.0875 I-1.5875 J0.0
G1 X175.9175
G1 Y391.4125
G1 X208.7425
G1 Y389.5
G3 X210.33 Y387.9125 I1.5875 J0.0
G1 X217.33
G3 X218.9175 Y389.5 I0.0 J1.5875
G1 Y396.5
G3 X217.33 Y398.0875 I-1.5875 J0.0
G1 X175.9175
G1 Y398.4125
G1 X204.33
G3 X205.9175 Y400.0 I0.0 J1.5875
G1 Y403.5
G3 X204.33 Y405.0875 I-1.5875 J0.0
G1 X202.9175
G1 Y405.4125
G1 X217.33
G3 X218.9175 Y407.0 I0.0 J1.5875
G1 Y415.0
G3 X217.33 Y416.5875 I-1.5875 J0.0
G1 X202.9175
G1 Y416.9125
G1 X204.33
G3 X205.9175 Y418.5 I0.0 J1.5875
G1 Y422.0
G3 X204.33 Y423.5875 I-1.5875 J0.0
G1 X175.9175
G1 Y423.9125
G1 X217.33
G3 X218.9175 Y425.5 I0.0 J1.5875
G1 Y432.5
G3 X217.33 Y434.0875 I-1.5875 J0.0
G1 X210.33
G3 X208.7425 Y432.5 I0.0 J-1.5875
G1 Y430.5875
G1 X175.8166
G1 X175.7952 Y430.9125
G1 X204.33
G3 X205.9175 Y432.5 I0.0 J1.5875
G1 Y511.0
G3 X204.33 Y512.5875 I-1.5875 J0.0
G1 X14.33
G3 X12.7425 Y511.0 I0.0 J-1.5875
G1 Y432.5
G3 X14.33 Y430.9125 I1.5875 J0.0
G1 X42.7425
G1 Y430.5875
G1 X9.9175
G1 Y432.5
G3 X8.33 Y434.0875 I-1.5875 J0.0
G1 X1.33
G3 X-0.2575 Y432.5 I0.0 J-1.5875
G1 Y425.5
G3 X1.33 Y423.9125 I1.5875 J0.0
G1 X42.7425
G1 Y423.5875
G1 X14.33
G3 X12.7425 Y422.0 I0.0 J-1.5875
G1 Y418.5
G3 X14.33 Y416.9125 I1.5875 J0.0
G1 X15.7425
G1 Y416.5875
G1 X1.33
G3 X-0.2575 Y415.0 I0.0 J-1.5875
G1 Y407.0
G3 X1.33 Y405.4125 I1.5875 J0.0
G1 X15.7425
G1 Y405.0875
G1 X14.33
G3 X12.7425 Y403.5 I0.0 J-1.5875
G1 Y400.0
G3 X14.33 Y398.4125 I1.5875 J0.0
G1 X42.7425
G1 Y398.0875
G1 X1.33
G3 X-0.2575 Y396.5 I0.0 J-1.5875
G1 Y389.5
G3 X1.33 Y387.9125 I1.5875 J0.0
G1 X8.33
G3 X9.9175 Y389.5 I0.0 J1.5875
G1 Y391.4125
G1 X42.8434
G1 X42.8648 Y391.0875
G1 X14.33
G3 X12.7425 Y389.5 I0.0 J-1.5875
G1 Y172.5
G3 X14.33 Y170.9125 I1.5875 J0.0
G1 X42.7425
G1 Y170.5875
G1 X9.9175
G1 Y172.5
G3 X8.33 Y174.0875 I-1.5875 J0.0
G1 X1.33
G3 X-0.2575 Y172.5 I0.0 J-1.5875
G1 Y165.5
G3 X1.33 Y163.9125 I1.5875 J0.0
G1 X42.7425
G1 Y163.5875
G1 X14.33
G3 X12.7425 Y162.0 I0.0 J-1.5875
G1 Y158.5
G3 X14.33 Y156.9125 I1.5875 J0.0
G1 X15.7425
G1 Y156.5875
G1 X1.33
G3 X-0.2575 Y155.0 I0.0 J-1.5875
G1 Y147.0
G3 X1.33 Y145.4125 I1.5875 J0.0
G1 X15.7425
G1 Y145.0875
G1 X14.33
G3 X12.7425 Y143.5 I0.0 J-1.5875
G1 Y140.0
G3 X14.33 Y138.4125 I1.5875 J0.0
G1 X42.7425
G1 Y138.0875
G1 X1.33
G3 X-0.2575 Y136.5 I0.0 J-1.5875
G1 Y129.5
G3 X1.33 Y127.9125 I1.5875 J0.0
G1 X8.33
G3 X9.9175 Y129.5 I0.0 J1.5875
G1 Y131.4125
G1 X42.8434
G1 X42.8648 Y131.0875
G1 X14.33
G3 X12.7425 Y129.5 I0.0 J-1.5875
G1 Y127.0
G1 Y123.8
G1 Y1.0
G3 X14.33 Y-0.5875 I1.5875 J0.0
G1 X29.33
G3 X30.9167 Y0.9501 I0.0 J1.5875
G1 X31.073 Y5.9235
G1 X31.5366 Y10.8276
G1 X32.3072 Y15.6929
G1 X33.3817 Y20.5002
G1 X34.756 Y25.2306
G1 X36.4246 Y29.8653
G1 X38.381 Y34.3861
G1 X40.6173 Y38.7751
G1 X43.1248 Y43.0151
G1 X45.8936 Y47.0893
G1 X48.9127 Y50.9815
G1 X52.1703 Y54.6765
G1 X55.6535 Y58.1597
G1 X59.3485 Y61.4173
G1 X63.2407 Y64.4364
G1 X67.3149 Y67.2052
G1 X71.5549 Y69.7127
G1 X75.9439 Y71.949
G1 X80.4647 Y73.9054
G1 X85.0994 Y75.574
G1 X89.8298 Y76.9483
G1 X94.6371 Y78.0228
G1 X99.5024 Y78.7934
G1 X104.4065 Y79.257
G1 X109.33 Y79.4117
G1 X114.2535 Y79.257
G1 X119.1576 Y78.7934
G1 X124.0229 Y78.0228
G1 X128.8302 Y76.9483
G1 X133.5606 Y75.574
G1 X138.1953 Y73.9054
G1 X142.7161 Y71.949
G1 X147.1051 Y69.7127
G1 X151.3451 Y67.2052
G1 X155.4193 Y64.4364
G1 X159.3115 Y61.4173
G1 X163.0065 Y58.1597
G1 X166.4897 Y54.6765
G1 X169.7473 Y50.9815
G1 X172.7664 Y47.0893
G1 X175.5352 Y43.0151
G1 X178.0427 Y38.7751
G1 X180.279 Y34.3861
G1 X182.2354 Y29.8653
G1 X183.904 Y25.2306
G1 X185.2783 Y20.5002
G1 X186.3528 Y15.6929
G1 X187.1234 Y10.8276
G1 X187.587 Y5.9235
G1 F300.0 Z-4.0
G1 F800.0 X187.7433 Y0.9501
G3 X189.33 Y-0.5875 I1.5867 J0.0499
G1 X204.33
G3 X205.9175 Y1.0 I0.0 J1.5875
G1 Y26.0
G1 Y123.8
G1 Y127.0
G1 Y129.5
G3 X204.33 Y131.0875 I-1.5875 J0.0
G1 X175.9175
G1 Y131.4125
G1 X208.7425
G1 Y129.5
G3 X210.33 Y127.9125 I1.5875 J0.0
G1 X217.33
G3 X218.9175 Y129.5 I0.0 J1.5875
G1 Y136.5
G3 X217.33 Y138.0875 I-1.5875 J0.0
G1 X175.9175
G1 Y138.4125
G1 X204.33
G3 X205.9175 Y140.0 I0.0 J1.5875
G1 Y143.5
G3 X204.33 Y145.0875 I-1.5875 J0.0
G1 X202.9175
G1 Y145.4125
G1 X217.33
G3 X218.9175 Y147.0 I0.0 J1.5875
G1 Y155.0
G3 X217.33 Y156.5875 I-1.5875 J0.0
G1 X202.9175
G1 Y156.9125
G1 X204.33
G3 X205.9175 Y158.5 I0.0 J1.5875
G1 Y162.0
G3 X204.33 Y163.5875 I-1.5875 J0.0
G1 X175.9175
G1 Y163.9125
G1 X217.33
G3 X218.9175 Y165.5 I0.0 J1.5875
G1 Y172.5
G3 X217.33 Y174.0875 I-1.5875 J0.0
G1 X210.33
G3 X208.7425 Y172.5 I0.0 J-1.5875
G1 Y170.5875
G1 X175.8166
G1 X175.7952 Y170.9125
G1 X204.33
G3 X205.9175 Y172.5 I0.0 J1.5875
G1 Y389.5
G3 X204.33 Y391.0875 I-1.5875 J0.0
G1 X175.9175
G1 Y391.4125
G1 X208.7425
G1 Y389.5
G3 X210.33 Y387.9125 I1.5875 J0.0
G1 X217.33
G3 X218.9175 Y389.5 I0.0 J1.5875
G1 Y396.5
G3 X217.33 Y398.0875 I-1.5875 J0.0
G1 X175.9175
G1 Y398.4125
G1 X204.33
G3 X205.9175 Y400.0 I0.0 J1.5875
G1 Y403.5
G3 X204.33 Y405.0875 I-1.5875 J0.0
G1 X202.9175
G1 Y405.4125
G1 X217.33
G3 X218.9175 Y407.0 I0.0 J1.5875
G1 Y415.0
G3 X217.33 Y416.5875 I-1.5875 J0.0
G1 X202.9175
G1 Y416.9125
G1 X204.33
G3 X205.9175 Y418.5 I0.0 J1.5875
G1 Y422.0
G3 X204.33 Y423.5875 I-1.5875 J0.0
G1 X175.9175
G1 Y423.9125
G1 X217.33
G3 X218.9175 Y425.5 I0.0 J1.5875
G1 Y432.5
G3 X217.33 Y434.0875 I-1.5875 J0.0
G1 X210.33
G3 X208.7425 Y432.5 I0.0 J-1.5875
G1 Y430.5875
G1 X175.8166
G1 X175.7952 Y430.9125
G1 X204.33
G3 X205.9175 Y432.5 I0.0 J1.5875
G1 Y511.0
G3 X204.33 Y512.5875 I-1.5875 J0.0
G1 X14.33
G3 X12.7425 Y511.0 I0.0 J-1.5875
G1 Y432.5
G3 X14.33 Y430.9125 I1.5875 J0.0
G1 X42.7425
G1 Y430.5875
G1 X9.9175
G1 Y432.5
G3 X8.33 Y434.0875 I-1.5875 J0.0
G1 X1.33
G3 X-0.2575 Y432.5 I0.0 J-1.5875
G1 Y425.5
G3 X1.33 Y423.9125 I1.5875 J0.0
G1 X42.7425
G1 Y423.5875
G1 X14.33
G3 X12.7425 Y422.0 I0.0 J-1.5875
G1 Y418.5
G3 X14.33 Y416.9125 I1.5875 J0.0
G1 X15.7425
G1 Y416.5875
G1 X1.33
G3 X-0.2575 Y415.0 I0.0 J-1.5875
G1 Y407.0
G3 X1.33 Y405.4125 I1.5875 J0.0
G1 X15.7425
G1 Y405.0875
G1 X14.33
G3 X12.7425 Y403.5 I0.0 J-1.5875
G1 Y400.0
G3 X14.33 Y398.4125 I1.5875 J0.0
G1 X42.7425
G1 Y398.0875
G1 X1.33
G3 X-0.2575 Y396.5 I0.0 J-1.5875
G1 Y389.5
G3 X1.33 Y387.9125 I1.5875 J0.0
G1 X8.33
G3 X9.9175 Y389.5 I0.0 J1.5875
G1 Y391.4125
G1 X42.8434
G1 X42.8648 Y391.0875
G1 X14.33
G3 X12.7425 Y389.5 I0.0 J-1.5875
G1 Y172.5
G3 X14.33 Y170.9125 I1.5875 J0.0
G1 X42.7425
G1 Y170.5875
G1 X9.9175
G1 Y172.5
G3 X8.33 Y174.0875 I-1.5875 J0.0
G1 X1.33
G3 X-0.2575 Y172.5 I0.0 J-1.5875
G1 Y165.5
G3 X1.33 Y163.9125 I1.5875 J0.0
G1 X42.7425
G1 Y163.5875
G1 X14.33
G3 X12.7425 Y162.0 I0.0 J-1.5875
G1 Y158.5
G3 X14.33 Y156.9125 I1.5875 J0.0
G1 X15.7425
G1 Y156.5875
G1 X1.33
G3 X-0.2575 Y155.0 I0.0 J-1.5875
G1 Y147.0
G3 X1.33 Y145.4125 I1.5875 J0.0
G1 X15.7425
G1 Y145.0875
G1 X14.33
G3 X12.7425 Y143.5 I0.0 J-1.5875
G1 Y140.0
G3 X14.33 Y138.4125 I1.5875 J0.0
G1 X42.7425
G1 Y138.0875
G1 X1.33
G3 X-0.2575 Y136.5 I0.0 J-1.5875
G1 Y129.5
G3 X1.33 Y127.9125 I1.5875 J0.0
G1 X8.33
G3 X9.9175 Y129.5 I0.0 J1.5875
G1 Y131.4125
G1 X42.8434
G1 X42.8648 Y131.0875
G1 X14.33
G3 X12.7425 Y129.5 I0.0 J-1.5875
G1 Y127.0
G1 Y123.8
G1 Y1.0
G3 X14.33 Y-0.5875 I1.5875 J0.0
G1 X29.33
G3 X30.9167 Y0.9501 I0.0 J1.5875
G1 X31.073 Y5.9235
G1 X31.5366 Y10.8276
G1 X32.3072 Y15.6929
G1 X33.3817 Y20.5002
G1 X34.756 Y25.2306
G1 X36.4246 Y29.8653
G1 X38.381 Y34.3861
G1 X40.6173 Y38.7751
G1 X43.1248 Y43.0151
G1 X45.8936 Y47.0893
G1 X48.9127 Y50.9815
G1 X52.1703 Y54.6765
G1 X55.6535 Y58.1597
G1 X59.3485 Y61.4173
G1 X63.2407 Y64.4364
G1 X67.3149 Y67.2052
G1 X71.5549 Y69.7127
G1 X75.9439 Y71.949
G1 X80.4647 Y73.9054
G1 X85.0994 Y75.574
G1 X89.8298 Y76.9483
G1 X94.6371 Y78.0228
G1 X99.5024 Y78.7934
G1 X104.4065 Y79.257
G1 X109.33 Y79.4117
G1 X114.2535 Y79.257
G1 X119.1576 Y78.7934
G1 X124.0229 Y78.0228
G1 X128.8302 Y76.9483
G1 X133.5606 Y75.574
G1 X138.1953 Y73.9054
G1 X142.7161 Y71.949
G1 X147.1051 Y69.7127
G1 X151.3451 Y67.2052
G1 X155.4193 Y64.4364
G1 X159.3115 Y61.4173
G1 X163.0065 Y58.1597
G1 X166.4897 Y54.6765
G1 X169.7473 Y50.9815
G1 X172.7664 Y47.0893
G1 X175.5352 Y43.0151
G1 X178.0427 Y38.7751
G1 X180.279 Y34.3861
G1 X182.2354 Y29.8653
G1 X183.904 Y25.2306
G1 X185.2783 Y20.5002
G1 X186.3528 Y15.6929
G1 X187.1234 Y10.8276
G1 X187.587 Y5.9235
G1 F300.0 Z-5.0
G1 F800.0 X187.7433 Y0.9501
G3 X189.33 Y-0.5875 I1.5867 J0.0499
G1 X204.33
G3 X205.9175 Y1.0 I0.0 J1.5875
G1 Y26.0
G1 Y123.8
G1 Y127.0
G1 Y129.5
G3 X204.33 Y131.0875 I-1.5875 J0.0
G1 X175.9175
G1 Y131.4125
G1 X208.7425
G1 Y129.5
G3 X210.33 Y127.9125 I1.5875 J0.0
G1 X217.33
G3 X218.9175 Y129.5 I0.0 J1.5875
G1 Y136.5
G3 X217.33 Y138.0875 I-1.5875 J0.0
G1 X175.9175
G1 Y138.4125
G1 X204.33
G3 X205.9175 Y140.0 I0.0 J1.5875
G1 Y143.5
G3 X204.33 Y145.0875 I-1.5875 J0.0
G1 X202.9175
G1 Y145.4125
G1 X217.33
G3 X218.9175 Y147.0 I0.0 J1.5875
G1 Y155.0
G3 X217.33 Y156.5875 I-1.5875 J0.0
G1 X202.9175
G1 Y156.9125
G1 X204.33
G3 X205.9175 Y158.5 I0.0 J1.5875
G1 Y162.0
G3 X204.33 Y163.5875 I-1.5875 J0.0
G1 X175.9175
G1 Y163.9125
G1 X217.33
G3 X218.9175 Y165.5 I0.0 J1.5875
G1 Y172.5
G3 X217.33 Y174.0875 I-1.5875 J0.0
G1 X210.33
G3 X208.7425 Y172.5 I0.0 J-1.5875
G1 Y170.5875
G1 X175.8166
G1 X175.7952 Y170.9125
G1 X204.33
G3 X205.9175 Y172.5 I0.0 J1.5875
G1 Y389.5
G3 X204.33 Y391.0875 I-1.5875 J0.0
G1 X175.9175
G1 Y391.4125
G1 X208.7425
G1 Y389.5
G3 X210.33 Y387.9125 I1.5875 J0.0
G1 X217.33
G3 X218.9175 Y389.5 I0.0 J1.5875
G1 Y396.5
G3 X217.33 Y398.0875 I-1.5875 J0.0
G1 X175.9175
G1 Y398.4125
G1 X204.33
G3 X205.9175 Y400.0 I0.0 J1.5875
G1 Y403.5
G3 X204.33 Y405.0875 I-1.5875 J0.0
G1 X202.9175
G1 Y405.4125
G1 X217.33
G3 X218.9175 Y407.0 I0.0 J1.5875
G1 Y415.0
G3 X217.33 Y416.5875 I-1.5875 J0.0
G1 X202.9175
G1 Y416.9125
G1 X204.33
G3 X205.9175 Y418.5 I0.0 J1.5875
G1 Y422.0
G3 X204.33 Y423.5875 I-1.5875 J0.0
G1 X175.9175
G1 Y423.9125
G1 X217.33
G3 X218.9175 Y425.5 I0.0 J1.5875
G1 Y432.5
G3 X217.33 Y434.0875 I-1.5875 J0.0
G1 X210.33
G3 X208.7425 Y432.5 I0.0 J-1.5875
G1 Y430.5875
G1 X175.8166
G1 X175.7952 Y430.9125
G1 X204.33
G3 X205.9175 Y432.5 I0.0 J1.5875
G1 Y511.0
G3 X204.33 Y512.5875 I-1.5875 J0.0
G1 X14.33
G3 X12.7425 Y511.0 I0.0 J-1.5875
G1 Y432.5
G3 X14.33 Y430.9125 I1.5875 J0.0
G1 X42.7425
G1 Y430.5875
G1 X9.9175
G1 Y432.5
G3 X8.33 Y434.0875 I-1.5875 J0.0
G1 X1.33
G3 X-0.2575 Y432.5 I0.0 J-1.5875
G1 Y425.5
G3 X1.33 Y423.9125 I1.5875 J0.0
G1 X42.7425
G1 Y423.5875
G1 X14.33
G3 X12.7425 Y422.0 I0.0 J-1.5875
G1 Y418.5
G3 X14.33 Y416.9125 I1.5875 J0.0
G1 X15.7425
G1 Y416.5875
G1 X1.33
G3 X-0.2575 Y415.0 I0.0 J-1.5875
G1 Y407.0
G3 X1.33 Y405.4125 I1.5875 J0.0
G1 X15.7425
G1 Y405.0875
G1 X14.33
G3 X12.7425 Y403.5 I0.0 J-1.5875
G1 Y400.0
G3 X14.33 Y398.4125 I1.5875 J0.0
G1 X42.7425
G1 Y398.0875
G1 X1.33
G3 X-0.2575 Y396.5 I0.0 J-1.5875
G1 Y389.5
G3 X1.33 Y387.9125 I1.5875 J0.0
G1 X8.33
G3 X9.9175 Y389.5 I0.0 J1.5875
G1 Y391.4125
G1 X42.8434
G1 X42.8648 Y391.0875
G1 X14.33
G3 X12.7425 Y389.5 I0.0 J-1.5875
G1 Y172.5
G3 X14.33 Y170.9125 I1.5875 J0.0
G1 X42.7425
G1 Y170.5875
G1 X9.9175
G1 Y172.5
G3 X8.33 Y174.0875 I-1.5875 J0.0
G1 X1.33
G3 X-0.2575 Y172.5 I0.0 J-1.5875
G1 Y165.5
G3 X1.33 Y163.9125 I1.5875 J0.0
G1 X42.7425
G1 Y163.5875
G1 X14.33
G3 X12.7425 Y162.0 I0.0 J-1.5875
G1 Y158.5
G3 X14.33 Y156.9125 I1.5875 J0.0
G1 X15.7425
G1 Y156.5875
G1 X1.33
G3 X-0.2575 Y155.0 I0.0 J-1.5875
G1 Y147.0
G3 X1.33 Y145.4125 I1.5875 J0.0
G1 X15.7425
G1 Y145.0875
G1 X14.33
G3 X12.7425 Y143.5 I0.0 J-1.5875
G1 Y140.0
G3 X14.33 Y138.4125 I1.5875 J0.0
G1 X42.7425
G1 Y138.0875
G1 X1.33
G3 X-0.2575 Y136.5 I0.0 J-1.5875
G1 Y129.5
G3 X1.33 Y127.9125 I1.5875 J0.0
G1 X8.33
G3 X9.9175 Y129.5 I0.0 J1.5875
G1 Y131.4125
G1 X42.8434
G1 X42.8648 Y131.0875
G1 X14.33
G3 X12.7425 Y129.5 I0.0 J-1.5875
G1 Y127.0
G1 Y123.8
G1 Y1.0
G3 X14.33 Y-0.5875 I1.5875 J0.0
G1 X29.33
G3 X30.9167 Y0.9501 I0.0 J1.5875
G1 X31.073 Y5.9235
G1 X31.5366 Y10.8276
G1 X32.3072 Y15.6929
G1 X33.3817 Y20.5002
G1 X34.756 Y25.2306
G1 X36.4246 Y29.8653
G1 X38.381 Y34.3861
G1 X40.6173 Y38.7751
G1 X43.1248 Y43.0151
G1 X45.8936 Y47.0893
G1 X48.9127 Y50.9815
G1 X52.1703 Y54.6765
G1 X55.6535 Y58.1597
G1 X59.3485 Y61.4173
G1 X63.2407 Y64.4364
G1 X67.3149 Y67.2052
G1 X71.5549 Y69.7127
G1 X75.9439 Y71.949
G1 X80.4647 Y73.9054
G1 X85.0994 Y75.574
G1 X89.8298 Y76.9483
G1 X94.6371 Y78.0228
G1 X99.5024 Y78.7934
G1 X104.4065 Y79.257
G1 X109.33 Y79.4117
G1 X114.2535 Y79.257
G1 X119.1576 Y78.7934
G1 X124.0229 Y78.0228
G1 X128.8302 Y76.9483
G1 X133.5606 Y75.574
G1 X138.1953 Y73.9054
G1 X142.7161 Y71.949
G1 X147.1051 Y69.7127
G1 X151.3451 Y67.2052
G1 X155.4193 Y64.4364
G1 X159.3115 Y61.4173
G1 X163.0065 Y58.1597
G1 X166.4897 Y54.6765
G1 X169.7473 Y50.9815
G1 X172.7664 Y47.0893
G1 X175.5352 Y43.0151
G1 X178.0427 Y38.7751
G1 X180.279 Y34.3861
G1 X182.2354 Y29.8653
G1 X183.904 Y25.2306
G1 X185.2783 Y20.5002
G1 X186.3528 Y15.6929
G1 X187.1234 Y10.8276
G1 X187.587 Y5.9235
G1 F300.0 Z-6.0
G1 F800.0 X187.7433 Y0.9501
G3 X189.33 Y-0.5875 I1.5867 J0.0499
G1 X204.33
G3 X205.9175 Y1.0 I0.0 J1.5875
G1 Y26.0
G1 Y123.8
G1 Y127.0
G1 Y129.5
G3 X204.33 Y131.0875 I-1.5875 J0.0
G1 X175.9175
G1 Y131.4125
G1 X208.7425
G1 Y129.5
G3 X210.33 Y127.9125 I1.5875 J0.0
G1 X217.33
G3 X218.9175 Y129.5 I0.0 J1.5875
G1 Y136.5
G3 X217.33 Y138.0875 I-1.5875 J0.0
G1 X175.9175
G1 Y138.4125
G1 X204.33
G3 X205.9175 Y140.0 I0.0 J1.5875
G1 Y143.5
G3 X204.33 Y145.0875 I-1.5875 J0.0
G1 X202.9175
G1 Y145.4125
G1 X217.33
G3 X218.9175 Y147.0 I0.0 J1.5875
G1 Y155.0
G3 X217.33 Y156.5875 I-1.5875 J0.0
G1 X202.9175
G1 Y156.9125
G1 X204.33
G3 X205.9175 Y158.5 I0.0 J1.5875
G1 Y162.0
G3 X204.33 Y163.5875 I-1.5875 J0.0
G1 X175.9175
G1 Y163.9125
G1 X217.33
G3 X218.9175 Y165.5 I0.0 J1.5875
G1 Y172.5
G3 X217.33 Y174.0875 I-1.5875 J0.0
G1 X210.33
G3 X208.7425 Y172.5 I0.0 J-1.5875
G1 Y170.5875
G1 X175.8166
G1 X175.7952 Y170.9125
G1 X204.33
G3 X205.9175 Y172.5 I0.0 J1.5875
G1 Y389.5
G3 X204.33 Y391.0875 I-1.5875 J0.0
G1 X175.9175
G1 Y391.4125
G1 X208.7425
G1 Y389.5
G3 X210.33 Y387.9125 I1.5875 J0.0
G1 X217.33
G3 X218.9175 Y389.5 I0.0 J1.5875
G1 Y396.5
G3 X217.33 Y398.0875 I-1.5875 J0.0
G1 X175.9175
G1 Y398.4125
G1 X204.33
G3 X205.9175 Y400.0 I0.0 J1.5875
G1 Y403.5
G3 X204.33 Y405.0875 I-1.5875 J0.0
G1 X202.9175
G1 Y405.4125
G1 X217.33
G3 X218.9175 Y407.0 I0.0 J1.5875
G1 Y415.0
G3 X217.33 Y416.5875 I-1.5875 J0.0
G1 X202.9175
G1 Y416.9125
G1 X204.33
G3 X205.9175 Y418.5 I0.0 J1.5875
G1 Y422.0
G3 X204.33 Y423.5875 I-1.5875 J0.0
G1 X175.9175
G1 Y423.9125
G1 X217.33
G3 X218.9175 Y425.5 I0.0 J1.5875
G1 Y432.5
G3 X217.33 Y434.0875 I-1.5875 J0.0
G1 X210.33
G3 X208.7425 Y432.5 I0.0 J-1.5875
G1 Y430.5875
G1 X175.8166
G1 X175.7952 Y430.9125
G1 X204.33
G3 X205.9175 Y432.5 I0.0 J1.5875
G1 Y511.0
G3 X204.33 Y512.5875 I-1.5875 J0.0
G1 X14.33
G3 X12.7425 Y511.0 I0.0 J-1.5875
G1 Y432.5
G3 X14.33 Y430.9125 I1.5875 J0.0
G1 X42.7425
G1 Y430.5875
G1 X9.9175
G1 Y432.5
G3 X8.33 Y434.0875 I-1.5875 J0.0
G1 X1.33
G3 X-0.2575 Y432.5 I0.0 J-1.5875
G1 Y425.5
G3 X1.33 Y423.9125 I1.5875 J0.0
G1 X42.7425
G1 Y423.5875
G1 X14.33
G3 X12.7425 Y422.0 I0.0 J-1.5875
G1 Y418.5
G3 X14.33 Y416.9125 I1.5875 J0.0
G1 X15.7425
G1 Y416.5875
G1 X1.33
G3 X-0.2575 Y415.0 I0.0 J-1.5875
G1 Y407.0
G3 X1.33 Y405.4125 I1.5875 J0.0
G1 X15.7425
G1 Y405.0875
G1 X14.33
G3 X12.7425 Y403.5 I0.0 J-1.5875
G1 Y400.0
G3 X14.33 Y398.4125 I1.5875 J0.0
G1 X42.7425
G1 Y398.0875
G1 X1.33
G3 X-0.2575 Y396.5 I0.0 J-1.5875
G1 Y389.5
G3 X1.33 Y387.9125 I1.5875 J0.0
G1 X8.33
G3 X9.9175 Y389.5 I0.0 J1.5875
G1 Y391.4125
G1 X42.8434
G1 X42.8648 Y391.0875
G1 X14.33
G3 X12.7425 Y389.5 I0.0 J-1.5875
G1 Y172.5
G3 X14.33 Y170.9125 I1.5875 J0.0
G1 X42.7425
G1 Y170.5875
G1 X9.9175
G1 Y172.5
G3 X8.33 Y174.0875 I-1.5875 J0.0
G1 X1.33
G3 X-0.2575 Y172.5 I0.0 J-1.5875
G1 Y165.5
G3 X1.33 Y163.9125 I1.5875 J0.0
G1 X42.7425
G1 Y163.5875
G1 X14.33
G3 X12.7425 Y162.0 I0.0 J-1.5875
G1 Y158.5
G3 X14.33 Y156.9125 I1.5875 J0.0
G1 X15.7425
G1 Y156.5875
G1 X1.33
G3 X-0.2575 Y155.0 I0.0 J-1.5875
G1 Y147.0
G3 X1.33 Y145.4125 I1.5875 J0.0
G1 X15.7425
G1 Y145.0875
G1 X14.33
G3 X12.7425 Y143.5 I0.0 J-1.5875
G1 Y140.0
G3 X14.33 Y138.4125 I1.5875 J0.0
G1 X42.7425
G1 Y138.0875
G1 X1.33
G3 X-0.2575 Y136.5 I0.0 J-1.5875
G1 Y129.5
G3 X1.33 Y127.9125 I1.5875 J0.0
G1 X8.33
G3 X9.9175 Y129.5 I0.0 J1.5875
G1 Y131.4125
G1 X42.8434
G1 X42.8648 Y131.0875
G1 X14.33
G3 X12.7425 Y129.5 I0.0 J-1.5875
G1 Y127.0
G1 Y123.8
G1 Y1.0
G3 X14.33 Y-0.5875 I1.5875 J0.0
G1 X29.33
G3 X30.9167 Y0.9501 I0.0 J1.5875
G1 X31.073 Y5.9235
G1 X31.5366 Y10.8276
G1 X32.3072 Y15.6929
G1 X33.3817 Y20.5002
G1 X34.756 Y25.2306
G1 X36.4246 Y29.8653
G1 X38.381 Y34.3861
G1 X40.6173 Y38.7751
G1 X43.1248 Y43.0151
G1 X45.8936 Y47.0893
G1 X48.9127 Y50.9815
G1 X52.1703 Y54.6765
G1 X55.6535 Y58.1597
G1 X59.3485 Y61.4173
G1 X63.2407 Y64.4364
G1 X67.3149 Y67.2052
G1 X71.5549 Y69.7127
G1 X75.9439 Y71.949
G1 X80.4647 Y73.9054
G1 X85.0994 Y75.574
G1 X89.8298 Y76.9483
G1 X94.6371 Y78.0228
G1 X99.5024 Y78.7934
G1 X104.4065 Y79.257
G1 X109.33 Y79.4117
G1 X114.2535 Y79.257
G1 X119.1576 Y78.7934
G1 X124.0229 Y78.0228
G1 X128.8302 Y76.9483
G1 X133.5606 Y75.574
G1 X138.1953 Y73.9054
G1 X142.7161 Y71.949
G1 X147.1051 Y69.7127
G1 X151.3451 Y67.2052
G1 X155.4193 Y64.4364
G1 X159.3115 Y61.4173
G1 X163.0065 Y58.1597
G1 X166.4897 Y54.6765
G1 X169.7473 Y50.9815
G1 X172.7664 Y47.0893
G1 X175.5352 Y43.0151
G1 X178.0427 Y38.7751
G1 X180.279 Y34.3861
G1 X182.2354 Y29.8653
G1 X183.904 Y25.2306
G1 X185.2783 Y20.5002
G1 X186.3528 Y15.6929
G1 X187.1234 Y10.8276
G1 X187.587 Y5.9235
G0 Z3.0
M5
M30
