( Made using CamBam - http://www.cambam.co.uk )
( structure_top_center2 5/20/2016 8:12:49 PM )
( T4 : 3.175 )
G21 G90 G64 G40
G0 Z3.0
( T4 : 3.175 )
T4 M6
( Poche1 )
G17
M3 S1000
G0 X6.6976 Y122.8683
G0 Z1.0
G1 F300.0 Z-1.0
G1 F800.0 Y115.786
G1 X6.3025 Y115.944
G1 Y122.7367
G1 X6.6976 Y122.8683
G1 F300.0 X6.4967 Y123.4708
G1 F800.0 X7.3326 Y123.7494
G1 Y114.8481
G1 X5.6675 Y115.5141
G1 Y123.1943
G1 X6.4967 Y123.4708
G1 F300.0 X6.0951 Y124.6756
G1 F800.0 X8.6026 Y125.5114
G1 Y112.9723
G1 X4.3975 Y114.6543
G1 Y124.1097
G1 X6.0951 Y124.6756
G1 F300.0 X5.6935 Y125.8804
G1 F800.0 X9.8726 Y127.2734
G1 Y111.0964
G1 X3.1275 Y113.7945
G1 Y125.0251
G1 X5.6935 Y125.8804
G1 F300.0 X5.2919 Y127.0852
G1 F800.0 X11.1426 Y129.0354
G1 Y109.2206
G1 X1.8575 Y112.9346
G1 Y125.9404
G1 X5.2919 Y127.0852
G1 F300.0 X4.8903 Y128.2901
G1 F800.0 X0.5875 Y126.8558
G1 Y112.0748
G1 X12.4125 Y107.3448
G1 Y108.0
G2 Y108.0004 I1.5875 J0.0
G1 X12.4126 Y108.1907
G1 Y130.6951
G1 Y130.7975
G1 X4.8903 Y128.2901
G0 Z3.0
G0 X6.6976 Y122.8683
G0 Z0.0
G1 F300.0 Z-2.0
G1 F800.0 Y115.786
G1 X6.3025 Y115.944
G1 Y122.7367
G1 X6.6976 Y122.8683
G1 F300.0 X6.4967 Y123.4708
G1 F800.0 X7.3326 Y123.7494
G1 Y114.8481
G1 X5.6675 Y115.5141
G1 Y123.1943
G1 X6.4967 Y123.4708
G1 F300.0 X6.0951 Y124.6756
G1 F800.0 X8.6026 Y125.5114
G1 Y112.9723
G1 X4.3975 Y114.6543
G1 Y124.1097
G1 X6.0951 Y124.6756
G1 F300.0 X5.6935 Y125.8804
G1 F800.0 X9.8726 Y127.2734
G1 Y111.0964
G1 X3.1275 Y113.7945
G1 Y125.0251
G1 X5.6935 Y125.8804
G1 F300.0 X5.2919 Y127.0852
G1 F800.0 X11.1426 Y129.0354
G1 Y109.2206
G1 X1.8575 Y112.9346
G1 Y125.9404
G1 X5.2919 Y127.0852
G1 F300.0 X4.8903 Y128.2901
G1 F800.0 X0.5875 Y126.8558
G1 Y112.0748
G1 X12.4125 Y107.3448
G1 Y108.0
G2 Y108.0004 I1.5875 J0.0
G1 X12.4126 Y108.1907
G1 Y130.6951
G1 Y130.7975
G1 X4.8903 Y128.2901
G0 Z3.0
G0 X6.6976 Y122.8683
G0 Z-1.0
G1 F300.0 Z-3.0
G1 F800.0 Y115.786
G1 X6.3025 Y115.944
G1 Y122.7367
G1 X6.6976 Y122.8683
G1 F300.0 X6.4967 Y123.4708
G1 F800.0 X7.3326 Y123.7494
G1 Y114.8481
G1 X5.6675 Y115.5141
G1 Y123.1943
G1 X6.4967 Y123.4708
G1 F300.0 X6.0951 Y124.6756
G1 F800.0 X8.6026 Y125.5114
G1 Y112.9723
G1 X4.3975 Y114.6543
G1 Y124.1097
G1 X6.0951 Y124.6756
G1 F300.0 X5.6935 Y125.8804
G1 F800.0 X9.8726 Y127.2734
G1 Y111.0964
G1 X3.1275 Y113.7945
G1 Y125.0251
G1 X5.6935 Y125.8804
G1 F300.0 X5.2919 Y127.0852
G1 F800.0 X11.1426 Y129.0354
G1 Y109.2206
G1 X1.8575 Y112.9346
G1 Y125.9404
G1 X5.2919 Y127.0852
G1 F300.0 X4.8903 Y128.2901
G1 F800.0 X0.5875 Y126.8558
G1 Y112.0748
G1 X12.4125 Y107.3448
G1 Y108.0
G2 Y108.0004 I1.5875 J0.0
G1 X12.4126 Y108.1907
G1 Y130.6951
G1 Y130.7975
G1 X4.8903 Y128.2901
G0 Z3.0
G0 X7.3325 Y49.2118
G0 Z1.0
G1 F300.0 Z-1.0
G1 F800.0 Y40.7882
G1 X6.6675 Y41.1207
G1 Y48.8793
G1 X7.3325 Y49.2118
G1 F300.0 X8.6025
G1 F800.0 Y38.7333
G1 X5.3975 Y40.3358
G1 Y49.6642
G1 X8.6025 Y51.2667
G1 Y49.2118
G1 F300.0 X9.8725
G1 F800.0 Y36.6784
G1 X4.1275 Y39.5509
G1 Y50.4491
G1 X9.8725 Y53.3216
G1 Y49.2118
G1 F300.0 X11.1425
G1 F800.0 X11.1426 Y34.6235
G1 X2.8575 Y38.766
G1 Y51.234
G1 X11.1425 Y55.3765
G1 Y49.2118
G1 F300.0 X12.4125
G1 F800.0 X12.4126 Y34.1869
G1 X12.4125 Y34.0005
G3 Y34.0 I1.5875 J-0.0005
G1 Y32.5686
G1 X1.5875 Y37.9811
G1 Y52.0189
G1 X12.4125 Y57.4314
G1 X12.4126 Y56.001
G1 X12.4125 Y55.9589
G3 Y55.957 I1.5875 J-0.002
G1 Y49.2118
G0 Z3.0
G0 X7.3325
G0 Z0.0
G1 F300.0 Z-2.0
G1 F800.0 Y40.7882
G1 X6.6675 Y41.1207
G1 Y48.8793
G1 X7.3325 Y49.2118
G1 F300.0 X8.6025
G1 F800.0 Y38.7333
G1 X5.3975 Y40.3358
G1 Y49.6642
G1 X8.6025 Y51.2667
G1 Y49.2118
G1 F300.0 X9.8725
G1 F800.0 Y36.6784
G1 X4.1275 Y39.5509
G1 Y50.4491
G1 X9.8725 Y53.3216
G1 Y49.2118
G1 F300.0 X11.1425
G1 F800.0 X11.1426 Y34.6235
G1 X2.8575 Y38.766
G1 Y51.234
G1 X11.1425 Y55.3765
G1 Y49.2118
G1 F300.0 X12.4125
G1 F800.0 X12.4126 Y34.1869
G1 X12.4125 Y34.0005
G3 Y34.0 I1.5875 J-0.0005
G1 Y32.5686
G1 X1.5875 Y37.9811
G1 Y52.0189
G1 X12.4125 Y57.4314
G1 X12.4126 Y56.001
G1 X12.4125 Y55.9589
G3 Y55.957 I1.5875 J-0.002
G1 Y49.2118
G0 Z3.0
G0 X7.3325
G0 Z-1.0
G1 F300.0 Z-3.0
G1 F800.0 Y40.7882
G1 X6.6675 Y41.1207
G1 Y48.8793
G1 X7.3325 Y49.2118
G1 F300.0 X8.6025
G1 F800.0 Y38.7333
G1 X5.3975 Y40.3358
G1 Y49.6642
G1 X8.6025 Y51.2667
G1 Y49.2118
G1 F300.0 X9.8725
G1 F800.0 Y36.6784
G1 X4.1275 Y39.5509
G1 Y50.4491
G1 X9.8725 Y53.3216
G1 Y49.2118
G1 F300.0 X11.1425
G1 F800.0 X11.1426 Y34.6235
G1 X2.8575 Y38.766
G1 Y51.234
G1 X11.1425 Y55.3765
G1 Y49.2118
G1 F300.0 X12.4125
G1 F800.0 X12.4126 Y34.1869
G1 X12.4125 Y34.0005
G3 Y34.0 I1.5875 J-0.0005
G1 Y32.5686
G1 X1.5875 Y37.9811
G1 Y52.0189
G1 X12.4125 Y57.4314
G1 X12.4126 Y56.001
G1 X12.4125 Y55.9589
G3 Y55.957 I1.5875 J-0.002
G1 Y49.2118
G0 Z3.0
G0 X97.3926 Y48.3492
G0 Z1.0
G1 F300.0 Z-1.0
G1 F800.0 X98.3325 Y47.8793
G1 Y42.1207
G1 X97.3926 Y41.6508
G1 Y48.3492
G1 F300.0 X97.9605 Y49.4852
G1 F800.0 X99.6025 Y48.6642
G1 Y41.3358
G1 X96.1226 Y39.5959
G1 Y50.4041
G1 X97.9605 Y49.4852
G1 F300.0 X98.5285 Y50.6211
G1 F800.0 X100.8725 Y49.4491
G1 Y40.5509
G1 X94.8526 Y37.541
G1 Y52.459
G1 X98.5285 Y50.6211
G1 F300.0 X99.0964 Y51.757
G1 F800.0 X102.1425 Y50.234
G1 Y39.766
G1 X93.5826 Y35.4861
G1 Y54.5139
G1 X99.0964 Y51.757
G1 F300.0 X99.6644 Y52.8929
G1 F800.0 X103.4125 Y51.0189
G1 Y38.9811
G1 X92.3807 Y33.4652
G1 X92.3126 Y34.255
G1 Y55.8854
G1 X92.3716 Y56.5393
G1 X99.6644 Y52.8929
G0 Z3.0
G0 X97.3926 Y48.3492
G0 Z0.0
G1 F300.0 Z-2.0
G1 F800.0 X98.3325 Y47.8793
G1 Y42.1207
G1 X97.3926 Y41.6508
G1 Y48.3492
G1 F300.0 X97.9605 Y49.4852
G1 F800.0 X99.6025 Y48.6642
G1 Y41.3358
G1 X96.1226 Y39.5959
G1 Y50.4041
G1 X97.9605 Y49.4852
G1 F300.0 X98.5285 Y50.6211
G1 F800.0 X100.8725 Y49.4491
G1 Y40.5509
G1 X94.8526 Y37.541
G1 Y52.459
G1 X98.5285 Y50.6211
G1 F300.0 X99.0964 Y51.757
G1 F800.0 X102.1425 Y50.234
G1 Y39.766
G1 X93.5826 Y35.4861
G1 Y54.5139
G1 X99.0964 Y51.757
G1 F300.0 X99.6644 Y52.8929
G1 F800.0 X103.4125 Y51.0189
G1 Y38.9811
G1 X92.3807 Y33.4652
G1 X92.3126 Y34.255
G1 Y55.8854
G1 X92.3716 Y56.5393
G1 X99.6644 Y52.8929
G0 Z3.0
G0 X97.3926 Y48.3492
G0 Z-1.0
G1 F300.0 Z-3.0
G1 F800.0 X98.3325 Y47.8793
G1 Y42.1207
G1 X97.3926 Y41.6508
G1 Y48.3492
G1 F300.0 X97.9605 Y49.4852
G1 F800.0 X99.6025 Y48.6642
G1 Y41.3358
G1 X96.1226 Y39.5959
G1 Y50.4041
G1 X97.9605 Y49.4852
G1 F300.0 X98.5285 Y50.6211
G1 F800.0 X100.8725 Y49.4491
G1 Y40.5509
G1 X94.8526 Y37.541
G1 Y52.459
G1 X98.5285 Y50.6211
G1 F300.0 X99.0964 Y51.757
G1 F800.0 X102.1425 Y50.234
G1 Y39.766
G1 X93.5826 Y35.4861
G1 Y54.5139
G1 X99.0964 Y51.757
G1 F300.0 X99.6644 Y52.8929
G1 F800.0 X103.4125 Y51.0189
G1 Y38.9811
G1 X92.3807 Y33.4652
G1 X92.3126 Y34.255
G1 Y55.8854
G1 X92.3716 Y56.5393
G1 X99.6644 Y52.8929
G0 Z3.0
G0 X96.7576 Y114.3014
G0 Z1.0
G1 F300.0 Z-1.0
G1 F800.0 Y124.0483
G1 X97.9675 Y123.3968
G1 Y114.8598
G1 X96.7576 Y114.3014
G1 F300.0 X96.1226
G1 F800.0 Y125.1115
G1 X98.6025 Y123.7761
G1 Y114.4535
G1 X96.1226 Y113.3089
G1 Y114.3014
G1 F300.0 X94.8526
G1 F800.0 Y127.2377
G1 X99.8725 Y124.5347
G1 Y113.6409
G1 X94.8526 Y111.324
G1 Y114.3014
G1 F300.0 X93.5826
G1 F800.0 Y129.364
G1 X101.1425 Y125.2932
G1 Y112.8283
G1 X93.5826 Y109.3391
G1 Y114.3014
G1 F300.0 X92.3126
G1 F800.0 Y129.9068
G1 X92.4165 Y131.4342
G1 X102.4125 Y126.0518
G1 Y112.0157
G1 X92.3875 Y107.3888
G1 X92.3126 Y108.2587
G1 Y114.3014
G0 Z3.0
G0 X96.7576
G0 Z0.0
G1 F300.0 Z-2.0
G1 F800.0 Y124.0483
G1 X97.9675 Y123.3968
G1 Y114.8598
G1 X96.7576 Y114.3014
G1 F300.0 X96.1226
G1 F800.0 Y125.1115
G1 X98.6025 Y123.7761
G1 Y114.4535
G1 X96.1226 Y113.3089
G1 Y114.3014
G1 F300.0 X94.8526
G1 F800.0 Y127.2377
G1 X99.8725 Y124.5347
G1 Y113.6409
G1 X94.8526 Y111.324
G1 Y114.3014
G1 F300.0 X93.5826
G1 F800.0 Y129.364
G1 X101.1425 Y125.2932
G1 Y112.8283
G1 X93.5826 Y109.3391
G1 Y114.3014
G1 F300.0 X92.3126
G1 F800.0 Y129.9068
G1 X92.4165 Y131.4342
G1 X102.4125 Y126.0518
G1 Y112.0157
G1 X92.3875 Y107.3888
G1 X92.3126 Y108.2587
G1 Y114.3014
G0 Z3.0
G0 X96.7576
G0 Z-1.0
G1 F300.0 Z-3.0
G1 F800.0 Y124.0483
G1 X97.9675 Y123.3968
G1 Y114.8598
G1 X96.7576 Y114.3014
G1 F300.0 X96.1226
G1 F800.0 Y125.1115
G1 X98.6025 Y123.7761
G1 Y114.4535
G1 X96.1226 Y113.3089
G1 Y114.3014
G1 F300.0 X94.8526
G1 F800.0 Y127.2377
G1 X99.8725 Y124.5347
G1 Y113.6409
G1 X94.8526 Y111.324
G1 Y114.3014
G1 F300.0 X93.5826
G1 F800.0 Y129.364
G1 X101.1425 Y125.2932
G1 Y112.8283
G1 X93.5826 Y109.3391
G1 Y114.3014
G1 F300.0 X92.3126
G1 F800.0 Y129.9068
G1 X92.4165 Y131.4342
G1 X102.4125 Y126.0518
G1 Y112.0157
G1 X92.3875 Y107.3888
G1 X92.3126 Y108.2587
G1 Y114.3014
( Contour1 )
S1000
G0 Z3.0
G0 X53.8486 Y107.7713
G0 Z1.0
G1 F300.0 Z-1.0
G1 F800.0 X51.6585 Y107.6683
G1 X49.5163 Y108.1357
G1 X47.5682 Y109.1416
G1 X45.9467 Y110.6175
G1 X44.7625 Y112.4627
G1 X44.0963 Y114.5515
G1 X43.9933 Y116.7417
G1 X44.4607 Y118.8838
G1 X45.4666 Y120.8319
G1 X46.9425 Y122.4534
G1 X48.7877 Y123.6376
G1 X50.8765 Y124.3039
G1 X53.0666 Y124.4068
G1 X55.2088 Y123.9394
G1 X57.1569 Y122.9335
G1 X58.7784 Y121.4576
G1 X59.9626 Y119.6124
G1 X60.6288 Y117.5236
G1 X60.7318 Y115.3335
G1 X60.2644 Y113.1913
G1 X59.2585 Y111.2432
G1 X57.7826 Y109.6217
G1 X55.9374 Y108.4375
G1 X53.8486 Y107.7713
G1 F300.0 Z-2.0
G1 F800.0 X51.6585 Y107.6683
G1 X49.5163 Y108.1357
G1 X47.5682 Y109.1416
G1 X45.9467 Y110.6175
G1 X44.7625 Y112.4627
G1 X44.0963 Y114.5515
G1 X43.9933 Y116.7417
G1 X44.4607 Y118.8838
G1 X45.4666 Y120.8319
G1 X46.9425 Y122.4534
G1 X48.7877 Y123.6376
G1 X50.8765 Y124.3039
G1 X53.0666 Y124.4068
G1 X55.2088 Y123.9394
G1 X57.1569 Y122.9335
G1 X58.7784 Y121.4576
G1 X59.9626 Y119.6124
G1 X60.6288 Y117.5236
G1 X60.7318 Y115.3335
G1 X60.2644 Y113.1913
G1 X59.2585 Y111.2432
G1 X57.7826 Y109.6217
G1 X55.9374 Y108.4375
G1 X53.8486 Y107.7713
G1 F300.0 Z-3.0
G1 F800.0 X51.6585 Y107.6683
G1 X49.5163 Y108.1357
G1 X47.5682 Y109.1416
G1 X45.9467 Y110.6175
G1 X44.7625 Y112.4627
G1 X44.0963 Y114.5515
G1 X43.9933 Y116.7417
G1 X44.4607 Y118.8838
G1 X45.4666 Y120.8319
G1 X46.9425 Y122.4534
G1 X48.7877 Y123.6376
G1 X50.8765 Y124.3039
G1 X53.0666 Y124.4068
G1 X55.2088 Y123.9394
G1 X57.1569 Y122.9335
G1 X58.7784 Y121.4576
G1 X59.9626 Y119.6124
G1 X60.6288 Y117.5236
G1 X60.7318 Y115.3335
G1 X60.2644 Y113.1913
G1 X59.2585 Y111.2432
G1 X57.7826 Y109.6217
G1 X55.9374 Y108.4375
G1 X53.8486 Y107.7713
G1 F300.0 Z-4.0
G1 F800.0 X51.6585 Y107.6683
G1 X49.5163 Y108.1357
G1 X47.5682 Y109.1416
G1 X45.9467 Y110.6175
G1 X44.7625 Y112.4627
G1 X44.0963 Y114.5515
G1 X43.9933 Y116.7417
G1 X44.4607 Y118.8838
G1 X45.4666 Y120.8319
G1 X46.9425 Y122.4534
G1 X48.7877 Y123.6376
G1 X50.8765 Y124.3039
G1 X53.0666 Y124.4068
G1 X55.2088 Y123.9394
G1 X57.1569 Y122.9335
G1 X58.7784 Y121.4576
G1 X59.9626 Y119.6124
G1 X60.6288 Y117.5236
G1 X60.7318 Y115.3335
G1 X60.2644 Y113.1913
G1 X59.2585 Y111.2432
G1 X57.7826 Y109.6217
G1 X55.9374 Y108.4375
G1 X53.8486 Y107.7713
G1 F300.0 Z-5.0
G1 F800.0 X51.6585 Y107.6683
G1 X49.5163 Y108.1357
G1 X47.5682 Y109.1416
G1 X45.9467 Y110.6175
G1 X44.7625 Y112.4627
G1 X44.0963 Y114.5515
G1 X43.9933 Y116.7417
G1 X44.4607 Y118.8838
G1 X45.4666 Y120.8319
G1 X46.9425 Y122.4534
G1 X48.7877 Y123.6376
G1 X50.8765 Y124.3039
G1 X53.0666 Y124.4068
G1 X55.2088 Y123.9394
G1 X57.1569 Y122.9335
G1 X58.7784 Y121.4576
G1 X59.9626 Y119.6124
G1 X60.6288 Y117.5236
G1 X60.7318 Y115.3335
G1 X60.2644 Y113.1913
G1 X59.2585 Y111.2432
G1 X57.7826 Y109.6217
G1 X55.9374 Y108.4375
G1 X53.8486 Y107.7713
G1 F300.0 Z-6.0
G1 F800.0 X51.6585 Y107.6683
G1 X49.5163 Y108.1357
G1 X47.5682 Y109.1416
G1 X45.9467 Y110.6175
G1 X44.7625 Y112.4627
G1 X44.0963 Y114.5515
G1 X43.9933 Y116.7417
G1 X44.4607 Y118.8838
G1 X45.4666 Y120.8319
G1 X46.9425 Y122.4534
G1 X48.7877 Y123.6376
G1 X50.8765 Y124.3039
G1 X53.0666 Y124.4068
G1 X55.2088 Y123.9394
G1 X57.1569 Y122.9335
G1 X58.7784 Y121.4576
G1 X59.9626 Y119.6124
G1 X60.6288 Y117.5236
G1 X60.7318 Y115.3335
G1 X60.2644 Y113.1913
G1 X59.2585 Y111.2432
G1 X57.7826 Y109.6217
G1 X55.9374 Y108.4375
G1 X53.8486 Y107.7713
G0 Z3.0
G0 X52.3626 Y56.1023
G0 Z1.0
G1 F300.0 Z-1.0
G1 F800.0 X54.5363 Y55.8161
G1 X56.562 Y54.9771
G1 X58.3014 Y53.6424
G1 X59.6361 Y51.9029
G1 X60.4752 Y49.8773
G1 X60.7614 Y47.7035
G1 X60.4752 Y45.5298
G1 X59.6361 Y43.5041
G1 X58.3014 Y41.7647
G1 X56.562 Y40.43
G1 X54.5363 Y39.5909
G1 X52.3626 Y39.3047
G1 X50.1888 Y39.5909
G1 X48.1632 Y40.43
G1 X46.4237 Y41.7647
G1 X45.089 Y43.5041
G1 X44.2499 Y45.5298
G1 X43.9638 Y47.7035
G1 X44.2499 Y49.8773
G1 X45.089 Y51.9029
G1 X46.4237 Y53.6424
G1 X48.1632 Y54.9771
G1 X50.1888 Y55.8161
G1 X52.3626 Y56.1023
G1 F300.0 Z-2.0
G1 F800.0 X54.5363 Y55.8161
G1 X56.562 Y54.9771
G1 X58.3014 Y53.6424
G1 X59.6361 Y51.9029
G1 X60.4752 Y49.8773
G1 X60.7614 Y47.7035
G1 X60.4752 Y45.5298
G1 X59.6361 Y43.5041
G1 X58.3014 Y41.7647
G1 X56.562 Y40.43
G1 X54.5363 Y39.5909
G1 X52.3626 Y39.3047
G1 X50.1888 Y39.5909
G1 X48.1632 Y40.43
G1 X46.4237 Y41.7647
G1 X45.089 Y43.5041
G1 X44.2499 Y45.5298
G1 X43.9638 Y47.7035
G1 X44.2499 Y49.8773
G1 X45.089 Y51.9029
G1 X46.4237 Y53.6424
G1 X48.1632 Y54.9771
G1 X50.1888 Y55.8161
G1 X52.3626 Y56.1023
G1 F300.0 Z-3.0
G1 F800.0 X54.5363 Y55.8161
G1 X56.562 Y54.9771
G1 X58.3014 Y53.6424
G1 X59.6361 Y51.9029
G1 X60.4752 Y49.8773
G1 X60.7614 Y47.7035
G1 X60.4752 Y45.5298
G1 X59.6361 Y43.5041
G1 X58.3014 Y41.7647
G1 X56.562 Y40.43
G1 X54.5363 Y39.5909
G1 X52.3626 Y39.3047
G1 X50.1888 Y39.5909
G1 X48.1632 Y40.43
G1 X46.4237 Y41.7647
G1 X45.089 Y43.5041
G1 X44.2499 Y45.5298
G1 X43.9638 Y47.7035
G1 X44.2499 Y49.8773
G1 X45.089 Y51.9029
G1 X46.4237 Y53.6424
G1 X48.1632 Y54.9771
G1 X50.1888 Y55.8161
G1 X52.3626 Y56.1023
G1 F300.0 Z-4.0
G1 F800.0 X54.5363 Y55.8161
G1 X56.562 Y54.9771
G1 X58.3014 Y53.6424
G1 X59.6361 Y51.9029
G1 X60.4752 Y49.8773
G1 X60.7614 Y47.7035
G1 X60.4752 Y45.5298
G1 X59.6361 Y43.5041
G1 X58.3014 Y41.7647
G1 X56.562 Y40.43
G1 X54.5363 Y39.5909
G1 X52.3626 Y39.3047
G1 X50.1888 Y39.5909
G1 X48.1632 Y40.43
G1 X46.4237 Y41.7647
G1 X45.089 Y43.5041
G1 X44.2499 Y45.5298
G1 X43.9638 Y47.7035
G1 X44.2499 Y49.8773
G1 X45.089 Y51.9029
G1 X46.4237 Y53.6424
G1 X48.1632 Y54.9771
G1 X50.1888 Y55.8161
G1 X52.3626 Y56.1023
G1 F300.0 Z-5.0
G1 F800.0 X54.5363 Y55.8161
G1 X56.562 Y54.9771
G1 X58.3014 Y53.6424
G1 X59.6361 Y51.9029
G1 X60.4752 Y49.8773
G1 X60.7614 Y47.7035
G1 X60.4752 Y45.5298
G1 X59.6361 Y43.5041
G1 X58.3014 Y41.7647
G1 X56.562 Y40.43
G1 X54.5363 Y39.5909
G1 X52.3626 Y39.3047
G1 X50.1888 Y39.5909
G1 X48.1632 Y40.43
G1 X46.4237 Y41.7647
G1 X45.089 Y43.5041
G1 X44.2499 Y45.5298
G1 X43.9638 Y47.7035
G1 X44.2499 Y49.8773
G1 X45.089 Y51.9029
G1 X46.4237 Y53.6424
G1 X48.1632 Y54.9771
G1 X50.1888 Y55.8161
G1 X52.3626 Y56.1023
G1 F300.0 Z-6.0
G1 F800.0 X54.5363 Y55.8161
G1 X56.562 Y54.9771
G1 X58.3014 Y53.6424
G1 X59.6361 Y51.9029
G1 X60.4752 Y49.8773
G1 X60.7614 Y47.7035
G1 X60.4752 Y45.5298
G1 X59.6361 Y43.5041
G1 X58.3014 Y41.7647
G1 X56.562 Y40.43
G1 X54.5363 Y39.5909
G1 X52.3626 Y39.3047
G1 X50.1888 Y39.5909
G1 X48.1632 Y40.43
G1 X46.4237 Y41.7647
G1 X45.089 Y43.5041
G1 X44.2499 Y45.5298
G1 X43.9638 Y47.7035
G1 X44.2499 Y49.8773
G1 X45.089 Y51.9029
G1 X46.4237 Y53.6424
G1 X48.1632 Y54.9771
G1 X50.1888 Y55.8161
G1 X52.3626 Y56.1023
( Contour2 )
S1000
G0 Z3.0
G0 X6.3758 Y126.3417
G0 Z1.0
G1 F300.0 Z-1.0
G1 F800.0 X5.0325 Y125.7796
G3 X4.6727 Y125.5699 I0.6127 J-1.4645
G1 X3.5191 Y124.6758
G3 X3.2275 Y124.3814 I0.9725 J-1.2547
G1 X2.3424 Y123.2161
G3 X2.1377 Y122.8582 I1.2641 J-0.9603
G1 X1.5812 Y121.5012
G3 X1.4759 Y121.1041 I1.4688 J-0.6023
G1 X1.2861 Y119.6479
G3 Y119.2376 I1.5742 J-0.2052
G1 X1.4759 Y117.7814
G3 X1.5812 Y117.3843 I1.5742 J0.2052
G1 X2.1377 Y116.0274
G3 X2.3424 Y115.6694 I1.4688 J0.6023
G1 X3.2275 Y114.5042
G3 X3.5191 Y114.2097 I1.2641 J0.9603
G1 X4.6727 Y113.3156
G3 X5.0325 Y113.1059 I0.9725 J1.2547
G1 X6.3758 Y112.5438
G3 X6.7793 Y112.4347 I0.6127 J1.4645
G1 X8.2209 Y112.2429
G3 X8.3253 Y112.2326 I0.2093 J1.5736
G1 X8.9475 Y112.1914
G1 X9.4561 Y112.0892
G1 X9.9476 Y111.9206
G1 X10.4137 Y111.6885
G1 X10.8463 Y111.3965
G1 X11.2381 Y111.0494
G1 X11.5823 Y110.653
G1 X11.8727 Y110.214
G1 X12.1042 Y109.7398
G1 X12.2726 Y109.2387
G1 X12.3749 Y108.7192
G1 X12.4126 Y108.139
G1 Y56.6913
G1 Y56.343
G3 X12.3948 Y56.2637 I1.5398 J-0.386
G1 X12.2726 Y55.6431
G1 X12.1042 Y55.1419
G1 X11.8727 Y54.6678
G1 X11.5823 Y54.2287
G1 X11.2381 Y53.8324
G1 X10.8463 Y53.4853
G1 X10.4137 Y53.1933
G1 X9.9476 Y52.9611
G1 X9.4561 Y52.7926
G1 X8.9475 Y52.6904
G1 X8.3253 Y52.6492
G3 X8.2209 Y52.6388 I0.1049 J-1.584
G1 X6.7793 Y52.4471
G3 X6.3758 Y52.338 I0.2093 J-1.5736
G1 X5.0325 Y51.7759
G3 X4.6727 Y51.5662 I0.6127 J-1.4645
G1 X3.5191 Y50.672
G3 X3.2275 Y50.3776 I0.9725 J-1.2547
G1 X2.3424 Y49.2124
G3 X2.1377 Y48.8544 I1.2641 J-0.9603
G1 X1.5812 Y47.4975
G3 X1.4759 Y47.1003 I1.4688 J-0.6023
G1 X1.2861 Y45.6442
G3 Y45.2338 I1.5742 J-0.2052
G1 X1.4759 Y43.7777
G3 X1.5812 Y43.3805 I1.5742 J0.2052
G1 X2.1377 Y42.0236
G3 X2.3424 Y41.6656 I1.4688 J0.6023
G1 X3.2275 Y40.5004
G3 X3.5191 Y40.206 I1.2641 J0.9603
G1 X4.6727 Y39.3119
G3 X5.0325 Y39.1021 I0.9725 J1.2547
G1 X6.3758 Y38.5401
G3 X6.7793 Y38.4309 I0.6127 J1.4645
G1 X8.2209 Y38.2392
G3 X8.3253 Y38.2288 I0.2093 J1.5736
G1 X8.9475 Y38.1876
G1 X9.4561 Y38.0854
G1 X9.9476 Y37.9169
G1 X10.4137 Y37.6847
G1 X10.8463 Y37.3927
G1 X11.2381 Y37.0457
G1 X11.5823 Y36.6493
G1 X11.8727 Y36.2103
G1 X12.1042 Y35.7361
G1 X12.2726 Y35.2349
G1 X12.3749 Y34.7154
G1 X12.4126 Y34.1352
G1 Y0.3507
G3 X14.0001 Y-1.2368 I1.5875 J0.0
G1 X90.7251
G3 X92.3126 Y0.3507 I0.0 J1.5875
G1 Y33.4523
G1 Y33.8007
G3 X92.3303 Y33.88 I-1.5398 J0.386
G1 X92.4525 Y34.5006
G1 X92.6209 Y35.0017
G1 X92.8524 Y35.4759
G1 X93.1428 Y35.9149
G1 X93.487 Y36.3113
G1 X93.8788 Y36.6584
G1 X94.3114 Y36.9504
G1 X94.7775 Y37.1825
G1 X95.269 Y37.3511
G1 X95.7776 Y37.4533
G1 X96.3998 Y37.4945
G3 X96.5042 Y37.5048 I-0.1049 J1.584
G1 X97.9458 Y37.6965
G3 X98.3493 Y37.8057 I-0.2093 J1.5736
G1 X99.6926 Y38.3678
G3 X100.0524 Y38.5775 I-0.6127 J1.4645
G1 X101.206 Y39.4716
G3 X101.4976 Y39.7661 I-0.9725 J1.2547
G1 X102.3828 Y40.9313
G3 X102.5874 Y41.2893 I-1.2641 J0.9603
G1 X103.1439 Y42.6462
G3 X103.2493 Y43.0433 I-1.4688 J0.6023
G1 X103.439 Y44.4995
G3 Y44.9098 I-1.5742 J0.2052
G1 X103.2493 Y46.366
G3 X103.1439 Y46.7631 I-1.5742 J-0.2052
G1 X102.5874 Y48.12
G3 X102.3828 Y48.478 I-1.4688 J-0.6023
G1 X101.4976 Y49.6432
G3 X101.206 Y49.9377 I-1.2641 J-0.9603
G1 X100.0524 Y50.8318
G3 X99.6926 Y51.0415 I-0.9725 J-1.2547
G1 X98.3493 Y51.6036
G3 X97.9458 Y51.7128 I-0.6127 J-1.4645
G1 X96.5042 Y51.9045
G3 X96.3998 Y51.9148 I-0.2093 J-1.5736
G1 X95.7776 Y51.956
G1 X95.269 Y52.0582
G1 X94.7775 Y52.2268
G1 X94.3114 Y52.4589
G1 X93.8788 Y52.7509
G1 X93.487 Y53.098
G1 X93.1428 Y53.4944
G1 X92.8524 Y53.9334
G1 X92.6209 Y54.4076
G1 X92.4525 Y54.9088
G1 X92.3502 Y55.4282
G1 X92.3126 Y56.0084
G1 Y107.4561
G1 Y107.8044
G3 X92.3303 Y107.8837 I-1.5398 J0.386
G1 X92.4525 Y108.5043
G1 X92.6209 Y109.0055
G1 X92.8524 Y109.4797
G1 X93.1428 Y109.9187
G1 X93.487 Y110.315
G1 X93.8788 Y110.6621
G1 X94.3114 Y110.9541
G1 X94.7775 Y111.1863
G1 X95.269 Y111.3548
G1 X95.7776 Y111.457
G1 X96.3998 Y111.4982
G3 X96.5042 Y111.5086 I-0.1049 J1.584
G1 X97.9458 Y111.7003
G3 X98.3493 Y111.8095 I-0.2093 J1.5736
G1 X99.6926 Y112.3715
G3 X100.0524 Y112.5813 I-0.6127 J1.4645
G1 X101.206 Y113.4754
G3 X101.4976 Y113.7698 I-0.9725 J1.2547
G1 X102.3828 Y114.935
G3 X102.5874 Y115.293 I-1.2641 J0.9603
G1 X103.1439 Y116.6499
G3 X103.2493 Y117.0471 I-1.4688 J0.6023
G1 X103.439 Y118.5032
G3 Y118.9136 I-1.5742 J0.2052
G1 X103.2493 Y120.3697
G3 X103.1439 Y120.7669 I-1.5742 J-0.2052
G1 X102.5874 Y122.1238
G3 X102.3828 Y122.4818 I-1.4688 J-0.6023
G1 X101.4976 Y123.647
G3 X101.206 Y123.9414 I-1.2641 J-0.9603
G1 X100.0524 Y124.8355
G3 X99.6926 Y125.0453 I-0.9725 J-1.2547
G1 X98.3493 Y125.6073
G3 X97.9458 Y125.7165 I-0.6127 J-1.4645
G1 X96.5042 Y125.9082
G3 X96.3998 Y125.9186 I-0.2093 J-1.5736
G1 X95.7776 Y125.9598
G1 X95.269 Y126.062
G1 X94.7775 Y126.2305
G1 X94.3114 Y126.4627
G1 X93.8788 Y126.7547
G1 X93.487 Y127.1017
G1 X93.1428 Y127.4981
G1 X92.8524 Y127.9371
G1 X92.6209 Y128.4113
G1 X92.4525 Y128.9125
G1 X92.3502 Y129.432
G1 X92.3126 Y130.0122
G1 Y162.3507
G3 X90.7251 Y163.9382 I-1.5875 J0.0
G1 X14.0001
G3 X12.4126 Y162.3507 I0.0 J-1.5875
G1 Y130.7465
G1 X12.3749 Y130.1663
G1 X12.2726 Y129.6469
G1 X12.1042 Y129.1457
G1 X11.8727 Y128.6715
G1 X11.5823 Y128.2325
G1 X11.2381 Y127.8361
G1 X10.8463 Y127.489
G1 X10.4137 Y127.197
G1 X9.9476 Y126.9649
G1 X9.4561 Y126.7964
G1 X8.9475 Y126.6941
G1 X8.3253 Y126.653
G3 X8.2209 Y126.6426 I0.1049 J-1.584
G1 X6.7793 Y126.4509
G3 X6.3758 Y126.3417 I0.2093 J-1.5736
G1 F300.0 Z-2.0
G1 F800.0 X5.0325 Y125.7796
G3 X4.6727 Y125.5699 I0.6127 J-1.4645
G1 X3.5191 Y124.6758
G3 X3.2275 Y124.3814 I0.9725 J-1.2547
G1 X2.3424 Y123.2161
G3 X2.1377 Y122.8582 I1.2641 J-0.9603
G1 X1.5812 Y121.5012
G3 X1.4759 Y121.1041 I1.4688 J-0.6023
G1 X1.2861 Y119.6479
G3 Y119.2376 I1.5742 J-0.2052
G1 X1.4759 Y117.7814
G3 X1.5812 Y117.3843 I1.5742 J0.2052
G1 X2.1377 Y116.0274
G3 X2.3424 Y115.6694 I1.4688 J0.6023
G1 X3.2275 Y114.5042
G3 X3.5191 Y114.2097 I1.2641 J0.9603
G1 X4.6727 Y113.3156
G3 X5.0325 Y113.1059 I0.9725 J1.2547
G1 X6.3758 Y112.5438
G3 X6.7793 Y112.4347 I0.6127 J1.4645
G1 X8.2209 Y112.2429
G3 X8.3253 Y112.2326 I0.2093 J1.5736
G1 X8.9475 Y112.1914
G1 X9.4561 Y112.0892
G1 X9.9476 Y111.9206
G1 X10.4137 Y111.6885
G1 X10.8463 Y111.3965
G1 X11.2381 Y111.0494
G1 X11.5823 Y110.653
G1 X11.8727 Y110.214
G1 X12.1042 Y109.7398
G1 X12.2726 Y109.2387
G1 X12.3749 Y108.7192
G1 X12.4126 Y108.139
G1 Y56.6913
G1 Y56.343
G3 X12.3948 Y56.2637 I1.5398 J-0.386
G1 X12.2726 Y55.6431
G1 X12.1042 Y55.1419
G1 X11.8727 Y54.6678
G1 X11.5823 Y54.2287
G1 X11.2381 Y53.8324
G1 X10.8463 Y53.4853
G1 X10.4137 Y53.1933
G1 X9.9476 Y52.9611
G1 X9.4561 Y52.7926
G1 X8.9475 Y52.6904
G1 X8.3253 Y52.6492
G3 X8.2209 Y52.6388 I0.1049 J-1.584
G1 X6.7793 Y52.4471
G3 X6.3758 Y52.338 I0.2093 J-1.5736
G1 X5.0325 Y51.7759
G3 X4.6727 Y51.5662 I0.6127 J-1.4645
G1 X3.5191 Y50.672
G3 X3.2275 Y50.3776 I0.9725 J-1.2547
G1 X2.3424 Y49.2124
G3 X2.1377 Y48.8544 I1.2641 J-0.9603
G1 X1.5812 Y47.4975
G3 X1.4759 Y47.1003 I1.4688 J-0.6023
G1 X1.2861 Y45.6442
G3 Y45.2338 I1.5742 J-0.2052
G1 X1.4759 Y43.7777
G3 X1.5812 Y43.3805 I1.5742 J0.2052
G1 X2.1377 Y42.0236
G3 X2.3424 Y41.6656 I1.4688 J0.6023
G1 X3.2275 Y40.5004
G3 X3.5191 Y40.206 I1.2641 J0.9603
G1 X4.6727 Y39.3119
G3 X5.0325 Y39.1021 I0.9725 J1.2547
G1 X6.3758 Y38.5401
G3 X6.7793 Y38.4309 I0.6127 J1.4645
G1 X8.2209 Y38.2392
G3 X8.3253 Y38.2288 I0.2093 J1.5736
G1 X8.9475 Y38.1876
G1 X9.4561 Y38.0854
G1 X9.9476 Y37.9169
G1 X10.4137 Y37.6847
G1 X10.8463 Y37.3927
G1 X11.2381 Y37.0457
G1 X11.5823 Y36.6493
G1 X11.8727 Y36.2103
G1 X12.1042 Y35.7361
G1 X12.2726 Y35.2349
G1 X12.3749 Y34.7154
G1 X12.4126 Y34.1352
G1 Y0.3507
G3 X14.0001 Y-1.2368 I1.5875 J0.0
G1 X90.7251
G3 X92.3126 Y0.3507 I0.0 J1.5875
G1 Y33.4523
G1 Y33.8007
G3 X92.3303 Y33.88 I-1.5398 J0.386
G1 X92.4525 Y34.5006
G1 X92.6209 Y35.0017
G1 X92.8524 Y35.4759
G1 X93.1428 Y35.9149
G1 X93.487 Y36.3113
G1 X93.8788 Y36.6584
G1 X94.3114 Y36.9504
G1 X94.7775 Y37.1825
G1 X95.269 Y37.3511
G1 X95.7776 Y37.4533
G1 X96.3998 Y37.4945
G3 X96.5042 Y37.5048 I-0.1049 J1.584
G1 X97.9458 Y37.6965
G3 X98.3493 Y37.8057 I-0.2093 J1.5736
G1 X99.6926 Y38.3678
G3 X100.0524 Y38.5775 I-0.6127 J1.4645
G1 X101.206 Y39.4716
G3 X101.4976 Y39.7661 I-0.9725 J1.2547
G1 X102.3828 Y40.9313
G3 X102.5874 Y41.2893 I-1.2641 J0.9603
G1 X103.1439 Y42.6462
G3 X103.2493 Y43.0433 I-1.4688 J0.6023
G1 X103.439 Y44.4995
G3 Y44.9098 I-1.5742 J0.2052
G1 X103.2493 Y46.366
G3 X103.1439 Y46.7631 I-1.5742 J-0.2052
G1 X102.5874 Y48.12
G3 X102.3828 Y48.478 I-1.4688 J-0.6023
G1 X101.4976 Y49.6432
G3 X101.206 Y49.9377 I-1.2641 J-0.9603
G1 X100.0524 Y50.8318
G3 X99.6926 Y51.0415 I-0.9725 J-1.2547
G1 X98.3493 Y51.6036
G3 X97.9458 Y51.7128 I-0.6127 J-1.4645
G1 X96.5042 Y51.9045
G3 X96.3998 Y51.9148 I-0.2093 J-1.5736
G1 X95.7776 Y51.956
G1 X95.269 Y52.0582
G1 X94.7775 Y52.2268
G1 X94.3114 Y52.4589
G1 X93.8788 Y52.7509
G1 X93.487 Y53.098
G1 X93.1428 Y53.4944
G1 X92.8524 Y53.9334
G1 X92.6209 Y54.4076
G1 X92.4525 Y54.9088
G1 X92.3502 Y55.4282
G1 X92.3126 Y56.0084
G1 Y107.4561
G1 Y107.8044
G3 X92.3303 Y107.8837 I-1.5398 J0.386
G1 X92.4525 Y108.5043
G1 X92.6209 Y109.0055
G1 X92.8524 Y109.4797
G1 X93.1428 Y109.9187
G1 X93.487 Y110.315
G1 X93.8788 Y110.6621
G1 X94.3114 Y110.9541
G1 X94.7775 Y111.1863
G1 X95.269 Y111.3548
G1 X95.7776 Y111.457
G1 X96.3998 Y111.4982
G3 X96.5042 Y111.5086 I-0.1049 J1.584
G1 X97.9458 Y111.7003
G3 X98.3493 Y111.8095 I-0.2093 J1.5736
G1 X99.6926 Y112.3715
G3 X100.0524 Y112.5813 I-0.6127 J1.4645
G1 X101.206 Y113.4754
G3 X101.4976 Y113.7698 I-0.9725 J1.2547
G1 X102.3828 Y114.935
G3 X102.5874 Y115.293 I-1.2641 J0.9603
G1 X103.1439 Y116.6499
G3 X103.2493 Y117.0471 I-1.4688 J0.6023
G1 X103.439 Y118.5032
G3 Y118.9136 I-1.5742 J0.2052
G1 X103.2493 Y120.3697
G3 X103.1439 Y120.7669 I-1.5742 J-0.2052
G1 X102.5874 Y122.1238
G3 X102.3828 Y122.4818 I-1.4688 J-0.6023
G1 X101.4976 Y123.647
G3 X101.206 Y123.9414 I-1.2641 J-0.9603
G1 X100.0524 Y124.8355
G3 X99.6926 Y125.0453 I-0.9725 J-1.2547
G1 X98.3493 Y125.6073
G3 X97.9458 Y125.7165 I-0.6127 J-1.4645
G1 X96.5042 Y125.9082
G3 X96.3998 Y125.9186 I-0.2093 J-1.5736
G1 X95.7776 Y125.9598
G1 X95.269 Y126.062
G1 X94.7775 Y126.2305
G1 X94.3114 Y126.4627
G1 X93.8788 Y126.7547
G1 X93.487 Y127.1017
G1 X93.1428 Y127.4981
G1 X92.8524 Y127.9371
G1 X92.6209 Y128.4113
G1 X92.4525 Y128.9125
G1 X92.3502 Y129.432
G1 X92.3126 Y130.0122
G1 Y162.3507
G3 X90.7251 Y163.9382 I-1.5875 J0.0
G1 X14.0001
G3 X12.4126 Y162.3507 I0.0 J-1.5875
G1 Y130.7465
G1 X12.3749 Y130.1663
G1 X12.2726 Y129.6469
G1 X12.1042 Y129.1457
G1 X11.8727 Y128.6715
G1 X11.5823 Y128.2325
G1 X11.2381 Y127.8361
G1 X10.8463 Y127.489
G1 X10.4137 Y127.197
G1 X9.9476 Y126.9649
G1 X9.4561 Y126.7964
G1 X8.9475 Y126.6941
G1 X8.3253 Y126.653
G3 X8.2209 Y126.6426 I0.1049 J-1.584
G1 X6.7793 Y126.4509
G3 X6.3758 Y126.3417 I0.2093 J-1.5736
G1 F300.0 Z-3.0
G1 F800.0 X5.0325 Y125.7796
G3 X4.6727 Y125.5699 I0.6127 J-1.4645
G1 X3.5191 Y124.6758
G3 X3.2275 Y124.3814 I0.9725 J-1.2547
G1 X2.3424 Y123.2161
G3 X2.1377 Y122.8582 I1.2641 J-0.9603
G1 X1.5812 Y121.5012
G3 X1.4759 Y121.1041 I1.4688 J-0.6023
G1 X1.2861 Y119.6479
G3 Y119.2376 I1.5742 J-0.2052
G1 X1.4759 Y117.7814
G3 X1.5812 Y117.3843 I1.5742 J0.2052
G1 X2.1377 Y116.0274
G3 X2.3424 Y115.6694 I1.4688 J0.6023
G1 X3.2275 Y114.5042
G3 X3.5191 Y114.2097 I1.2641 J0.9603
G1 X4.6727 Y113.3156
G3 X5.0325 Y113.1059 I0.9725 J1.2547
G1 X6.3758 Y112.5438
G3 X6.7793 Y112.4347 I0.6127 J1.4645
G1 X8.2209 Y112.2429
G3 X8.3253 Y112.2326 I0.2093 J1.5736
G1 X8.9475 Y112.1914
G1 X9.4561 Y112.0892
G1 X9.9476 Y111.9206
G1 X10.4137 Y111.6885
G1 X10.8463 Y111.3965
G1 X11.2381 Y111.0494
G1 X11.5823 Y110.653
G1 X11.8727 Y110.214
G1 X12.1042 Y109.7398
G1 X12.2726 Y109.2387
G1 X12.3749 Y108.7192
G1 X12.4126 Y108.139
G1 Y56.6913
G1 Y56.343
G3 X12.3948 Y56.2637 I1.5398 J-0.386
G1 X12.2726 Y55.6431
G1 X12.1042 Y55.1419
G1 X11.8727 Y54.6678
G1 X11.5823 Y54.2287
G1 X11.2381 Y53.8324
G1 X10.8463 Y53.4853
G1 X10.4137 Y53.1933
G1 X9.9476 Y52.9611
G1 X9.4561 Y52.7926
G1 X8.9475 Y52.6904
G1 X8.3253 Y52.6492
G3 X8.2209 Y52.6388 I0.1049 J-1.584
G1 X6.7793 Y52.4471
G3 X6.3758 Y52.338 I0.2093 J-1.5736
G1 X5.0325 Y51.7759
G3 X4.6727 Y51.5662 I0.6127 J-1.4645
G1 X3.5191 Y50.672
G3 X3.2275 Y50.3776 I0.9725 J-1.2547
G1 X2.3424 Y49.2124
G3 X2.1377 Y48.8544 I1.2641 J-0.9603
G1 X1.5812 Y47.4975
G3 X1.4759 Y47.1003 I1.4688 J-0.6023
G1 X1.2861 Y45.6442
G3 Y45.2338 I1.5742 J-0.2052
G1 X1.4759 Y43.7777
G3 X1.5812 Y43.3805 I1.5742 J0.2052
G1 X2.1377 Y42.0236
G3 X2.3424 Y41.6656 I1.4688 J0.6023
G1 X3.2275 Y40.5004
G3 X3.5191 Y40.206 I1.2641 J0.9603
G1 X4.6727 Y39.3119
G3 X5.0325 Y39.1021 I0.9725 J1.2547
G1 X6.3758 Y38.5401
G3 X6.7793 Y38.4309 I0.6127 J1.4645
G1 X8.2209 Y38.2392
G3 X8.3253 Y38.2288 I0.2093 J1.5736
G1 X8.9475 Y38.1876
G1 X9.4561 Y38.0854
G1 X9.9476 Y37.9169
G1 X10.4137 Y37.6847
G1 X10.8463 Y37.3927
G1 X11.2381 Y37.0457
G1 X11.5823 Y36.6493
G1 X11.8727 Y36.2103
G1 X12.1042 Y35.7361
G1 X12.2726 Y35.2349
G1 X12.3749 Y34.7154
G1 X12.4126 Y34.1352
G1 Y0.3507
G3 X14.0001 Y-1.2368 I1.5875 J0.0
G1 X90.7251
G3 X92.3126 Y0.3507 I0.0 J1.5875
G1 Y33.4523
G1 Y33.8007
G3 X92.3303 Y33.88 I-1.5398 J0.386
G1 X92.4525 Y34.5006
G1 X92.6209 Y35.0017
G1 X92.8524 Y35.4759
G1 X93.1428 Y35.9149
G1 X93.487 Y36.3113
G1 X93.8788 Y36.6584
G1 X94.3114 Y36.9504
G1 X94.7775 Y37.1825
G1 X95.269 Y37.3511
G1 X95.7776 Y37.4533
G1 X96.3998 Y37.4945
G3 X96.5042 Y37.5048 I-0.1049 J1.584
G1 X97.9458 Y37.6965
G3 X98.3493 Y37.8057 I-0.2093 J1.5736
G1 X99.6926 Y38.3678
G3 X100.0524 Y38.5775 I-0.6127 J1.4645
G1 X101.206 Y39.4716
G3 X101.4976 Y39.7661 I-0.9725 J1.2547
G1 X102.3828 Y40.9313
G3 X102.5874 Y41.2893 I-1.2641 J0.9603
G1 X103.1439 Y42.6462
G3 X103.2493 Y43.0433 I-1.4688 J0.6023
G1 X103.439 Y44.4995
G3 Y44.9098 I-1.5742 J0.2052
G1 X103.2493 Y46.366
G3 X103.1439 Y46.7631 I-1.5742 J-0.2052
G1 X102.5874 Y48.12
G3 X102.3828 Y48.478 I-1.4688 J-0.6023
G1 X101.4976 Y49.6432
G3 X101.206 Y49.9377 I-1.2641 J-0.9603
G1 X100.0524 Y50.8318
G3 X99.6926 Y51.0415 I-0.9725 J-1.2547
G1 X98.3493 Y51.6036
G3 X97.9458 Y51.7128 I-0.6127 J-1.4645
G1 X96.5042 Y51.9045
G3 X96.3998 Y51.9148 I-0.2093 J-1.5736
G1 X95.7776 Y51.956
G1 X95.269 Y52.0582
G1 X94.7775 Y52.2268
G1 X94.3114 Y52.4589
G1 X93.8788 Y52.7509
G1 X93.487 Y53.098
G1 X93.1428 Y53.4944
G1 X92.8524 Y53.9334
G1 X92.6209 Y54.4076
G1 X92.4525 Y54.9088
G1 X92.3502 Y55.4282
G1 X92.3126 Y56.0084
G1 Y107.4561
G1 Y107.8044
G3 X92.3303 Y107.8837 I-1.5398 J0.386
G1 X92.4525 Y108.5043
G1 X92.6209 Y109.0055
G1 X92.8524 Y109.4797
G1 X93.1428 Y109.9187
G1 X93.487 Y110.315
G1 X93.8788 Y110.6621
G1 X94.3114 Y110.9541
G1 X94.7775 Y111.1863
G1 X95.269 Y111.3548
G1 X95.7776 Y111.457
G1 X96.3998 Y111.4982
G3 X96.5042 Y111.5086 I-0.1049 J1.584
G1 X97.9458 Y111.7003
G3 X98.3493 Y111.8095 I-0.2093 J1.5736
G1 X99.6926 Y112.3715
G3 X100.0524 Y112.5813 I-0.6127 J1.4645
G1 X101.206 Y113.4754
G3 X101.4976 Y113.7698 I-0.9725 J1.2547
G1 X102.3828 Y114.935
G3 X102.5874 Y115.293 I-1.2641 J0.9603
G1 X103.1439 Y116.6499
G3 X103.2493 Y117.0471 I-1.4688 J0.6023
G1 X103.439 Y118.5032
G3 Y118.9136 I-1.5742 J0.2052
G1 X103.2493 Y120.3697
G3 X103.1439 Y120.7669 I-1.5742 J-0.2052
G1 X102.5874 Y122.1238
G3 X102.3828 Y122.4818 I-1.4688 J-0.6023
G1 X101.4976 Y123.647
G3 X101.206 Y123.9414 I-1.2641 J-0.9603
G1 X100.0524 Y124.8355
G3 X99.6926 Y125.0453 I-0.9725 J-1.2547
G1 X98.3493 Y125.6073
G3 X97.9458 Y125.7165 I-0.6127 J-1.4645
G1 X96.5042 Y125.9082
G3 X96.3998 Y125.9186 I-0.2093 J-1.5736
G1 X95.7776 Y125.9598
G1 X95.269 Y126.062
G1 X94.7775 Y126.2305
G1 X94.3114 Y126.4627
G1 X93.8788 Y126.7547
G1 X93.487 Y127.1017
G1 X93.1428 Y127.4981
G1 X92.8524 Y127.9371
G1 X92.6209 Y128.4113
G1 X92.4525 Y128.9125
G1 X92.3502 Y129.432
G1 X92.3126 Y130.0122
G1 Y162.3507
G3 X90.7251 Y163.9382 I-1.5875 J0.0
G1 X14.0001
G3 X12.4126 Y162.3507 I0.0 J-1.5875
G1 Y130.7465
G1 X12.3749 Y130.1663
G1 X12.2726 Y129.6469
G1 X12.1042 Y129.1457
G1 X11.8727 Y128.6715
G1 X11.5823 Y128.2325
G1 X11.2381 Y127.8361
G1 X10.8463 Y127.489
G1 X10.4137 Y127.197
G1 X9.9476 Y126.9649
G1 X9.4561 Y126.7964
G1 X8.9475 Y126.6941
G1 X8.3253 Y126.653
G3 X8.2209 Y126.6426 I0.1049 J-1.584
G1 X6.7793 Y126.4509
G3 X6.3758 Y126.3417 I0.2093 J-1.5736
G1 F300.0 Z-4.0
G1 F800.0 X5.0325 Y125.7796
G3 X4.6727 Y125.5699 I0.6127 J-1.4645
G1 X3.5191 Y124.6758
G3 X3.2275 Y124.3814 I0.9725 J-1.2547
G1 X2.3424 Y123.2161
G3 X2.1377 Y122.8582 I1.2641 J-0.9603
G1 X1.5812 Y121.5012
G3 X1.4759 Y121.1041 I1.4688 J-0.6023
G1 X1.2861 Y119.6479
G3 Y119.2376 I1.5742 J-0.2052
G1 X1.4759 Y117.7814
G3 X1.5812 Y117.3843 I1.5742 J0.2052
G1 X2.1377 Y116.0274
G3 X2.3424 Y115.6694 I1.4688 J0.6023
G1 X3.2275 Y114.5042
G3 X3.5191 Y114.2097 I1.2641 J0.9603
G1 X4.6727 Y113.3156
G3 X5.0325 Y113.1059 I0.9725 J1.2547
G1 X6.3758 Y112.5438
G3 X6.7793 Y112.4347 I0.6127 J1.4645
G1 X8.2209 Y112.2429
G3 X8.3253 Y112.2326 I0.2093 J1.5736
G1 X8.9475 Y112.1914
G1 X9.4561 Y112.0892
G1 X9.9476 Y111.9206
G1 X10.4137 Y111.6885
G1 X10.8463 Y111.3965
G1 X11.2381 Y111.0494
G1 X11.5823 Y110.653
G1 X11.8727 Y110.214
G1 X12.1042 Y109.7398
G1 X12.2726 Y109.2387
G1 X12.3749 Y108.7192
G1 X12.4126 Y108.139
G1 Y56.6913
G1 Y56.343
G3 X12.3948 Y56.2637 I1.5398 J-0.386
G1 X12.2726 Y55.6431
G1 X12.1042 Y55.1419
G1 X11.8727 Y54.6678
G1 X11.5823 Y54.2287
G1 X11.2381 Y53.8324
G1 X10.8463 Y53.4853
G1 X10.4137 Y53.1933
G1 X9.9476 Y52.9611
G1 X9.4561 Y52.7926
G1 X8.9475 Y52.6904
G1 X8.3253 Y52.6492
G3 X8.2209 Y52.6388 I0.1049 J-1.584
G1 X6.7793 Y52.4471
G3 X6.3758 Y52.338 I0.2093 J-1.5736
G1 X5.0325 Y51.7759
G3 X4.6727 Y51.5662 I0.6127 J-1.4645
G1 X3.5191 Y50.672
G3 X3.2275 Y50.3776 I0.9725 J-1.2547
G1 X2.3424 Y49.2124
G3 X2.1377 Y48.8544 I1.2641 J-0.9603
G1 X1.5812 Y47.4975
G3 X1.4759 Y47.1003 I1.4688 J-0.6023
G1 X1.2861 Y45.6442
G3 Y45.2338 I1.5742 J-0.2052
G1 X1.4759 Y43.7777
G3 X1.5812 Y43.3805 I1.5742 J0.2052
G1 X2.1377 Y42.0236
G3 X2.3424 Y41.6656 I1.4688 J0.6023
G1 X3.2275 Y40.5004
G3 X3.5191 Y40.206 I1.2641 J0.9603
G1 X4.6727 Y39.3119
G3 X5.0325 Y39.1021 I0.9725 J1.2547
G1 X6.3758 Y38.5401
G3 X6.7793 Y38.4309 I0.6127 J1.4645
G1 X8.2209 Y38.2392
G3 X8.3253 Y38.2288 I0.2093 J1.5736
G1 X8.9475 Y38.1876
G1 X9.4561 Y38.0854
G1 X9.9476 Y37.9169
G1 X10.4137 Y37.6847
G1 X10.8463 Y37.3927
G1 X11.2381 Y37.0457
G1 X11.5823 Y36.6493
G1 X11.8727 Y36.2103
G1 X12.1042 Y35.7361
G1 X12.2726 Y35.2349
G1 X12.3749 Y34.7154
G1 X12.4126 Y34.1352
G1 Y0.3507
G3 X14.0001 Y-1.2368 I1.5875 J0.0
G1 X90.7251
G3 X92.3126 Y0.3507 I0.0 J1.5875
G1 Y33.4523
G1 Y33.8007
G3 X92.3303 Y33.88 I-1.5398 J0.386
G1 X92.4525 Y34.5006
G1 X92.6209 Y35.0017
G1 X92.8524 Y35.4759
G1 X93.1428 Y35.9149
G1 X93.487 Y36.3113
G1 X93.8788 Y36.6584
G1 X94.3114 Y36.9504
G1 X94.7775 Y37.1825
G1 X95.269 Y37.3511
G1 X95.7776 Y37.4533
G1 X96.3998 Y37.4945
G3 X96.5042 Y37.5048 I-0.1049 J1.584
G1 X97.9458 Y37.6965
G3 X98.3493 Y37.8057 I-0.2093 J1.5736
G1 X99.6926 Y38.3678
G3 X100.0524 Y38.5775 I-0.6127 J1.4645
G1 X101.206 Y39.4716
G3 X101.4976 Y39.7661 I-0.9725 J1.2547
G1 X102.3828 Y40.9313
G3 X102.5874 Y41.2893 I-1.2641 J0.9603
G1 X103.1439 Y42.6462
G3 X103.2493 Y43.0433 I-1.4688 J0.6023
G1 X103.439 Y44.4995
G3 Y44.9098 I-1.5742 J0.2052
G1 X103.2493 Y46.366
G3 X103.1439 Y46.7631 I-1.5742 J-0.2052
G1 X102.5874 Y48.12
G3 X102.3828 Y48.478 I-1.4688 J-0.6023
G1 X101.4976 Y49.6432
G3 X101.206 Y49.9377 I-1.2641 J-0.9603
G1 X100.0524 Y50.8318
G3 X99.6926 Y51.0415 I-0.9725 J-1.2547
G1 X98.3493 Y51.6036
G3 X97.9458 Y51.7128 I-0.6127 J-1.4645
G1 X96.5042 Y51.9045
G3 X96.3998 Y51.9148 I-0.2093 J-1.5736
G1 X95.7776 Y51.956
G1 X95.269 Y52.0582
G1 X94.7775 Y52.2268
G1 X94.3114 Y52.4589
G1 X93.8788 Y52.7509
G1 X93.487 Y53.098
G1 X93.1428 Y53.4944
G1 X92.8524 Y53.9334
G1 X92.6209 Y54.4076
G1 X92.4525 Y54.9088
G1 X92.3502 Y55.4282
G1 X92.3126 Y56.0084
G1 Y107.4561
G1 Y107.8044
G3 X92.3303 Y107.8837 I-1.5398 J0.386
G1 X92.4525 Y108.5043
G1 X92.6209 Y109.0055
G1 X92.8524 Y109.4797
G1 X93.1428 Y109.9187
G1 X93.487 Y110.315
G1 X93.8788 Y110.6621
G1 X94.3114 Y110.9541
G1 X94.7775 Y111.1863
G1 X95.269 Y111.3548
G1 X95.7776 Y111.457
G1 X96.3998 Y111.4982
G3 X96.5042 Y111.5086 I-0.1049 J1.584
G1 X97.9458 Y111.7003
G3 X98.3493 Y111.8095 I-0.2093 J1.5736
G1 X99.6926 Y112.3715
G3 X100.0524 Y112.5813 I-0.6127 J1.4645
G1 X101.206 Y113.4754
G3 X101.4976 Y113.7698 I-0.9725 J1.2547
G1 X102.3828 Y114.935
G3 X102.5874 Y115.293 I-1.2641 J0.9603
G1 X103.1439 Y116.6499
G3 X103.2493 Y117.0471 I-1.4688 J0.6023
G1 X103.439 Y118.5032
G3 Y118.9136 I-1.5742 J0.2052
G1 X103.2493 Y120.3697
G3 X103.1439 Y120.7669 I-1.5742 J-0.2052
G1 X102.5874 Y122.1238
G3 X102.3828 Y122.4818 I-1.4688 J-0.6023
G1 X101.4976 Y123.647
G3 X101.206 Y123.9414 I-1.2641 J-0.9603
G1 X100.0524 Y124.8355
G3 X99.6926 Y125.0453 I-0.9725 J-1.2547
G1 X98.3493 Y125.6073
G3 X97.9458 Y125.7165 I-0.6127 J-1.4645
G1 X96.5042 Y125.9082
G3 X96.3998 Y125.9186 I-0.2093 J-1.5736
G1 X95.7776 Y125.9598
G1 X95.269 Y126.062
G1 X94.7775 Y126.2305
G1 X94.3114 Y126.4627
G1 X93.8788 Y126.7547
G1 X93.487 Y127.1017
G1 X93.1428 Y127.4981
G1 X92.8524 Y127.9371
G1 X92.6209 Y128.4113
G1 X92.4525 Y128.9125
G1 X92.3502 Y129.432
G1 X92.3126 Y130.0122
G1 Y162.3507
G3 X90.7251 Y163.9382 I-1.5875 J0.0
G1 X14.0001
G3 X12.4126 Y162.3507 I0.0 J-1.5875
G1 Y130.7465
G1 X12.3749 Y130.1663
G1 X12.2726 Y129.6469
G1 X12.1042 Y129.1457
G1 X11.8727 Y128.6715
G1 X11.5823 Y128.2325
G1 X11.2381 Y127.8361
G1 X10.8463 Y127.489
G1 X10.4137 Y127.197
G1 X9.9476 Y126.9649
G1 X9.4561 Y126.7964
G1 X8.9475 Y126.6941
G1 X8.3253 Y126.653
G3 X8.2209 Y126.6426 I0.1049 J-1.584
G1 X6.7793 Y126.4509
G3 X6.3758 Y126.3417 I0.2093 J-1.5736
G1 F300.0 Z-5.0
G1 F800.0 X5.0325 Y125.7796
G3 X4.6727 Y125.5699 I0.6127 J-1.4645
G1 X3.5191 Y124.6758
G3 X3.2275 Y124.3814 I0.9725 J-1.2547
G1 X2.3424 Y123.2161
G3 X2.1377 Y122.8582 I1.2641 J-0.9603
G1 X1.5812 Y121.5012
G3 X1.4759 Y121.1041 I1.4688 J-0.6023
G1 X1.2861 Y119.6479
G3 Y119.2376 I1.5742 J-0.2052
G1 X1.4759 Y117.7814
G3 X1.5812 Y117.3843 I1.5742 J0.2052
G1 X2.1377 Y116.0274
G3 X2.3424 Y115.6694 I1.4688 J0.6023
G1 X3.2275 Y114.5042
G3 X3.5191 Y114.2097 I1.2641 J0.9603
G1 X4.6727 Y113.3156
G3 X5.0325 Y113.1059 I0.9725 J1.2547
G1 X6.3758 Y112.5438
G3 X6.7793 Y112.4347 I0.6127 J1.4645
G1 X8.2209 Y112.2429
G3 X8.3253 Y112.2326 I0.2093 J1.5736
G1 X8.9475 Y112.1914
G1 X9.4561 Y112.0892
G1 X9.9476 Y111.9206
G1 X10.4137 Y111.6885
G1 X10.8463 Y111.3965
G1 X11.2381 Y111.0494
G1 X11.5823 Y110.653
G1 X11.8727 Y110.214
G1 X12.1042 Y109.7398
G1 X12.2726 Y109.2387
G1 X12.3749 Y108.7192
G1 X12.4126 Y108.139
G1 Y56.6913
G1 Y56.343
G3 X12.3948 Y56.2637 I1.5398 J-0.386
G1 X12.2726 Y55.6431
G1 X12.1042 Y55.1419
G1 X11.8727 Y54.6678
G1 X11.5823 Y54.2287
G1 X11.2381 Y53.8324
G1 X10.8463 Y53.4853
G1 X10.4137 Y53.1933
G1 X9.9476 Y52.9611
G1 X9.4561 Y52.7926
G1 X8.9475 Y52.6904
G1 X8.3253 Y52.6492
G3 X8.2209 Y52.6388 I0.1049 J-1.584
G1 X6.7793 Y52.4471
G3 X6.3758 Y52.338 I0.2093 J-1.5736
G1 X5.0325 Y51.7759
G3 X4.6727 Y51.5662 I0.6127 J-1.4645
G1 X3.5191 Y50.672
G3 X3.2275 Y50.3776 I0.9725 J-1.2547
G1 X2.3424 Y49.2124
G3 X2.1377 Y48.8544 I1.2641 J-0.9603
G1 X1.5812 Y47.4975
G3 X1.4759 Y47.1003 I1.4688 J-0.6023
G1 X1.2861 Y45.6442
G3 Y45.2338 I1.5742 J-0.2052
G1 X1.4759 Y43.7777
G3 X1.5812 Y43.3805 I1.5742 J0.2052
G1 X2.1377 Y42.0236
G3 X2.3424 Y41.6656 I1.4688 J0.6023
G1 X3.2275 Y40.5004
G3 X3.5191 Y40.206 I1.2641 J0.9603
G1 X4.6727 Y39.3119
G3 X5.0325 Y39.1021 I0.9725 J1.2547
G1 X6.3758 Y38.5401
G3 X6.7793 Y38.4309 I0.6127 J1.4645
G1 X8.2209 Y38.2392
G3 X8.3253 Y38.2288 I0.2093 J1.5736
G1 X8.9475 Y38.1876
G1 X9.4561 Y38.0854
G1 X9.9476 Y37.9169
G1 X10.4137 Y37.6847
G1 X10.8463 Y37.3927
G1 X11.2381 Y37.0457
G1 X11.5823 Y36.6493
G1 X11.8727 Y36.2103
G1 X12.1042 Y35.7361
G1 X12.2726 Y35.2349
G1 X12.3749 Y34.7154
G1 X12.4126 Y34.1352
G1 Y0.3507
G3 X14.0001 Y-1.2368 I1.5875 J0.0
G1 X90.7251
G3 X92.3126 Y0.3507 I0.0 J1.5875
G1 Y33.4523
G1 Y33.8007
G3 X92.3303 Y33.88 I-1.5398 J0.386
G1 X92.4525 Y34.5006
G1 X92.6209 Y35.0017
G1 X92.8524 Y35.4759
G1 X93.1428 Y35.9149
G1 X93.487 Y36.3113
G1 X93.8788 Y36.6584
G1 X94.3114 Y36.9504
G1 X94.7775 Y37.1825
G1 X95.269 Y37.3511
G1 X95.7776 Y37.4533
G1 X96.3998 Y37.4945
G3 X96.5042 Y37.5048 I-0.1049 J1.584
G1 X97.9458 Y37.6965
G3 X98.3493 Y37.8057 I-0.2093 J1.5736
G1 X99.6926 Y38.3678
G3 X100.0524 Y38.5775 I-0.6127 J1.4645
G1 X101.206 Y39.4716
G3 X101.4976 Y39.7661 I-0.9725 J1.2547
G1 X102.3828 Y40.9313
G3 X102.5874 Y41.2893 I-1.2641 J0.9603
G1 X103.1439 Y42.6462
G3 X103.2493 Y43.0433 I-1.4688 J0.6023
G1 X103.439 Y44.4995
G3 Y44.9098 I-1.5742 J0.2052
G1 X103.2493 Y46.366
G3 X103.1439 Y46.7631 I-1.5742 J-0.2052
G1 X102.5874 Y48.12
G3 X102.3828 Y48.478 I-1.4688 J-0.6023
G1 X101.4976 Y49.6432
G3 X101.206 Y49.9377 I-1.2641 J-0.9603
G1 X100.0524 Y50.8318
G3 X99.6926 Y51.0415 I-0.9725 J-1.2547
G1 X98.3493 Y51.6036
G3 X97.9458 Y51.7128 I-0.6127 J-1.4645
G1 X96.5042 Y51.9045
G3 X96.3998 Y51.9148 I-0.2093 J-1.5736
G1 X95.7776 Y51.956
G1 X95.269 Y52.0582
G1 X94.7775 Y52.2268
G1 X94.3114 Y52.4589
G1 X93.8788 Y52.7509
G1 X93.487 Y53.098
G1 X93.1428 Y53.4944
G1 X92.8524 Y53.9334
G1 X92.6209 Y54.4076
G1 X92.4525 Y54.9088
G1 X92.3502 Y55.4282
G1 X92.3126 Y56.0084
G1 Y107.4561
G1 Y107.8044
G3 X92.3303 Y107.8837 I-1.5398 J0.386
G1 X92.4525 Y108.5043
G1 X92.6209 Y109.0055
G1 X92.8524 Y109.4797
G1 X93.1428 Y109.9187
G1 X93.487 Y110.315
G1 X93.8788 Y110.6621
G1 X94.3114 Y110.9541
G1 X94.7775 Y111.1863
G1 X95.269 Y111.3548
G1 X95.7776 Y111.457
G1 X96.3998 Y111.4982
G3 X96.5042 Y111.5086 I-0.1049 J1.584
G1 X97.9458 Y111.7003
G3 X98.3493 Y111.8095 I-0.2093 J1.5736
G1 X99.6926 Y112.3715
G3 X100.0524 Y112.5813 I-0.6127 J1.4645
G1 X101.206 Y113.4754
G3 X101.4976 Y113.7698 I-0.9725 J1.2547
G1 X102.3828 Y114.935
G3 X102.5874 Y115.293 I-1.2641 J0.9603
G1 X103.1439 Y116.6499
G3 X103.2493 Y117.0471 I-1.4688 J0.6023
G1 X103.439 Y118.5032
G3 Y118.9136 I-1.5742 J0.2052
G1 X103.2493 Y120.3697
G3 X103.1439 Y120.7669 I-1.5742 J-0.2052
G1 X102.5874 Y122.1238
G3 X102.3828 Y122.4818 I-1.4688 J-0.6023
G1 X101.4976 Y123.647
G3 X101.206 Y123.9414 I-1.2641 J-0.9603
G1 X100.0524 Y124.8355
G3 X99.6926 Y125.0453 I-0.9725 J-1.2547
G1 X98.3493 Y125.6073
G3 X97.9458 Y125.7165 I-0.6127 J-1.4645
G1 X96.5042 Y125.9082
G3 X96.3998 Y125.9186 I-0.2093 J-1.5736
G1 X95.7776 Y125.9598
G1 X95.269 Y126.062
G1 X94.7775 Y126.2305
G1 X94.3114 Y126.4627
G1 X93.8788 Y126.7547
G1 X93.487 Y127.1017
G1 X93.1428 Y127.4981
G1 X92.8524 Y127.9371
G1 X92.6209 Y128.4113
G1 X92.4525 Y128.9125
G1 X92.3502 Y129.432
G1 X92.3126 Y130.0122
G1 Y162.3507
G3 X90.7251 Y163.9382 I-1.5875 J0.0
G1 X14.0001
G3 X12.4126 Y162.3507 I0.0 J-1.5875
G1 Y130.7465
G1 X12.3749 Y130.1663
G1 X12.2726 Y129.6469
G1 X12.1042 Y129.1457
G1 X11.8727 Y128.6715
G1 X11.5823 Y128.2325
G1 X11.2381 Y127.8361
G1 X10.8463 Y127.489
G1 X10.4137 Y127.197
G1 X9.9476 Y126.9649
G1 X9.4561 Y126.7964
G1 X8.9475 Y126.6941
G1 X8.3253 Y126.653
G3 X8.2209 Y126.6426 I0.1049 J-1.584
G1 X6.7793 Y126.4509
G3 X6.3758 Y126.3417 I0.2093 J-1.5736
G1 F300.0 Z-6.0
G1 F800.0 X5.0325 Y125.7796
G3 X4.6727 Y125.5699 I0.6127 J-1.4645
G1 X3.5191 Y124.6758
G3 X3.2275 Y124.3814 I0.9725 J-1.2547
G1 X2.3424 Y123.2161
G3 X2.1377 Y122.8582 I1.2641 J-0.9603
G1 X1.5812 Y121.5012
G3 X1.4759 Y121.1041 I1.4688 J-0.6023
G1 X1.2861 Y119.6479
G3 Y119.2376 I1.5742 J-0.2052
G1 X1.4759 Y117.7814
G3 X1.5812 Y117.3843 I1.5742 J0.2052
G1 X2.1377 Y116.0274
G3 X2.3424 Y115.6694 I1.4688 J0.6023
G1 X3.2275 Y114.5042
G3 X3.5191 Y114.2097 I1.2641 J0.9603
G1 X4.6727 Y113.3156
G3 X5.0325 Y113.1059 I0.9725 J1.2547
G1 X6.3758 Y112.5438
G3 X6.7793 Y112.4347 I0.6127 J1.4645
G1 X8.2209 Y112.2429
G3 X8.3253 Y112.2326 I0.2093 J1.5736
G1 X8.9475 Y112.1914
G1 X9.4561 Y112.0892
G1 X9.9476 Y111.9206
G1 X10.4137 Y111.6885
G1 X10.8463 Y111.3965
G1 X11.2381 Y111.0494
G1 X11.5823 Y110.653
G1 X11.8727 Y110.214
G1 X12.1042 Y109.7398
G1 X12.2726 Y109.2387
G1 X12.3749 Y108.7192
G1 X12.4126 Y108.139
G1 Y56.6913
G1 Y56.343
G3 X12.3948 Y56.2637 I1.5398 J-0.386
G1 X12.2726 Y55.6431
G1 X12.1042 Y55.1419
G1 X11.8727 Y54.6678
G1 X11.5823 Y54.2287
G1 X11.2381 Y53.8324
G1 X10.8463 Y53.4853
G1 X10.4137 Y53.1933
G1 X9.9476 Y52.9611
G1 X9.4561 Y52.7926
G1 X8.9475 Y52.6904
G1 X8.3253 Y52.6492
G3 X8.2209 Y52.6388 I0.1049 J-1.584
G1 X6.7793 Y52.4471
G3 X6.3758 Y52.338 I0.2093 J-1.5736
G1 X5.0325 Y51.7759
G3 X4.6727 Y51.5662 I0.6127 J-1.4645
G1 X3.5191 Y50.672
G3 X3.2275 Y50.3776 I0.9725 J-1.2547
G1 X2.3424 Y49.2124
G3 X2.1377 Y48.8544 I1.2641 J-0.9603
G1 X1.5812 Y47.4975
G3 X1.4759 Y47.1003 I1.4688 J-0.6023
G1 X1.2861 Y45.6442
G3 Y45.2338 I1.5742 J-0.2052
G1 X1.4759 Y43.7777
G3 X1.5812 Y43.3805 I1.5742 J0.2052
G1 X2.1377 Y42.0236
G3 X2.3424 Y41.6656 I1.4688 J0.6023
G1 X3.2275 Y40.5004
G3 X3.5191 Y40.206 I1.2641 J0.9603
G1 X4.6727 Y39.3119
G3 X5.0325 Y39.1021 I0.9725 J1.2547
G1 X6.3758 Y38.5401
G3 X6.7793 Y38.4309 I0.6127 J1.4645
G1 X8.2209 Y38.2392
G3 X8.3253 Y38.2288 I0.2093 J1.5736
G1 X8.9475 Y38.1876
G1 X9.4561 Y38.0854
G1 X9.9476 Y37.9169
G1 X10.4137 Y37.6847
G1 X10.8463 Y37.3927
G1 X11.2381 Y37.0457
G1 X11.5823 Y36.6493
G1 X11.8727 Y36.2103
G1 X12.1042 Y35.7361
G1 X12.2726 Y35.2349
G1 X12.3749 Y34.7154
G1 X12.4126 Y34.1352
G1 Y0.3507
G3 X14.0001 Y-1.2368 I1.5875 J0.0
G1 X90.7251
G3 X92.3126 Y0.3507 I0.0 J1.5875
G1 Y33.4523
G1 Y33.8007
G3 X92.3303 Y33.88 I-1.5398 J0.386
G1 X92.4525 Y34.5006
G1 X92.6209 Y35.0017
G1 X92.8524 Y35.4759
G1 X93.1428 Y35.9149
G1 X93.487 Y36.3113
G1 X93.8788 Y36.6584
G1 X94.3114 Y36.9504
G1 X94.7775 Y37.1825
G1 X95.269 Y37.3511
G1 X95.7776 Y37.4533
G1 X96.3998 Y37.4945
G3 X96.5042 Y37.5048 I-0.1049 J1.584
G1 X97.9458 Y37.6965
G3 X98.3493 Y37.8057 I-0.2093 J1.5736
G1 X99.6926 Y38.3678
G3 X100.0524 Y38.5775 I-0.6127 J1.4645
G1 X101.206 Y39.4716
G3 X101.4976 Y39.7661 I-0.9725 J1.2547
G1 X102.3828 Y40.9313
G3 X102.5874 Y41.2893 I-1.2641 J0.9603
G1 X103.1439 Y42.6462
G3 X103.2493 Y43.0433 I-1.4688 J0.6023
G1 X103.439 Y44.4995
G3 Y44.9098 I-1.5742 J0.2052
G1 X103.2493 Y46.366
G3 X103.1439 Y46.7631 I-1.5742 J-0.2052
G1 X102.5874 Y48.12
G3 X102.3828 Y48.478 I-1.4688 J-0.6023
G1 X101.4976 Y49.6432
G3 X101.206 Y49.9377 I-1.2641 J-0.9603
G1 X100.0524 Y50.8318
G3 X99.6926 Y51.0415 I-0.9725 J-1.2547
G1 X98.3493 Y51.6036
G3 X97.9458 Y51.7128 I-0.6127 J-1.4645
G1 X96.5042 Y51.9045
G3 X96.3998 Y51.9148 I-0.2093 J-1.5736
G1 X95.7776 Y51.956
G1 X95.269 Y52.0582
G1 X94.7775 Y52.2268
G1 X94.3114 Y52.4589
G1 X93.8788 Y52.7509
G1 X93.487 Y53.098
G1 X93.1428 Y53.4944
G1 X92.8524 Y53.9334
G1 X92.6209 Y54.4076
G1 X92.4525 Y54.9088
G1 X92.3502 Y55.4282
G1 X92.3126 Y56.0084
G1 Y107.4561
G1 Y107.8044
G3 X92.3303 Y107.8837 I-1.5398 J0.386
G1 X92.4525 Y108.5043
G1 X92.6209 Y109.0055
G1 X92.8524 Y109.4797
G1 X93.1428 Y109.9187
G1 X93.487 Y110.315
G1 X93.8788 Y110.6621
G1 X94.3114 Y110.9541
G1 X94.7775 Y111.1863
G1 X95.269 Y111.3548
G1 X95.7776 Y111.457
G1 X96.3998 Y111.4982
G3 X96.5042 Y111.5086 I-0.1049 J1.584
G1 X97.9458 Y111.7003
G3 X98.3493 Y111.8095 I-0.2093 J1.5736
G1 X99.6926 Y112.3715
G3 X100.0524 Y112.5813 I-0.6127 J1.4645
G1 X101.206 Y113.4754
G3 X101.4976 Y113.7698 I-0.9725 J1.2547
G1 X102.3828 Y114.935
G3 X102.5874 Y115.293 I-1.2641 J0.9603
G1 X103.1439 Y116.6499
G3 X103.2493 Y117.0471 I-1.4688 J0.6023
G1 X103.439 Y118.5032
G3 Y118.9136 I-1.5742 J0.2052
G1 X103.2493 Y120.3697
G3 X103.1439 Y120.7669 I-1.5742 J-0.2052
G1 X102.5874 Y122.1238
G3 X102.3828 Y122.4818 I-1.4688 J-0.6023
G1 X101.4976 Y123.647
G3 X101.206 Y123.9414 I-1.2641 J-0.9603
G1 X100.0524 Y124.8355
G3 X99.6926 Y125.0453 I-0.9725 J-1.2547
G1 X98.3493 Y125.6073
G3 X97.9458 Y125.7165 I-0.6127 J-1.4645
G1 X96.5042 Y125.9082
G3 X96.3998 Y125.9186 I-0.2093 J-1.5736
G1 X95.7776 Y125.9598
G1 X95.269 Y126.062
G1 X94.7775 Y126.2305
G1 X94.3114 Y126.4627
G1 X93.8788 Y126.7547
G1 X93.487 Y127.1017
G1 X93.1428 Y127.4981
G1 X92.8524 Y127.9371
G1 X92.6209 Y128.4113
G1 X92.4525 Y128.9125
G1 X92.3502 Y129.432
G1 X92.3126 Y130.0122
G1 Y162.3507
G3 X90.7251 Y163.9382 I-1.5875 J0.0
G1 X14.0001
G3 X12.4126 Y162.3507 I0.0 J-1.5875
G1 Y130.7465
G1 X12.3749 Y130.1663
G1 X12.2726 Y129.6469
G1 X12.1042 Y129.1457
G1 X11.8727 Y128.6715
G1 X11.5823 Y128.2325
G1 X11.2381 Y127.8361
G1 X10.8463 Y127.489
G1 X10.4137 Y127.197
G1 X9.9476 Y126.9649
G1 X9.4561 Y126.7964
G1 X8.9475 Y126.6941
G1 X8.3253 Y126.653
G3 X8.2209 Y126.6426 I0.1049 J-1.584
G1 X6.7793 Y126.4509
G3 X6.3758 Y126.3417 I0.2093 J-1.5736
G0 Z3.0
M5
M30
