( Made using CamBam - http://www.cambam.co.uk )
( structure_fond3mm 5/20/2016 4:14:49 PM )
( T4 : 3.175 )
G21 G90 G64 G40
G0 Z3.0
( T4 : 3.175 )
T4 M6
( Contour1 )
G17
M3 S1000
G0 X190.0 Y-1.5875
G0 Z1.0
G1 F300.0 Z-1.0
G1 F800.0 X192.0
G3 X193.5875 Y0.0 I0.0 J1.5875
G1 Y164.0
G3 X192.0 Y165.5875 I-1.5875 J0.0
G1 X0.0
G3 X-1.5875 Y164.0 I0.0 J-1.5875
G1 Y162.0
G1 Y0.0
G3 X0.0 Y-1.5875 I1.5875 J0.0
G1 X190.0
G1 F300.0 Z-2.0
G1 F800.0 X192.0
G3 X193.5875 Y0.0 I0.0 J1.5875
G1 Y164.0
G3 X192.0 Y165.5875 I-1.5875 J0.0
G1 X0.0
G3 X-1.5875 Y164.0 I0.0 J-1.5875
G1 Y162.0
G1 Y0.0
G3 X0.0 Y-1.5875 I1.5875 J0.0
G1 X190.0
G1 F300.0 Z-3.0
G1 F800.0 X192.0
G3 X193.5875 Y0.0 I0.0 J1.5875
G1 Y164.0
G3 X192.0 Y165.5875 I-1.5875 J0.0
G1 X0.0
G3 X-1.5875 Y164.0 I0.0 J-1.5875
G1 Y162.0
G1 Y0.0
G3 X0.0 Y-1.5875 I1.5875 J0.0
G1 X190.0
G0 Z3.0
M5
M30
