( Made using CamBam - http://www.cambam.co.uk )
( structure_top2 5/19/2016 11:11:52 PM )
( T4 : 3.175 )
G21 G90 G64 G40
G0 Z3.0
( T4 : 3.175 )
T4 M6
( Poche1 )
G17
M3 S1000
G0 X6.5388 Y132.6461
G0 Z1.0
G1 F300.0 Z-1.0
G1 F800.0 X7.0968 Y132.6095
G1 X7.6733 Y132.5336
G1 X7.7172 Y132.5154
G1 X7.7549 Y132.4865
G1 X7.7839 Y132.4488
G1 X7.802 Y132.4049
G1 X7.8083 Y132.3577
G1 X7.802 Y132.3106
G1 X7.7839 Y132.2667
G1 X7.7549 Y132.229
G1 X7.7172 Y132.2
G1 X7.6733 Y132.1818
G1 X7.0968 Y132.1059
G1 X6.5388 Y132.0694
G3 X5.8388 Y131.9772 I0.353 J-5.3859
G1 X5.117 Y131.8336
G3 X4.435 Y131.6509 I1.053 J-5.2938
G1 X4.2875 Y131.6008
G1 Y133.1146
G1 X4.435 Y133.0645
G3 X5.117 Y132.8818 I1.735 J5.1111
G1 X5.8388 Y132.7382
G3 X6.5388 Y132.6461 I1.053 J5.2938
G1 F300.0 X6.6219 Y133.9134
G1 F800.0 X7.2214 Y133.8741
G1 X8.0048 Y133.7709
G1 X8.3577 Y133.6248
G1 X8.6607 Y133.3923
G1 X8.8932 Y133.0892
G1 X9.0394 Y132.7364
G1 X9.0892 Y132.3577
G1 X9.0394 Y131.9791
G1 X8.8932 Y131.6262
G1 X8.6607 Y131.3232
G1 X8.3577 Y131.0907
G1 X8.0048 Y130.9445
G1 X7.2214 Y130.8414
G1 X6.6219 Y130.8021
G3 X6.0866 Y130.7316 I0.27 J-4.1187
G1 X5.3648 Y130.588
G3 X4.8433 Y130.4483 I0.8052 J-4.0482
G1 X4.1464 Y130.2117
G3 X3.6476 Y130.0051 I1.3267 J-3.9085
G1 X3.0175 Y129.6944
G1 Y135.021
G1 X3.6476 Y134.7103
G3 X4.1464 Y134.5037 I1.8255 J3.7018
G1 X4.8433 Y134.2671
G3 X5.3648 Y134.1274 I1.3267 J3.9085
G1 X6.0866 Y133.9838
G3 X6.6219 Y133.9134 I0.8052 J4.0482
G1 F300.0 X6.7049 Y135.1806
G1 F800.0 X7.3459 Y135.1386
G1 X8.3364 Y135.0082
G1 X8.9982 Y134.7341
G1 X9.5665 Y134.298
G1 X10.0025 Y133.7297
G1 X10.2767 Y133.0679
G1 X10.3702 Y132.3577
G1 X10.2767 Y131.6475
G1 X10.0025 Y130.9857
G1 X9.5665 Y130.4174
G1 X8.9982 Y129.9813
G1 X8.3364 Y129.7072
G1 X7.3459 Y129.5768
G1 X6.7049 Y129.5348
G3 X6.3343 Y129.486 I0.1869 J-2.8514
G1 X5.6125 Y129.3424
G3 X5.2515 Y129.2457 I0.5575 J-2.8026
G1 X4.5546 Y129.0091
G3 X4.2093 Y128.8661 I0.9185 J-2.7059
G1 X3.5492 Y128.5406
G3 X3.2255 Y128.3537 I1.2638 J-2.5628
G1 X2.6136 Y127.9449
G3 X2.3171 Y127.7173 I1.5875 J-2.3759
G1 X1.7638 Y127.2321
G3 X1.7475 Y127.2177 I1.8841 J-2.1484
G1 Y137.4978
G3 X1.7638 Y137.4834 I1.9004 J2.134
G1 X2.3171 Y136.9981
G3 X2.6136 Y136.7706 I1.8841 J2.1484
G1 X3.2255 Y136.3617
G3 X3.5492 Y136.1748 I1.5875 J2.3759
G1 X4.2093 Y135.8493
G3 X4.5546 Y135.7063 I1.2638 J2.5628
G1 X5.2515 Y135.4697
G3 X5.6125 Y135.373 I0.9185 J2.7059
G1 X6.3343 Y135.2294
G3 X6.7049 Y135.1806 I0.5575 J2.8026
G1 F300.0 X6.788 Y136.4479
G1 F800.0 X7.4705 Y136.4032
G1 X8.6679 Y136.2455
G1 X9.6386 Y135.8434
G1 X10.4722 Y135.2038
G1 X11.1119 Y134.3702
G1 X11.514 Y133.3995
G1 X11.6511 Y132.3577
G1 X11.514 Y131.316
G1 X11.1119 Y130.3452
G1 X10.4722 Y129.5116
G1 X9.6386 Y128.872
G1 X8.6679 Y128.4699
G1 X7.4705 Y128.3123
G1 X6.788 Y128.2675
G3 X6.5821 Y128.2404 I0.1038 J-1.5841
G1 X5.8603 Y128.0968
G3 X5.6597 Y128.0431 I0.3097 J-1.557
G1 X4.9628 Y127.8065
G3 X4.771 Y127.7271 I0.5103 J-1.5033
G1 X4.1109 Y127.4016
G3 X3.9311 Y127.2978 I0.7021 J-1.4238
G1 X3.3192 Y126.8889
G3 X3.1545 Y126.7625 I0.882 J-1.32
G1 X2.6012 Y126.2772
G3 X2.4543 Y126.1304 I1.0467 J-1.1935
G1 X1.9691 Y125.5771
G3 X1.8427 Y125.4124 I1.1935 J-1.0467
G1 X1.4338 Y124.8004
G3 X1.33 Y124.6206 I1.32 J-0.882
G1 X1.0045 Y123.9606
G3 X0.925 Y123.7687 I1.4238 J-0.7021
G1 X0.7792 Y123.3393
G1 X0.4775 Y122.9656
G1 Y142.2585
G1 X0.5742 Y142.1484
G1 X0.6347 Y141.8442
G3 X0.6885 Y141.6436 I1.557 J0.3097
G1 X0.925 Y140.9467
G3 X1.0045 Y140.7549 I1.5033 J0.5103
G1 X1.33 Y140.0948
G3 X1.4338 Y139.915 I1.4238 J0.7021
G1 X1.8427 Y139.3031
G3 X1.9691 Y139.1383 I1.32 J0.882
G1 X2.4543 Y138.585
G3 X2.6012 Y138.4382 I1.1935 J1.0467
G1 X3.1545 Y137.953
G3 X3.3192 Y137.8266 I1.0467 J1.1935
G1 X3.9311 Y137.4177
G3 X4.1109 Y137.3139 I0.882 J1.32
G1 X4.771 Y136.9884
G3 X4.9628 Y136.9089 I0.7021 J1.4238
G1 X5.6597 Y136.6723
G3 X5.8603 Y136.6186 I0.5103 J1.5033
G1 X6.5821 Y136.475
G3 X6.788 Y136.4479 I0.3097 J1.557
G0 Z3.0
G0 X6.5388 Y132.6461
G0 Z0.0
G1 F300.0 Z-2.0
G1 F800.0 X7.0968 Y132.6095
G1 X7.6733 Y132.5336
G1 X7.7172 Y132.5154
G1 X7.7549 Y132.4865
G1 X7.7839 Y132.4488
G1 X7.802 Y132.4049
G1 X7.8083 Y132.3577
G1 X7.802 Y132.3106
G1 X7.7839 Y132.2667
G1 X7.7549 Y132.229
G1 X7.7172 Y132.2
G1 X7.6733 Y132.1818
G1 X7.0968 Y132.1059
G1 X6.5388 Y132.0694
G3 X5.8388 Y131.9772 I0.353 J-5.3859
G1 X5.117 Y131.8336
G3 X4.435 Y131.6509 I1.053 J-5.2938
G1 X4.2875 Y131.6008
G1 Y133.1146
G1 X4.435 Y133.0645
G3 X5.117 Y132.8818 I1.735 J5.1111
G1 X5.8388 Y132.7382
G3 X6.5388 Y132.6461 I1.053 J5.2938
G1 F300.0 X6.6219 Y133.9134
G1 F800.0 X7.2214 Y133.8741
G1 X8.0048 Y133.7709
G1 X8.3577 Y133.6248
G1 X8.6607 Y133.3923
G1 X8.8932 Y133.0892
G1 X9.0394 Y132.7364
G1 X9.0892 Y132.3577
G1 X9.0394 Y131.9791
G1 X8.8932 Y131.6262
G1 X8.6607 Y131.3232
G1 X8.3577 Y131.0907
G1 X8.0048 Y130.9445
G1 X7.2214 Y130.8414
G1 X6.6219 Y130.8021
G3 X6.0866 Y130.7316 I0.27 J-4.1187
G1 X5.3648 Y130.588
G3 X4.8433 Y130.4483 I0.8052 J-4.0482
G1 X4.1464 Y130.2117
G3 X3.6476 Y130.0051 I1.3267 J-3.9085
G1 X3.0175 Y129.6944
G1 Y135.021
G1 X3.6476 Y134.7103
G3 X4.1464 Y134.5037 I1.8255 J3.7018
G1 X4.8433 Y134.2671
G3 X5.3648 Y134.1274 I1.3267 J3.9085
G1 X6.0866 Y133.9838
G3 X6.6219 Y133.9134 I0.8052 J4.0482
G1 F300.0 X6.7049 Y135.1806
G1 F800.0 X7.3459 Y135.1386
G1 X8.3364 Y135.0082
G1 X8.9982 Y134.7341
G1 X9.5665 Y134.298
G1 X10.0025 Y133.7297
G1 X10.2767 Y133.0679
G1 X10.3702 Y132.3577
G1 X10.2767 Y131.6475
G1 X10.0025 Y130.9857
G1 X9.5665 Y130.4174
G1 X8.9982 Y129.9813
G1 X8.3364 Y129.7072
G1 X7.3459 Y129.5768
G1 X6.7049 Y129.5348
G3 X6.3343 Y129.486 I0.1869 J-2.8514
G1 X5.6125 Y129.3424
G3 X5.2515 Y129.2457 I0.5575 J-2.8026
G1 X4.5546 Y129.0091
G3 X4.2093 Y128.8661 I0.9185 J-2.7059
G1 X3.5492 Y128.5406
G3 X3.2255 Y128.3537 I1.2638 J-2.5628
G1 X2.6136 Y127.9449
G3 X2.3171 Y127.7173 I1.5875 J-2.3759
G1 X1.7638 Y127.2321
G3 X1.7475 Y127.2177 I1.8841 J-2.1484
G1 Y137.4978
G3 X1.7638 Y137.4834 I1.9004 J2.134
G1 X2.3171 Y136.9981
G3 X2.6136 Y136.7706 I1.8841 J2.1484
G1 X3.2255 Y136.3617
G3 X3.5492 Y136.1748 I1.5875 J2.3759
G1 X4.2093 Y135.8493
G3 X4.5546 Y135.7063 I1.2638 J2.5628
G1 X5.2515 Y135.4697
G3 X5.6125 Y135.373 I0.9185 J2.7059
G1 X6.3343 Y135.2294
G3 X6.7049 Y135.1806 I0.5575 J2.8026
G1 F300.0 X6.788 Y136.4479
G1 F800.0 X7.4705 Y136.4032
G1 X8.6679 Y136.2455
G1 X9.6386 Y135.8434
G1 X10.4722 Y135.2038
G1 X11.1119 Y134.3702
G1 X11.514 Y133.3995
G1 X11.6511 Y132.3577
G1 X11.514 Y131.316
G1 X11.1119 Y130.3452
G1 X10.4722 Y129.5116
G1 X9.6386 Y128.872
G1 X8.6679 Y128.4699
G1 X7.4705 Y128.3123
G1 X6.788 Y128.2675
G3 X6.5821 Y128.2404 I0.1038 J-1.5841
G1 X5.8603 Y128.0968
G3 X5.6597 Y128.0431 I0.3097 J-1.557
G1 X4.9628 Y127.8065
G3 X4.771 Y127.7271 I0.5103 J-1.5033
G1 X4.1109 Y127.4016
G3 X3.9311 Y127.2978 I0.7021 J-1.4238
G1 X3.3192 Y126.8889
G3 X3.1545 Y126.7625 I0.882 J-1.32
G1 X2.6012 Y126.2772
G3 X2.4543 Y126.1304 I1.0467 J-1.1935
G1 X1.9691 Y125.5771
G3 X1.8427 Y125.4124 I1.1935 J-1.0467
G1 X1.4338 Y124.8004
G3 X1.33 Y124.6206 I1.32 J-0.882
G1 X1.0045 Y123.9606
G3 X0.925 Y123.7687 I1.4238 J-0.7021
G1 X0.7792 Y123.3393
G1 X0.4775 Y122.9656
G1 Y142.2585
G1 X0.5742 Y142.1484
G1 X0.6347 Y141.8442
G3 X0.6885 Y141.6436 I1.557 J0.3097
G1 X0.925 Y140.9467
G3 X1.0045 Y140.7549 I1.5033 J0.5103
G1 X1.33 Y140.0948
G3 X1.4338 Y139.915 I1.4238 J0.7021
G1 X1.8427 Y139.3031
G3 X1.9691 Y139.1383 I1.32 J0.882
G1 X2.4543 Y138.585
G3 X2.6012 Y138.4382 I1.1935 J1.0467
G1 X3.1545 Y137.953
G3 X3.3192 Y137.8266 I1.0467 J1.1935
G1 X3.9311 Y137.4177
G3 X4.1109 Y137.3139 I0.882 J1.32
G1 X4.771 Y136.9884
G3 X4.9628 Y136.9089 I0.7021 J1.4238
G1 X5.6597 Y136.6723
G3 X5.8603 Y136.6186 I0.5103 J1.5033
G1 X6.5821 Y136.475
G3 X6.788 Y136.4479 I0.3097 J1.557
G0 Z3.0
G0 X6.5388 Y132.6461
G0 Z-1.0
G1 F300.0 Z-3.0
G1 F800.0 X7.0968 Y132.6095
G1 X7.6733 Y132.5336
G1 X7.7172 Y132.5154
G1 X7.7549 Y132.4865
G1 X7.7839 Y132.4488
G1 X7.802 Y132.4049
G1 X7.8083 Y132.3577
G1 X7.802 Y132.3106
G1 X7.7839 Y132.2667
G1 X7.7549 Y132.229
G1 X7.7172 Y132.2
G1 X7.6733 Y132.1818
G1 X7.0968 Y132.1059
G1 X6.5388 Y132.0694
G3 X5.8388 Y131.9772 I0.353 J-5.3859
G1 X5.117 Y131.8336
G3 X4.435 Y131.6509 I1.053 J-5.2938
G1 X4.2875 Y131.6008
G1 Y133.1146
G1 X4.435 Y133.0645
G3 X5.117 Y132.8818 I1.735 J5.1111
G1 X5.8388 Y132.7382
G3 X6.5388 Y132.6461 I1.053 J5.2938
G1 F300.0 X6.6219 Y133.9134
G1 F800.0 X7.2214 Y133.8741
G1 X8.0048 Y133.7709
G1 X8.3577 Y133.6248
G1 X8.6607 Y133.3923
G1 X8.8932 Y133.0892
G1 X9.0394 Y132.7364
G1 X9.0892 Y132.3577
G1 X9.0394 Y131.9791
G1 X8.8932 Y131.6262
G1 X8.6607 Y131.3232
G1 X8.3577 Y131.0907
G1 X8.0048 Y130.9445
G1 X7.2214 Y130.8414
G1 X6.6219 Y130.8021
G3 X6.0866 Y130.7316 I0.27 J-4.1187
G1 X5.3648 Y130.588
G3 X4.8433 Y130.4483 I0.8052 J-4.0482
G1 X4.1464 Y130.2117
G3 X3.6476 Y130.0051 I1.3267 J-3.9085
G1 X3.0175 Y129.6944
G1 Y135.021
G1 X3.6476 Y134.7103
G3 X4.1464 Y134.5037 I1.8255 J3.7018
G1 X4.8433 Y134.2671
G3 X5.3648 Y134.1274 I1.3267 J3.9085
G1 X6.0866 Y133.9838
G3 X6.6219 Y133.9134 I0.8052 J4.0482
G1 F300.0 X6.7049 Y135.1806
G1 F800.0 X7.3459 Y135.1386
G1 X8.3364 Y135.0082
G1 X8.9982 Y134.7341
G1 X9.5665 Y134.298
G1 X10.0025 Y133.7297
G1 X10.2767 Y133.0679
G1 X10.3702 Y132.3577
G1 X10.2767 Y131.6475
G1 X10.0025 Y130.9857
G1 X9.5665 Y130.4174
G1 X8.9982 Y129.9813
G1 X8.3364 Y129.7072
G1 X7.3459 Y129.5768
G1 X6.7049 Y129.5348
G3 X6.3343 Y129.486 I0.1869 J-2.8514
G1 X5.6125 Y129.3424
G3 X5.2515 Y129.2457 I0.5575 J-2.8026
G1 X4.5546 Y129.0091
G3 X4.2093 Y128.8661 I0.9185 J-2.7059
G1 X3.5492 Y128.5406
G3 X3.2255 Y128.3537 I1.2638 J-2.5628
G1 X2.6136 Y127.9449
G3 X2.3171 Y127.7173 I1.5875 J-2.3759
G1 X1.7638 Y127.2321
G3 X1.7475 Y127.2177 I1.8841 J-2.1484
G1 Y137.4978
G3 X1.7638 Y137.4834 I1.9004 J2.134
G1 X2.3171 Y136.9981
G3 X2.6136 Y136.7706 I1.8841 J2.1484
G1 X3.2255 Y136.3617
G3 X3.5492 Y136.1748 I1.5875 J2.3759
G1 X4.2093 Y135.8493
G3 X4.5546 Y135.7063 I1.2638 J2.5628
G1 X5.2515 Y135.4697
G3 X5.6125 Y135.373 I0.9185 J2.7059
G1 X6.3343 Y135.2294
G3 X6.7049 Y135.1806 I0.5575 J2.8026
G1 F300.0 X6.788 Y136.4479
G1 F800.0 X7.4705 Y136.4032
G1 X8.6679 Y136.2455
G1 X9.6386 Y135.8434
G1 X10.4722 Y135.2038
G1 X11.1119 Y134.3702
G1 X11.514 Y133.3995
G1 X11.6511 Y132.3577
G1 X11.514 Y131.316
G1 X11.1119 Y130.3452
G1 X10.4722 Y129.5116
G1 X9.6386 Y128.872
G1 X8.6679 Y128.4699
G1 X7.4705 Y128.3123
G1 X6.788 Y128.2675
G3 X6.5821 Y128.2404 I0.1038 J-1.5841
G1 X5.8603 Y128.0968
G3 X5.6597 Y128.0431 I0.3097 J-1.557
G1 X4.9628 Y127.8065
G3 X4.771 Y127.7271 I0.5103 J-1.5033
G1 X4.1109 Y127.4016
G3 X3.9311 Y127.2978 I0.7021 J-1.4238
G1 X3.3192 Y126.8889
G3 X3.1545 Y126.7625 I0.882 J-1.32
G1 X2.6012 Y126.2772
G3 X2.4543 Y126.1304 I1.0467 J-1.1935
G1 X1.9691 Y125.5771
G3 X1.8427 Y125.4124 I1.1935 J-1.0467
G1 X1.4338 Y124.8004
G3 X1.33 Y124.6206 I1.32 J-0.882
G1 X1.0045 Y123.9606
G3 X0.925 Y123.7687 I1.4238 J-0.7021
G1 X0.7792 Y123.3393
G1 X0.4775 Y122.9656
G1 Y142.2585
G1 X0.5742 Y142.1484
G1 X0.6347 Y141.8442
G3 X0.6885 Y141.6436 I1.557 J0.3097
G1 X0.925 Y140.9467
G3 X1.0045 Y140.7549 I1.5033 J0.5103
G1 X1.33 Y140.0948
G3 X1.4338 Y139.915 I1.4238 J0.7021
G1 X1.8427 Y139.3031
G3 X1.9691 Y139.1383 I1.32 J0.882
G1 X2.4543 Y138.585
G3 X2.6012 Y138.4382 I1.1935 J1.0467
G1 X3.1545 Y137.953
G3 X3.3192 Y137.8266 I1.0467 J1.1935
G1 X3.9311 Y137.4177
G3 X4.1109 Y137.3139 I0.882 J1.32
G1 X4.771 Y136.9884
G3 X4.9628 Y136.9089 I0.7021 J1.4238
G1 X5.6597 Y136.6723
G3 X5.8603 Y136.6186 I0.5103 J1.5033
G1 X6.5821 Y136.475
G3 X6.788 Y136.4479 I0.3097 J1.557
G0 Z3.0
G0 X4.2875 Y59.1109
G0 Z1.0
G1 F300.0 Z-1.0
G1 F800.0 X4.435 Y59.0608
G3 X5.117 Y58.8781 I1.735 J5.1111
G1 X5.8388 Y58.7345
G3 X6.5388 Y58.6423 I1.053 J5.2938
G1 X7.0968 Y58.6058
G1 X7.6733 Y58.5299
G1 X7.7172 Y58.5117
G1 X7.7549 Y58.4827
G1 X7.7839 Y58.445
G1 X7.802 Y58.4011
G1 X7.8083 Y58.354
G1 X7.802 Y58.3069
G1 X7.7839 Y58.2629
G1 X7.7549 Y58.2252
G1 X7.7172 Y58.1963
G1 X7.6733 Y58.1781
G1 X7.0968 Y58.1022
G1 X6.5388 Y58.0656
G3 X5.8388 Y57.9735 I0.353 J-5.3859
G1 X5.117 Y57.8299
G3 X4.435 Y57.6472 I1.053 J-5.2938
G1 X4.2875 Y57.5971
G1 Y59.1109
G1 F300.0 X3.0175
G1 F800.0 Y61.0173
G1 X3.6476 Y60.7066
G3 X4.1464 Y60.5 I1.8255 J3.7018
G1 X4.8433 Y60.2634
G3 X5.3648 Y60.1237 I1.3267 J3.9085
G1 X6.0866 Y59.9801
G3 X6.6219 Y59.9096 I0.8052 J4.0482
G1 X7.2214 Y59.8703
G1 X8.0048 Y59.7672
G1 X8.3577 Y59.621
G1 X8.6607 Y59.3885
G1 X8.8932 Y59.0855
G1 X9.0394 Y58.7326
G1 X9.0892 Y58.354
G1 X9.0394 Y57.9753
G1 X8.8932 Y57.6225
G1 X8.6607 Y57.3194
G1 X8.3577 Y57.0869
G1 X8.0048 Y56.9408
G1 X7.2214 Y56.8376
G1 X6.6219 Y56.7983
G3 X6.0866 Y56.7279 I0.27 J-4.1187
G1 X5.3648 Y56.5843
G3 X4.8433 Y56.4446 I0.8052 J-4.0482
G1 X4.1464 Y56.208
G3 X3.6476 Y56.0014 I1.3267 J-3.9085
G1 X3.0175 Y55.6907
G1 Y59.1109
G1 F300.0 X1.7475
G1 F800.0 Y63.494
G3 X1.7638 Y63.4796 I1.9004 J2.134
G1 X2.3171 Y62.9944
G3 X2.6136 Y62.7668 I1.8841 J2.1484
G1 X3.2255 Y62.358
G3 X3.5492 Y62.1711 I1.5875 J2.3759
G1 X4.2093 Y61.8456
G3 X4.5546 Y61.7026 I1.2638 J2.5628
G1 X5.2515 Y61.466
G3 X5.6125 Y61.3693 I0.9185 J2.7059
G1 X6.3343 Y61.2257
G3 X6.7049 Y61.1769 I0.5575 J2.8026
G1 X7.3459 Y61.1349
G1 X8.3364 Y61.0045
G1 X8.9982 Y60.7304
G1 X9.5665 Y60.2943
G1 X10.0025 Y59.726
G1 X10.2767 Y59.0642
G1 X10.3702 Y58.354
G1 X10.2767 Y57.6438
G1 X10.0025 Y56.982
G1 X9.5665 Y56.4137
G1 X8.9982 Y55.9776
G1 X8.3364 Y55.7035
G1 X7.3459 Y55.5731
G1 X6.7049 Y55.5311
G3 X6.3343 Y55.4823 I0.1869 J-2.8514
G1 X5.6125 Y55.3387
G3 X5.2515 Y55.242 I0.5575 J-2.8026
G1 X4.5546 Y55.0054
G3 X4.2093 Y54.8624 I0.9185 J-2.7059
G1 X3.5492 Y54.5369
G3 X3.2255 Y54.35 I1.2638 J-2.5628
G1 X2.6136 Y53.9411
G3 X2.3171 Y53.7136 I1.5875 J-2.3759
G1 X1.7638 Y53.2283
G3 X1.7475 Y53.2139 I1.8841 J-2.1484
G1 Y59.1109
G1 F300.0 X0.4775
G1 F800.0 Y68.355
G1 X0.5548 Y68.2424
G1 X0.6347 Y67.8404
G3 X0.6885 Y67.6399 I1.557 J0.3097
G1 X0.925 Y66.943
G3 X1.0045 Y66.7511 I1.5033 J0.5103
G1 X1.33 Y66.0911
G3 X1.4338 Y65.9113 I1.4238 J0.7021
G1 X1.8427 Y65.2993
G3 X1.9691 Y65.1346 I1.32 J0.882
G1 X2.4543 Y64.5813
G3 X2.6012 Y64.4345 I1.1935 J1.0467
G1 X3.1545 Y63.9492
G3 X3.3192 Y63.8228 I1.0467 J1.1935
G1 X3.9311 Y63.4139
G3 X4.1109 Y63.3101 I0.882 J1.32
G1 X4.771 Y62.9846
G3 X4.9628 Y62.9052 I0.7021 J1.4238
G1 X5.6597 Y62.6686
G3 X5.8603 Y62.6149 I0.5103 J1.5033
G1 X6.5821 Y62.4713
G3 X6.788 Y62.4442 I0.3097 J1.557
G1 X7.4705 Y62.3994
G1 X8.6679 Y62.2418
G1 X9.6386 Y61.8397
G1 X10.4722 Y61.2001
G1 X11.1119 Y60.3665
G1 X11.514 Y59.3957
G1 X11.6511 Y58.354
G1 X11.514 Y57.3122
G1 X11.1119 Y56.3415
G1 X10.4722 Y55.5079
G1 X9.6386 Y54.8683
G1 X8.6679 Y54.4662
G1 X7.4705 Y54.3085
G1 X6.788 Y54.2638
G3 X6.5821 Y54.2367 I0.1038 J-1.5841
G1 X5.8603 Y54.0931
G3 X5.6597 Y54.0394 I0.3097 J-1.557
G1 X4.9628 Y53.8028
G3 X4.771 Y53.7233 I0.5103 J-1.5033
G1 X4.1109 Y53.3978
G3 X3.9311 Y53.294 I0.7021 J-1.4238
G1 X3.3192 Y52.8851
G3 X3.1545 Y52.7587 I0.882 J-1.32
G1 X2.6012 Y52.2735
G3 X2.4543 Y52.1267 I1.0467 J-1.1935
G1 X1.9691 Y51.5734
G3 X1.8427 Y51.4086 I1.1935 J-1.0467
G1 X1.4338 Y50.7967
G3 X1.33 Y50.6169 I1.32 J-0.882
G1 X1.0045 Y49.9568
G3 X0.925 Y49.765 I1.4238 J-0.7021
G1 X0.7793 Y49.3359
G1 X0.4775 Y48.9624
G1 Y59.1109
G0 Z3.0
G0 X4.2875
G0 Z0.0
G1 F300.0 Z-2.0
G1 F800.0 X4.435 Y59.0608
G3 X5.117 Y58.8781 I1.735 J5.1111
G1 X5.8388 Y58.7345
G3 X6.5388 Y58.6423 I1.053 J5.2938
G1 X7.0968 Y58.6058
G1 X7.6733 Y58.5299
G1 X7.7172 Y58.5117
G1 X7.7549 Y58.4827
G1 X7.7839 Y58.445
G1 X7.802 Y58.4011
G1 X7.8083 Y58.354
G1 X7.802 Y58.3069
G1 X7.7839 Y58.2629
G1 X7.7549 Y58.2252
G1 X7.7172 Y58.1963
G1 X7.6733 Y58.1781
G1 X7.0968 Y58.1022
G1 X6.5388 Y58.0656
G3 X5.8388 Y57.9735 I0.353 J-5.3859
G1 X5.117 Y57.8299
G3 X4.435 Y57.6472 I1.053 J-5.2938
G1 X4.2875 Y57.5971
G1 Y59.1109
G1 F300.0 X3.0175
G1 F800.0 Y61.0173
G1 X3.6476 Y60.7066
G3 X4.1464 Y60.5 I1.8255 J3.7018
G1 X4.8433 Y60.2634
G3 X5.3648 Y60.1237 I1.3267 J3.9085
G1 X6.0866 Y59.9801
G3 X6.6219 Y59.9096 I0.8052 J4.0482
G1 X7.2214 Y59.8703
G1 X8.0048 Y59.7672
G1 X8.3577 Y59.621
G1 X8.6607 Y59.3885
G1 X8.8932 Y59.0855
G1 X9.0394 Y58.7326
G1 X9.0892 Y58.354
G1 X9.0394 Y57.9753
G1 X8.8932 Y57.6225
G1 X8.6607 Y57.3194
G1 X8.3577 Y57.0869
G1 X8.0048 Y56.9408
G1 X7.2214 Y56.8376
G1 X6.6219 Y56.7983
G3 X6.0866 Y56.7279 I0.27 J-4.1187
G1 X5.3648 Y56.5843
G3 X4.8433 Y56.4446 I0.8052 J-4.0482
G1 X4.1464 Y56.208
G3 X3.6476 Y56.0014 I1.3267 J-3.9085
G1 X3.0175 Y55.6907
G1 Y59.1109
G1 F300.0 X1.7475
G1 F800.0 Y63.494
G3 X1.7638 Y63.4796 I1.9004 J2.134
G1 X2.3171 Y62.9944
G3 X2.6136 Y62.7668 I1.8841 J2.1484
G1 X3.2255 Y62.358
G3 X3.5492 Y62.1711 I1.5875 J2.3759
G1 X4.2093 Y61.8456
G3 X4.5546 Y61.7026 I1.2638 J2.5628
G1 X5.2515 Y61.466
G3 X5.6125 Y61.3693 I0.9185 J2.7059
G1 X6.3343 Y61.2257
G3 X6.7049 Y61.1769 I0.5575 J2.8026
G1 X7.3459 Y61.1349
G1 X8.3364 Y61.0045
G1 X8.9982 Y60.7304
G1 X9.5665 Y60.2943
G1 X10.0025 Y59.726
G1 X10.2767 Y59.0642
G1 X10.3702 Y58.354
G1 X10.2767 Y57.6438
G1 X10.0025 Y56.982
G1 X9.5665 Y56.4137
G1 X8.9982 Y55.9776
G1 X8.3364 Y55.7035
G1 X7.3459 Y55.5731
G1 X6.7049 Y55.5311
G3 X6.3343 Y55.4823 I0.1869 J-2.8514
G1 X5.6125 Y55.3387
G3 X5.2515 Y55.242 I0.5575 J-2.8026
G1 X4.5546 Y55.0054
G3 X4.2093 Y54.8624 I0.9185 J-2.7059
G1 X3.5492 Y54.5369
G3 X3.2255 Y54.35 I1.2638 J-2.5628
G1 X2.6136 Y53.9411
G3 X2.3171 Y53.7136 I1.5875 J-2.3759
G1 X1.7638 Y53.2283
G3 X1.7475 Y53.2139 I1.8841 J-2.1484
G1 Y59.1109
G1 F300.0 X0.4775
G1 F800.0 Y68.355
G1 X0.5548 Y68.2424
G1 X0.6347 Y67.8404
G3 X0.6885 Y67.6399 I1.557 J0.3097
G1 X0.925 Y66.943
G3 X1.0045 Y66.7511 I1.5033 J0.5103
G1 X1.33 Y66.0911
G3 X1.4338 Y65.9113 I1.4238 J0.7021
G1 X1.8427 Y65.2993
G3 X1.9691 Y65.1346 I1.32 J0.882
G1 X2.4543 Y64.5813
G3 X2.6012 Y64.4345 I1.1935 J1.0467
G1 X3.1545 Y63.9492
G3 X3.3192 Y63.8228 I1.0467 J1.1935
G1 X3.9311 Y63.4139
G3 X4.1109 Y63.3101 I0.882 J1.32
G1 X4.771 Y62.9846
G3 X4.9628 Y62.9052 I0.7021 J1.4238
G1 X5.6597 Y62.6686
G3 X5.8603 Y62.6149 I0.5103 J1.5033
G1 X6.5821 Y62.4713
G3 X6.788 Y62.4442 I0.3097 J1.557
G1 X7.4705 Y62.3994
G1 X8.6679 Y62.2418
G1 X9.6386 Y61.8397
G1 X10.4722 Y61.2001
G1 X11.1119 Y60.3665
G1 X11.514 Y59.3957
G1 X11.6511 Y58.354
G1 X11.514 Y57.3122
G1 X11.1119 Y56.3415
G1 X10.4722 Y55.5079
G1 X9.6386 Y54.8683
G1 X8.6679 Y54.4662
G1 X7.4705 Y54.3085
G1 X6.788 Y54.2638
G3 X6.5821 Y54.2367 I0.1038 J-1.5841
G1 X5.8603 Y54.0931
G3 X5.6597 Y54.0394 I0.3097 J-1.557
G1 X4.9628 Y53.8028
G3 X4.771 Y53.7233 I0.5103 J-1.5033
G1 X4.1109 Y53.3978
G3 X3.9311 Y53.294 I0.7021 J-1.4238
G1 X3.3192 Y52.8851
G3 X3.1545 Y52.7587 I0.882 J-1.32
G1 X2.6012 Y52.2735
G3 X2.4543 Y52.1267 I1.0467 J-1.1935
G1 X1.9691 Y51.5734
G3 X1.8427 Y51.4086 I1.1935 J-1.0467
G1 X1.4338 Y50.7967
G3 X1.33 Y50.6169 I1.32 J-0.882
G1 X1.0045 Y49.9568
G3 X0.925 Y49.765 I1.4238 J-0.7021
G1 X0.7793 Y49.3359
G1 X0.4775 Y48.9624
G1 Y59.1109
G0 Z3.0
G0 X4.2875
G0 Z-1.0
G1 F300.0 Z-3.0
G1 F800.0 X4.435 Y59.0608
G3 X5.117 Y58.8781 I1.735 J5.1111
G1 X5.8388 Y58.7345
G3 X6.5388 Y58.6423 I1.053 J5.2938
G1 X7.0968 Y58.6058
G1 X7.6733 Y58.5299
G1 X7.7172 Y58.5117
G1 X7.7549 Y58.4827
G1 X7.7839 Y58.445
G1 X7.802 Y58.4011
G1 X7.8083 Y58.354
G1 X7.802 Y58.3069
G1 X7.7839 Y58.2629
G1 X7.7549 Y58.2252
G1 X7.7172 Y58.1963
G1 X7.6733 Y58.1781
G1 X7.0968 Y58.1022
G1 X6.5388 Y58.0656
G3 X5.8388 Y57.9735 I0.353 J-5.3859
G1 X5.117 Y57.8299
G3 X4.435 Y57.6472 I1.053 J-5.2938
G1 X4.2875 Y57.5971
G1 Y59.1109
G1 F300.0 X3.0175
G1 F800.0 Y61.0173
G1 X3.6476 Y60.7066
G3 X4.1464 Y60.5 I1.8255 J3.7018
G1 X4.8433 Y60.2634
G3 X5.3648 Y60.1237 I1.3267 J3.9085
G1 X6.0866 Y59.9801
G3 X6.6219 Y59.9096 I0.8052 J4.0482
G1 X7.2214 Y59.8703
G1 X8.0048 Y59.7672
G1 X8.3577 Y59.621
G1 X8.6607 Y59.3885
G1 X8.8932 Y59.0855
G1 X9.0394 Y58.7326
G1 X9.0892 Y58.354
G1 X9.0394 Y57.9753
G1 X8.8932 Y57.6225
G1 X8.6607 Y57.3194
G1 X8.3577 Y57.0869
G1 X8.0048 Y56.9408
G1 X7.2214 Y56.8376
G1 X6.6219 Y56.7983
G3 X6.0866 Y56.7279 I0.27 J-4.1187
G1 X5.3648 Y56.5843
G3 X4.8433 Y56.4446 I0.8052 J-4.0482
G1 X4.1464 Y56.208
G3 X3.6476 Y56.0014 I1.3267 J-3.9085
G1 X3.0175 Y55.6907
G1 Y59.1109
G1 F300.0 X1.7475
G1 F800.0 Y63.494
G3 X1.7638 Y63.4796 I1.9004 J2.134
G1 X2.3171 Y62.9944
G3 X2.6136 Y62.7668 I1.8841 J2.1484
G1 X3.2255 Y62.358
G3 X3.5492 Y62.1711 I1.5875 J2.3759
G1 X4.2093 Y61.8456
G3 X4.5546 Y61.7026 I1.2638 J2.5628
G1 X5.2515 Y61.466
G3 X5.6125 Y61.3693 I0.9185 J2.7059
G1 X6.3343 Y61.2257
G3 X6.7049 Y61.1769 I0.5575 J2.8026
G1 X7.3459 Y61.1349
G1 X8.3364 Y61.0045
G1 X8.9982 Y60.7304
G1 X9.5665 Y60.2943
G1 X10.0025 Y59.726
G1 X10.2767 Y59.0642
G1 X10.3702 Y58.354
G1 X10.2767 Y57.6438
G1 X10.0025 Y56.982
G1 X9.5665 Y56.4137
G1 X8.9982 Y55.9776
G1 X8.3364 Y55.7035
G1 X7.3459 Y55.5731
G1 X6.7049 Y55.5311
G3 X6.3343 Y55.4823 I0.1869 J-2.8514
G1 X5.6125 Y55.3387
G3 X5.2515 Y55.242 I0.5575 J-2.8026
G1 X4.5546 Y55.0054
G3 X4.2093 Y54.8624 I0.9185 J-2.7059
G1 X3.5492 Y54.5369
G3 X3.2255 Y54.35 I1.2638 J-2.5628
G1 X2.6136 Y53.9411
G3 X2.3171 Y53.7136 I1.5875 J-2.3759
G1 X1.7638 Y53.2283
G3 X1.7475 Y53.2139 I1.8841 J-2.1484
G1 Y59.1109
G1 F300.0 X0.4775
G1 F800.0 Y68.355
G1 X0.5548 Y68.2424
G1 X0.6347 Y67.8404
G3 X0.6885 Y67.6399 I1.557 J0.3097
G1 X0.925 Y66.943
G3 X1.0045 Y66.7511 I1.5033 J0.5103
G1 X1.33 Y66.0911
G3 X1.4338 Y65.9113 I1.4238 J0.7021
G1 X1.8427 Y65.2993
G3 X1.9691 Y65.1346 I1.32 J0.882
G1 X2.4543 Y64.5813
G3 X2.6012 Y64.4345 I1.1935 J1.0467
G1 X3.1545 Y63.9492
G3 X3.3192 Y63.8228 I1.0467 J1.1935
G1 X3.9311 Y63.4139
G3 X4.1109 Y63.3101 I0.882 J1.32
G1 X4.771 Y62.9846
G3 X4.9628 Y62.9052 I0.7021 J1.4238
G1 X5.6597 Y62.6686
G3 X5.8603 Y62.6149 I0.5103 J1.5033
G1 X6.5821 Y62.4713
G3 X6.788 Y62.4442 I0.3097 J1.557
G1 X7.4705 Y62.3994
G1 X8.6679 Y62.2418
G1 X9.6386 Y61.8397
G1 X10.4722 Y61.2001
G1 X11.1119 Y60.3665
G1 X11.514 Y59.3957
G1 X11.6511 Y58.354
G1 X11.514 Y57.3122
G1 X11.1119 Y56.3415
G1 X10.4722 Y55.5079
G1 X9.6386 Y54.8683
G1 X8.6679 Y54.4662
G1 X7.4705 Y54.3085
G1 X6.788 Y54.2638
G3 X6.5821 Y54.2367 I0.1038 J-1.5841
G1 X5.8603 Y54.0931
G3 X5.6597 Y54.0394 I0.3097 J-1.557
G1 X4.9628 Y53.8028
G3 X4.771 Y53.7233 I0.5103 J-1.5033
G1 X4.1109 Y53.3978
G3 X3.9311 Y53.294 I0.7021 J-1.4238
G1 X3.3192 Y52.8851
G3 X3.1545 Y52.7587 I0.882 J-1.32
G1 X2.6012 Y52.2735
G3 X2.4543 Y52.1267 I1.0467 J-1.1935
G1 X1.9691 Y51.5734
G3 X1.8427 Y51.4086 I1.1935 J-1.0467
G1 X1.4338 Y50.7967
G3 X1.33 Y50.6169 I1.32 J-0.882
G1 X1.0045 Y49.9568
G3 X0.925 Y49.765 I1.4238 J-0.7021
G1 X0.7793 Y49.3359
G1 X0.4775 Y48.9624
G1 Y59.1109
( Contour1 )
S1000
G0 Z3.0
G0 X19.9681 Y135.8249
G0 Z1.0
G1 F300.0 Z-1.0
G1 F800.0 X41.2931
G1 Y67.4999
G1 X19.9681
G1 Y135.8249
G1 F300.0 Z-2.0
G1 F800.0 X41.2931
G1 Y67.4999
G1 X19.9681
G1 Y135.8249
G1 F300.0 Z-3.0
G1 F800.0 X41.2931
G1 Y67.4999
G1 X19.9681
G1 Y135.8249
G1 F300.0 Z-4.0
G1 F800.0 X41.2931
G1 Y67.4999
G1 X19.9681
G1 Y135.8249
G1 F300.0 Z-5.0
G1 F800.0 X41.2931
G1 Y67.4999
G1 X19.9681
G1 Y135.8249
G1 F300.0 Z-6.0
G1 F800.0 X41.2931
G1 Y67.4999
G1 X19.9681
G1 Y135.8249
G0 Z3.0
G0 X30.6306 Y49.3022
G0 Z1.0
G1 F300.0 Z-1.0
G1 F800.0 X31.122 Y49.2375
G1 X31.58 Y49.0478
G1 X31.9732 Y48.746
G1 X32.275 Y48.3528
G1 X32.4647 Y47.8948
G1 X32.5294 Y47.4034
G1 X32.4647 Y46.9119
G1 X32.275 Y46.454
G1 X31.9732 Y46.0607
G1 X31.58 Y45.759
G1 X31.122 Y45.5693
G1 X30.6306 Y45.5046
G1 X30.1391 Y45.5693
G1 X29.6812 Y45.759
G1 X29.2879 Y46.0607
G1 X28.9862 Y46.454
G1 X28.7965 Y46.9119
G1 X28.7318 Y47.4034
G1 X28.7965 Y47.8948
G1 X28.9862 Y48.3528
G1 X29.2879 Y48.746
G1 X29.6812 Y49.0478
G1 X30.1391 Y49.2375
G1 X30.6306 Y49.3022
G1 F300.0 Z-2.0
G1 F800.0 X31.122 Y49.2375
G1 X31.58 Y49.0478
G1 X31.9732 Y48.746
G1 X32.275 Y48.3528
G1 X32.4647 Y47.8948
G1 X32.5294 Y47.4034
G1 X32.4647 Y46.9119
G1 X32.275 Y46.454
G1 X31.9732 Y46.0607
G1 X31.58 Y45.759
G1 X31.122 Y45.5693
G1 X30.6306 Y45.5046
G1 X30.1391 Y45.5693
G1 X29.6812 Y45.759
G1 X29.2879 Y46.0607
G1 X28.9862 Y46.454
G1 X28.7965 Y46.9119
G1 X28.7318 Y47.4034
G1 X28.7965 Y47.8948
G1 X28.9862 Y48.3528
G1 X29.2879 Y48.746
G1 X29.6812 Y49.0478
G1 X30.1391 Y49.2375
G1 X30.6306 Y49.3022
G1 F300.0 Z-3.0
G1 F800.0 X31.122 Y49.2375
G1 X31.58 Y49.0478
G1 X31.9732 Y48.746
G1 X32.275 Y48.3528
G1 X32.4647 Y47.8948
G1 X32.5294 Y47.4034
G1 X32.4647 Y46.9119
G1 X32.275 Y46.454
G1 X31.9732 Y46.0607
G1 X31.58 Y45.759
G1 X31.122 Y45.5693
G1 X30.6306 Y45.5046
G1 X30.1391 Y45.5693
G1 X29.6812 Y45.759
G1 X29.2879 Y46.0607
G1 X28.9862 Y46.454
G1 X28.7965 Y46.9119
G1 X28.7318 Y47.4034
G1 X28.7965 Y47.8948
G1 X28.9862 Y48.3528
G1 X29.2879 Y48.746
G1 X29.6812 Y49.0478
G1 X30.1391 Y49.2375
G1 X30.6306 Y49.3022
G1 F300.0 Z-4.0
G1 F800.0 X31.122 Y49.2375
G1 X31.58 Y49.0478
G1 X31.9732 Y48.746
G1 X32.275 Y48.3528
G1 X32.4647 Y47.8948
G1 X32.5294 Y47.4034
G1 X32.4647 Y46.9119
G1 X32.275 Y46.454
G1 X31.9732 Y46.0607
G1 X31.58 Y45.759
G1 X31.122 Y45.5693
G1 X30.6306 Y45.5046
G1 X30.1391 Y45.5693
G1 X29.6812 Y45.759
G1 X29.2879 Y46.0607
G1 X28.9862 Y46.454
G1 X28.7965 Y46.9119
G1 X28.7318 Y47.4034
G1 X28.7965 Y47.8948
G1 X28.9862 Y48.3528
G1 X29.2879 Y48.746
G1 X29.6812 Y49.0478
G1 X30.1391 Y49.2375
G1 X30.6306 Y49.3022
G1 F300.0 Z-5.0
G1 F800.0 X31.122 Y49.2375
G1 X31.58 Y49.0478
G1 X31.9732 Y48.746
G1 X32.275 Y48.3528
G1 X32.4647 Y47.8948
G1 X32.5294 Y47.4034
G1 X32.4647 Y46.9119
G1 X32.275 Y46.454
G1 X31.9732 Y46.0607
G1 X31.58 Y45.759
G1 X31.122 Y45.5693
G1 X30.6306 Y45.5046
G1 X30.1391 Y45.5693
G1 X29.6812 Y45.759
G1 X29.2879 Y46.0607
G1 X28.9862 Y46.454
G1 X28.7965 Y46.9119
G1 X28.7318 Y47.4034
G1 X28.7965 Y47.8948
G1 X28.9862 Y48.3528
G1 X29.2879 Y48.746
G1 X29.6812 Y49.0478
G1 X30.1391 Y49.2375
G1 X30.6306 Y49.3022
G1 F300.0 Z-6.0
G1 F800.0 X31.122 Y49.2375
G1 X31.58 Y49.0478
G1 X31.9732 Y48.746
G1 X32.275 Y48.3528
G1 X32.4647 Y47.8948
G1 X32.5294 Y47.4034
G1 X32.4647 Y46.9119
G1 X32.275 Y46.454
G1 X31.9732 Y46.0607
G1 X31.58 Y45.759
G1 X31.122 Y45.5693
G1 X30.6306 Y45.5046
G1 X30.1391 Y45.5693
G1 X29.6812 Y45.759
G1 X29.2879 Y46.0607
G1 X28.9862 Y46.454
G1 X28.7965 Y46.9119
G1 X28.7318 Y47.4034
G1 X28.7965 Y47.8948
G1 X28.9862 Y48.3528
G1 X29.2879 Y48.746
G1 X29.6812 Y49.0478
G1 X30.1391 Y49.2375
G1 X30.6306 Y49.3022
( Contour2 )
S1000
G0 Z3.0
G0 X41.9428 Y0.2115
G0 Z1.0
G1 F300.0 Z-1.0
G1 F800.0 X41.9998 Y0.1466
G3 X42.1466 Y-0.0002 I1.1935 J1.0467
G1 X42.2115 Y-0.0572
G3 X42.3762 Y-0.1836 I1.0467 J1.1935
G1 X42.448 Y-0.2315
G3 X42.9191 Y-0.445 I0.882 J1.32
G1 X43.2491 Y-0.5334
G3 X43.66 Y-0.5875 I0.4109 J1.5334
G1 X50.0
G3 X51.5875 Y1.0 I0.0 J1.5875
G1 Y8.0
G3 X50.0 Y9.5875 I-1.5875 J0.0
G1 X48.0875
G1 Y42.5134
G1 X48.4125 Y42.5348
G1 Y14.0
G3 X50.0 Y12.4125 I1.5875 J0.0
G1 X58.25
G3 X59.8375 Y14.0 I0.0 J1.5875
G1 Y89.4125
G1 X71.25
G3 X72.8375 Y91.0 I0.0 J1.5875
G1 Y99.0
G3 X71.25 Y100.5875 I-1.5875 J0.0
G1 X59.8375
G1 Y176.0
G3 X58.25 Y177.5875 I-1.5875 J0.0
G1 X50.0
G3 X48.4125 Y176.0 I0.0 J-1.5875
G1 Y147.5875
G1 X48.0875
G1 Y180.4125
G1 X50.0
G3 X51.5875 Y182.0 I0.0 J1.5875
G1 Y189.0
G3 X50.0 Y190.5875 I-1.5875 J0.0
G1 X43.0
G3 X41.4125 Y189.0 I0.0 J-1.5875
G1 Y147.5875
G1 X41.0875
G1 Y176.0
G3 X39.5 Y177.5875 I-1.5875 J0.0
G1 X36.0
G3 X34.4125 Y176.0 I0.0 J-1.5875
G1 Y174.5875
G1 X34.0875
G1 Y189.0
G3 X32.5 Y190.5875 I-1.5875 J0.0
G1 X24.5
G3 X22.9125 Y189.0 I0.0 J-1.5875
G1 Y174.5875
G1 X22.5875
G1 Y176.0
G3 X21.0 Y177.5875 I-1.5875 J0.0
G1 X17.5
G3 X15.9125 Y176.0 I0.0 J-1.5875
G1 Y147.5875
G1 X15.5875
G1 Y188.34
G3 X15.5334 Y188.7509 I-1.5875 J0.0
G1 X15.445 Y189.0809
G3 X15.2315 Y189.552 I-1.5334 J-0.4109
G1 X15.1836 Y189.6238
G3 X15.0572 Y189.7885 I-1.32 J-0.882
G1 X15.0002 Y189.8534
G3 X14.8534 Y190.0002 I-1.1935 J-1.0467
G1 X14.7885 Y190.0572
G3 X14.6238 Y190.1836 I-1.0467 J-1.1935
G1 X14.552 Y190.2315
G3 X14.0809 Y190.445 I-0.882 J-1.32
G1 X13.7509 Y190.5334
G3 X13.34 Y190.5875 I-0.4109 J-1.5334
G1 X7.0
G3 X5.4125 Y189.0 I0.0 J-1.5875
G1 Y182.0
G3 X7.0 Y180.4125 I1.5875 J0.0
G1 X8.9125
G1 Y147.4866
G1 X8.5875 Y147.4652
G1 Y176.0
G3 X7.0 Y177.5875 I-1.5875 J0.0
G1 X2.0
G3 X0.4125 Y176.0 I0.0 J-1.5875
G1 Y143.6101
G1 Y121.8398
G1 Y121.1054
G1 Y69.6063
G1 Y47.836
G1 Y47.1017
G1 Y14.0
G3 X2.0 Y12.4125 I1.5875 J0.0
G1 X7.0
G3 X8.5875 Y14.0 I0.0 J1.5875
G1 Y42.4125
G1 X8.9125
G1 Y9.5875
G1 X7.0
G3 X5.4125 Y8.0 I0.0 J-1.5875
G1 Y1.0
G3 X7.0 Y-0.5875 I1.5875 J0.0
G1 X14.0
G3 X15.5875 Y1.0 I0.0 J1.5875
G1 Y42.4125
G1 X15.9125
G1 Y14.0
G3 X17.5 Y12.4125 I1.5875 J0.0
G1 X21.0
G3 X22.5875 Y14.0 I0.0 J1.5875
G1 Y15.4125
G1 X22.9125
G1 Y1.0
G3 X24.5 Y-0.5875 I1.5875 J0.0
G1 X32.5
G3 X34.0875 Y1.0 I0.0 J1.5875
G1 Y15.4125
G1 X34.4125
G1 Y14.0
G3 X36.0 Y12.4125 I1.5875 J0.0
G1 X39.5
G3 X41.0875 Y14.0 I0.0 J1.5875
G1 Y42.4125
G1 X41.4125
G1 Y1.66
G3 X41.4666 Y1.2491 I1.5875 J0.0
G1 X41.555 Y0.9191
G3 X41.7685 Y0.448 I1.5334 J0.4109
G1 X41.8164 Y0.3762
G3 X41.9428 Y0.2115 I1.32 J0.882
G1 F300.0 Z-2.0
G1 F800.0 X41.9998 Y0.1466
G3 X42.1466 Y-0.0002 I1.1935 J1.0467
G1 X42.2115 Y-0.0572
G3 X42.3762 Y-0.1836 I1.0467 J1.1935
G1 X42.448 Y-0.2315
G3 X42.9191 Y-0.445 I0.882 J1.32
G1 X43.2491 Y-0.5334
G3 X43.66 Y-0.5875 I0.4109 J1.5334
G1 X50.0
G3 X51.5875 Y1.0 I0.0 J1.5875
G1 Y8.0
G3 X50.0 Y9.5875 I-1.5875 J0.0
G1 X48.0875
G1 Y42.5134
G1 X48.4125 Y42.5348
G1 Y14.0
G3 X50.0 Y12.4125 I1.5875 J0.0
G1 X58.25
G3 X59.8375 Y14.0 I0.0 J1.5875
G1 Y89.4125
G1 X71.25
G3 X72.8375 Y91.0 I0.0 J1.5875
G1 Y99.0
G3 X71.25 Y100.5875 I-1.5875 J0.0
G1 X59.8375
G1 Y176.0
G3 X58.25 Y177.5875 I-1.5875 J0.0
G1 X50.0
G3 X48.4125 Y176.0 I0.0 J-1.5875
G1 Y147.5875
G1 X48.0875
G1 Y180.4125
G1 X50.0
G3 X51.5875 Y182.0 I0.0 J1.5875
G1 Y189.0
G3 X50.0 Y190.5875 I-1.5875 J0.0
G1 X43.0
G3 X41.4125 Y189.0 I0.0 J-1.5875
G1 Y147.5875
G1 X41.0875
G1 Y176.0
G3 X39.5 Y177.5875 I-1.5875 J0.0
G1 X36.0
G3 X34.4125 Y176.0 I0.0 J-1.5875
G1 Y174.5875
G1 X34.0875
G1 Y189.0
G3 X32.5 Y190.5875 I-1.5875 J0.0
G1 X24.5
G3 X22.9125 Y189.0 I0.0 J-1.5875
G1 Y174.5875
G1 X22.5875
G1 Y176.0
G3 X21.0 Y177.5875 I-1.5875 J0.0
G1 X17.5
G3 X15.9125 Y176.0 I0.0 J-1.5875
G1 Y147.5875
G1 X15.5875
G1 Y188.34
G3 X15.5334 Y188.7509 I-1.5875 J0.0
G1 X15.445 Y189.0809
G3 X15.2315 Y189.552 I-1.5334 J-0.4109
G1 X15.1836 Y189.6238
G3 X15.0572 Y189.7885 I-1.32 J-0.882
G1 X15.0002 Y189.8534
G3 X14.8534 Y190.0002 I-1.1935 J-1.0467
G1 X14.7885 Y190.0572
G3 X14.6238 Y190.1836 I-1.0467 J-1.1935
G1 X14.552 Y190.2315
G3 X14.0809 Y190.445 I-0.882 J-1.32
G1 X13.7509 Y190.5334
G3 X13.34 Y190.5875 I-0.4109 J-1.5334
G1 X7.0
G3 X5.4125 Y189.0 I0.0 J-1.5875
G1 Y182.0
G3 X7.0 Y180.4125 I1.5875 J0.0
G1 X8.9125
G1 Y147.4866
G1 X8.5875 Y147.4652
G1 Y176.0
G3 X7.0 Y177.5875 I-1.5875 J0.0
G1 X2.0
G3 X0.4125 Y176.0 I0.0 J-1.5875
G1 Y143.6101
G1 Y121.8398
G1 Y121.1054
G1 Y69.6063
G1 Y47.836
G1 Y47.1017
G1 Y14.0
G3 X2.0 Y12.4125 I1.5875 J0.0
G1 X7.0
G3 X8.5875 Y14.0 I0.0 J1.5875
G1 Y42.4125
G1 X8.9125
G1 Y9.5875
G1 X7.0
G3 X5.4125 Y8.0 I0.0 J-1.5875
G1 Y1.0
G3 X7.0 Y-0.5875 I1.5875 J0.0
G1 X14.0
G3 X15.5875 Y1.0 I0.0 J1.5875
G1 Y42.4125
G1 X15.9125
G1 Y14.0
G3 X17.5 Y12.4125 I1.5875 J0.0
G1 X21.0
G3 X22.5875 Y14.0 I0.0 J1.5875
G1 Y15.4125
G1 X22.9125
G1 Y1.0
G3 X24.5 Y-0.5875 I1.5875 J0.0
G1 X32.5
G3 X34.0875 Y1.0 I0.0 J1.5875
G1 Y15.4125
G1 X34.4125
G1 Y14.0
G3 X36.0 Y12.4125 I1.5875 J0.0
G1 X39.5
G3 X41.0875 Y14.0 I0.0 J1.5875
G1 Y42.4125
G1 X41.4125
G1 Y1.66
G3 X41.4666 Y1.2491 I1.5875 J0.0
G1 X41.555 Y0.9191
G3 X41.7685 Y0.448 I1.5334 J0.4109
G1 X41.8164 Y0.3762
G3 X41.9428 Y0.2115 I1.32 J0.882
G1 F300.0 Z-3.0
G1 F800.0 X41.9998 Y0.1466
G3 X42.1466 Y-0.0002 I1.1935 J1.0467
G1 X42.2115 Y-0.0572
G3 X42.3762 Y-0.1836 I1.0467 J1.1935
G1 X42.448 Y-0.2315
G3 X42.9191 Y-0.445 I0.882 J1.32
G1 X43.2491 Y-0.5334
G3 X43.66 Y-0.5875 I0.4109 J1.5334
G1 X50.0
G3 X51.5875 Y1.0 I0.0 J1.5875
G1 Y8.0
G3 X50.0 Y9.5875 I-1.5875 J0.0
G1 X48.0875
G1 Y42.5134
G1 X48.4125 Y42.5348
G1 Y14.0
G3 X50.0 Y12.4125 I1.5875 J0.0
G1 X58.25
G3 X59.8375 Y14.0 I0.0 J1.5875
G1 Y89.4125
G1 X71.25
G3 X72.8375 Y91.0 I0.0 J1.5875
G1 Y99.0
G3 X71.25 Y100.5875 I-1.5875 J0.0
G1 X59.8375
G1 Y176.0
G3 X58.25 Y177.5875 I-1.5875 J0.0
G1 X50.0
G3 X48.4125 Y176.0 I0.0 J-1.5875
G1 Y147.5875
G1 X48.0875
G1 Y180.4125
G1 X50.0
G3 X51.5875 Y182.0 I0.0 J1.5875
G1 Y189.0
G3 X50.0 Y190.5875 I-1.5875 J0.0
G1 X43.0
G3 X41.4125 Y189.0 I0.0 J-1.5875
G1 Y147.5875
G1 X41.0875
G1 Y176.0
G3 X39.5 Y177.5875 I-1.5875 J0.0
G1 X36.0
G3 X34.4125 Y176.0 I0.0 J-1.5875
G1 Y174.5875
G1 X34.0875
G1 Y189.0
G3 X32.5 Y190.5875 I-1.5875 J0.0
G1 X24.5
G3 X22.9125 Y189.0 I0.0 J-1.5875
G1 Y174.5875
G1 X22.5875
G1 Y176.0
G3 X21.0 Y177.5875 I-1.5875 J0.0
G1 X17.5
G3 X15.9125 Y176.0 I0.0 J-1.5875
G1 Y147.5875
G1 X15.5875
G1 Y188.34
G3 X15.5334 Y188.7509 I-1.5875 J0.0
G1 X15.445 Y189.0809
G3 X15.2315 Y189.552 I-1.5334 J-0.4109
G1 X15.1836 Y189.6238
G3 X15.0572 Y189.7885 I-1.32 J-0.882
G1 X15.0002 Y189.8534
G3 X14.8534 Y190.0002 I-1.1935 J-1.0467
G1 X14.7885 Y190.0572
G3 X14.6238 Y190.1836 I-1.0467 J-1.1935
G1 X14.552 Y190.2315
G3 X14.0809 Y190.445 I-0.882 J-1.32
G1 X13.7509 Y190.5334
G3 X13.34 Y190.5875 I-0.4109 J-1.5334
G1 X7.0
G3 X5.4125 Y189.0 I0.0 J-1.5875
G1 Y182.0
G3 X7.0 Y180.4125 I1.5875 J0.0
G1 X8.9125
G1 Y147.4866
G1 X8.5875 Y147.4652
G1 Y176.0
G3 X7.0 Y177.5875 I-1.5875 J0.0
G1 X2.0
G3 X0.4125 Y176.0 I0.0 J-1.5875
G1 Y143.6101
G1 Y121.8398
G1 Y121.1054
G1 Y69.6063
G1 Y47.836
G1 Y47.1017
G1 Y14.0
G3 X2.0 Y12.4125 I1.5875 J0.0
G1 X7.0
G3 X8.5875 Y14.0 I0.0 J1.5875
G1 Y42.4125
G1 X8.9125
G1 Y9.5875
G1 X7.0
G3 X5.4125 Y8.0 I0.0 J-1.5875
G1 Y1.0
G3 X7.0 Y-0.5875 I1.5875 J0.0
G1 X14.0
G3 X15.5875 Y1.0 I0.0 J1.5875
G1 Y42.4125
G1 X15.9125
G1 Y14.0
G3 X17.5 Y12.4125 I1.5875 J0.0
G1 X21.0
G3 X22.5875 Y14.0 I0.0 J1.5875
G1 Y15.4125
G1 X22.9125
G1 Y1.0
G3 X24.5 Y-0.5875 I1.5875 J0.0
G1 X32.5
G3 X34.0875 Y1.0 I0.0 J1.5875
G1 Y15.4125
G1 X34.4125
G1 Y14.0
G3 X36.0 Y12.4125 I1.5875 J0.0
G1 X39.5
G3 X41.0875 Y14.0 I0.0 J1.5875
G1 Y42.4125
G1 X41.4125
G1 Y1.66
G3 X41.4666 Y1.2491 I1.5875 J0.0
G1 X41.555 Y0.9191
G3 X41.7685 Y0.448 I1.5334 J0.4109
G1 X41.8164 Y0.3762
G3 X41.9428 Y0.2115 I1.32 J0.882
G1 F300.0 Z-4.0
G1 F800.0 X41.9998 Y0.1466
G3 X42.1466 Y-0.0002 I1.1935 J1.0467
G1 X42.2115 Y-0.0572
G3 X42.3762 Y-0.1836 I1.0467 J1.1935
G1 X42.448 Y-0.2315
G3 X42.9191 Y-0.445 I0.882 J1.32
G1 X43.2491 Y-0.5334
G3 X43.66 Y-0.5875 I0.4109 J1.5334
G1 X50.0
G3 X51.5875 Y1.0 I0.0 J1.5875
G1 Y8.0
G3 X50.0 Y9.5875 I-1.5875 J0.0
G1 X48.0875
G1 Y42.5134
G1 X48.4125 Y42.5348
G1 Y14.0
G3 X50.0 Y12.4125 I1.5875 J0.0
G1 X58.25
G3 X59.8375 Y14.0 I0.0 J1.5875
G1 Y89.4125
G1 X71.25
G3 X72.8375 Y91.0 I0.0 J1.5875
G1 Y99.0
G3 X71.25 Y100.5875 I-1.5875 J0.0
G1 X59.8375
G1 Y176.0
G3 X58.25 Y177.5875 I-1.5875 J0.0
G1 X50.0
G3 X48.4125 Y176.0 I0.0 J-1.5875
G1 Y147.5875
G1 X48.0875
G1 Y180.4125
G1 X50.0
G3 X51.5875 Y182.0 I0.0 J1.5875
G1 Y189.0
G3 X50.0 Y190.5875 I-1.5875 J0.0
G1 X43.0
G3 X41.4125 Y189.0 I0.0 J-1.5875
G1 Y147.5875
G1 X41.0875
G1 Y176.0
G3 X39.5 Y177.5875 I-1.5875 J0.0
G1 X36.0
G3 X34.4125 Y176.0 I0.0 J-1.5875
G1 Y174.5875
G1 X34.0875
G1 Y189.0
G3 X32.5 Y190.5875 I-1.5875 J0.0
G1 X24.5
G3 X22.9125 Y189.0 I0.0 J-1.5875
G1 Y174.5875
G1 X22.5875
G1 Y176.0
G3 X21.0 Y177.5875 I-1.5875 J0.0
G1 X17.5
G3 X15.9125 Y176.0 I0.0 J-1.5875
G1 Y147.5875
G1 X15.5875
G1 Y188.34
G3 X15.5334 Y188.7509 I-1.5875 J0.0
G1 X15.445 Y189.0809
G3 X15.2315 Y189.552 I-1.5334 J-0.4109
G1 X15.1836 Y189.6238
G3 X15.0572 Y189.7885 I-1.32 J-0.882
G1 X15.0002 Y189.8534
G3 X14.8534 Y190.0002 I-1.1935 J-1.0467
G1 X14.7885 Y190.0572
G3 X14.6238 Y190.1836 I-1.0467 J-1.1935
G1 X14.552 Y190.2315
G3 X14.0809 Y190.445 I-0.882 J-1.32
G1 X13.7509 Y190.5334
G3 X13.34 Y190.5875 I-0.4109 J-1.5334
G1 X7.0
G3 X5.4125 Y189.0 I0.0 J-1.5875
G1 Y182.0
G3 X7.0 Y180.4125 I1.5875 J0.0
G1 X8.9125
G1 Y147.4866
G1 X8.5875 Y147.4652
G1 Y176.0
G3 X7.0 Y177.5875 I-1.5875 J0.0
G1 X2.0
G3 X0.4125 Y176.0 I0.0 J-1.5875
G1 Y143.6101
G1 Y121.8398
G1 Y121.1054
G1 Y69.6063
G1 Y47.836
G1 Y47.1017
G1 Y14.0
G3 X2.0 Y12.4125 I1.5875 J0.0
G1 X7.0
G3 X8.5875 Y14.0 I0.0 J1.5875
G1 Y42.4125
G1 X8.9125
G1 Y9.5875
G1 X7.0
G3 X5.4125 Y8.0 I0.0 J-1.5875
G1 Y1.0
G3 X7.0 Y-0.5875 I1.5875 J0.0
G1 X14.0
G3 X15.5875 Y1.0 I0.0 J1.5875
G1 Y42.4125
G1 X15.9125
G1 Y14.0
G3 X17.5 Y12.4125 I1.5875 J0.0
G1 X21.0
G3 X22.5875 Y14.0 I0.0 J1.5875
G1 Y15.4125
G1 X22.9125
G1 Y1.0
G3 X24.5 Y-0.5875 I1.5875 J0.0
G1 X32.5
G3 X34.0875 Y1.0 I0.0 J1.5875
G1 Y15.4125
G1 X34.4125
G1 Y14.0
G3 X36.0 Y12.4125 I1.5875 J0.0
G1 X39.5
G3 X41.0875 Y14.0 I0.0 J1.5875
G1 Y42.4125
G1 X41.4125
G1 Y1.66
G3 X41.4666 Y1.2491 I1.5875 J0.0
G1 X41.555 Y0.9191
G3 X41.7685 Y0.448 I1.5334 J0.4109
G1 X41.8164 Y0.3762
G3 X41.9428 Y0.2115 I1.32 J0.882
G1 F300.0 Z-5.0
G1 F800.0 X41.9998 Y0.1466
G3 X42.1466 Y-0.0002 I1.1935 J1.0467
G1 X42.2115 Y-0.0572
G3 X42.3762 Y-0.1836 I1.0467 J1.1935
G1 X42.448 Y-0.2315
G3 X42.9191 Y-0.445 I0.882 J1.32
G1 X43.2491 Y-0.5334
G3 X43.66 Y-0.5875 I0.4109 J1.5334
G1 X50.0
G3 X51.5875 Y1.0 I0.0 J1.5875
G1 Y8.0
G3 X50.0 Y9.5875 I-1.5875 J0.0
G1 X48.0875
G1 Y42.5134
G1 X48.4125 Y42.5348
G1 Y14.0
G3 X50.0 Y12.4125 I1.5875 J0.0
G1 X58.25
G3 X59.8375 Y14.0 I0.0 J1.5875
G1 Y89.4125
G1 X71.25
G3 X72.8375 Y91.0 I0.0 J1.5875
G1 Y99.0
G3 X71.25 Y100.5875 I-1.5875 J0.0
G1 X59.8375
G1 Y176.0
G3 X58.25 Y177.5875 I-1.5875 J0.0
G1 X50.0
G3 X48.4125 Y176.0 I0.0 J-1.5875
G1 Y147.5875
G1 X48.0875
G1 Y180.4125
G1 X50.0
G3 X51.5875 Y182.0 I0.0 J1.5875
G1 Y189.0
G3 X50.0 Y190.5875 I-1.5875 J0.0
G1 X43.0
G3 X41.4125 Y189.0 I0.0 J-1.5875
G1 Y147.5875
G1 X41.0875
G1 Y176.0
G3 X39.5 Y177.5875 I-1.5875 J0.0
G1 X36.0
G3 X34.4125 Y176.0 I0.0 J-1.5875
G1 Y174.5875
G1 X34.0875
G1 Y189.0
G3 X32.5 Y190.5875 I-1.5875 J0.0
G1 X24.5
G3 X22.9125 Y189.0 I0.0 J-1.5875
G1 Y174.5875
G1 X22.5875
G1 Y176.0
G3 X21.0 Y177.5875 I-1.5875 J0.0
G1 X17.5
G3 X15.9125 Y176.0 I0.0 J-1.5875
G1 Y147.5875
G1 X15.5875
G1 Y188.34
G3 X15.5334 Y188.7509 I-1.5875 J0.0
G1 X15.445 Y189.0809
G3 X15.2315 Y189.552 I-1.5334 J-0.4109
G1 X15.1836 Y189.6238
G3 X15.0572 Y189.7885 I-1.32 J-0.882
G1 X15.0002 Y189.8534
G3 X14.8534 Y190.0002 I-1.1935 J-1.0467
G1 X14.7885 Y190.0572
G3 X14.6238 Y190.1836 I-1.0467 J-1.1935
G1 X14.552 Y190.2315
G3 X14.0809 Y190.445 I-0.882 J-1.32
G1 X13.7509 Y190.5334
G3 X13.34 Y190.5875 I-0.4109 J-1.5334
G1 X7.0
G3 X5.4125 Y189.0 I0.0 J-1.5875
G1 Y182.0
G3 X7.0 Y180.4125 I1.5875 J0.0
G1 X8.9125
G1 Y147.4866
G1 X8.5875 Y147.4652
G1 Y176.0
G3 X7.0 Y177.5875 I-1.5875 J0.0
G1 X2.0
G3 X0.4125 Y176.0 I0.0 J-1.5875
G1 Y143.6101
G1 Y121.8398
G1 Y121.1054
G1 Y69.6063
G1 Y47.836
G1 Y47.1017
G1 Y14.0
G3 X2.0 Y12.4125 I1.5875 J0.0
G1 X7.0
G3 X8.5875 Y14.0 I0.0 J1.5875
G1 Y42.4125
G1 X8.9125
G1 Y9.5875
G1 X7.0
G3 X5.4125 Y8.0 I0.0 J-1.5875
G1 Y1.0
G3 X7.0 Y-0.5875 I1.5875 J0.0
G1 X14.0
G3 X15.5875 Y1.0 I0.0 J1.5875
G1 Y42.4125
G1 X15.9125
G1 Y14.0
G3 X17.5 Y12.4125 I1.5875 J0.0
G1 X21.0
G3 X22.5875 Y14.0 I0.0 J1.5875
G1 Y15.4125
G1 X22.9125
G1 Y1.0
G3 X24.5 Y-0.5875 I1.5875 J0.0
G1 X32.5
G3 X34.0875 Y1.0 I0.0 J1.5875
G1 Y15.4125
G1 X34.4125
G1 Y14.0
G3 X36.0 Y12.4125 I1.5875 J0.0
G1 X39.5
G3 X41.0875 Y14.0 I0.0 J1.5875
G1 Y42.4125
G1 X41.4125
G1 Y1.66
G3 X41.4666 Y1.2491 I1.5875 J0.0
G1 X41.555 Y0.9191
G3 X41.7685 Y0.448 I1.5334 J0.4109
G1 X41.8164 Y0.3762
G3 X41.9428 Y0.2115 I1.32 J0.882
G1 F300.0 Z-6.0
G1 F800.0 X41.9998 Y0.1466
G3 X42.1466 Y-0.0002 I1.1935 J1.0467
G1 X42.2115 Y-0.0572
G3 X42.3762 Y-0.1836 I1.0467 J1.1935
G1 X42.448 Y-0.2315
G3 X42.9191 Y-0.445 I0.882 J1.32
G1 X43.2491 Y-0.5334
G3 X43.66 Y-0.5875 I0.4109 J1.5334
G1 X50.0
G3 X51.5875 Y1.0 I0.0 J1.5875
G1 Y8.0
G3 X50.0 Y9.5875 I-1.5875 J0.0
G1 X48.0875
G1 Y42.5134
G1 X48.4125 Y42.5348
G1 Y14.0
G3 X50.0 Y12.4125 I1.5875 J0.0
G1 X58.25
G3 X59.8375 Y14.0 I0.0 J1.5875
G1 Y89.4125
G1 X71.25
G3 X72.8375 Y91.0 I0.0 J1.5875
G1 Y99.0
G3 X71.25 Y100.5875 I-1.5875 J0.0
G1 X59.8375
G1 Y176.0
G3 X58.25 Y177.5875 I-1.5875 J0.0
G1 X50.0
G3 X48.4125 Y176.0 I0.0 J-1.5875
G1 Y147.5875
G1 X48.0875
G1 Y180.4125
G1 X50.0
G3 X51.5875 Y182.0 I0.0 J1.5875
G1 Y189.0
G3 X50.0 Y190.5875 I-1.5875 J0.0
G1 X43.0
G3 X41.4125 Y189.0 I0.0 J-1.5875
G1 Y147.5875
G1 X41.0875
G1 Y176.0
G3 X39.5 Y177.5875 I-1.5875 J0.0
G1 X36.0
G3 X34.4125 Y176.0 I0.0 J-1.5875
G1 Y174.5875
G1 X34.0875
G1 Y189.0
G3 X32.5 Y190.5875 I-1.5875 J0.0
G1 X24.5
G3 X22.9125 Y189.0 I0.0 J-1.5875
G1 Y174.5875
G1 X22.5875
G1 Y176.0
G3 X21.0 Y177.5875 I-1.5875 J0.0
G1 X17.5
G3 X15.9125 Y176.0 I0.0 J-1.5875
G1 Y147.5875
G1 X15.5875
G1 Y188.34
G3 X15.5334 Y188.7509 I-1.5875 J0.0
G1 X15.445 Y189.0809
G3 X15.2315 Y189.552 I-1.5334 J-0.4109
G1 X15.1836 Y189.6238
G3 X15.0572 Y189.7885 I-1.32 J-0.882
G1 X15.0002 Y189.8534
G3 X14.8534 Y190.0002 I-1.1935 J-1.0467
G1 X14.7885 Y190.0572
G3 X14.6238 Y190.1836 I-1.0467 J-1.1935
G1 X14.552 Y190.2315
G3 X14.0809 Y190.445 I-0.882 J-1.32
G1 X13.7509 Y190.5334
G3 X13.34 Y190.5875 I-0.4109 J-1.5334
G1 X7.0
G3 X5.4125 Y189.0 I0.0 J-1.5875
G1 Y182.0
G3 X7.0 Y180.4125 I1.5875 J0.0
G1 X8.9125
G1 Y147.4866
G1 X8.5875 Y147.4652
G1 Y176.0
G3 X7.0 Y177.5875 I-1.5875 J0.0
G1 X2.0
G3 X0.4125 Y176.0 I0.0 J-1.5875
G1 Y143.6101
G1 Y121.8398
G1 Y121.1054
G1 Y69.6063
G1 Y47.836
G1 Y47.1017
G1 Y14.0
G3 X2.0 Y12.4125 I1.5875 J0.0
G1 X7.0
G3 X8.5875 Y14.0 I0.0 J1.5875
G1 Y42.4125
G1 X8.9125
G1 Y9.5875
G1 X7.0
G3 X5.4125 Y8.0 I0.0 J-1.5875
G1 Y1.0
G3 X7.0 Y-0.5875 I1.5875 J0.0
G1 X14.0
G3 X15.5875 Y1.0 I0.0 J1.5875
G1 Y42.4125
G1 X15.9125
G1 Y14.0
G3 X17.5 Y12.4125 I1.5875 J0.0
G1 X21.0
G3 X22.5875 Y14.0 I0.0 J1.5875
G1 Y15.4125
G1 X22.9125
G1 Y1.0
G3 X24.5 Y-0.5875 I1.5875 J0.0
G1 X32.5
G3 X34.0875 Y1.0 I0.0 J1.5875
G1 Y15.4125
G1 X34.4125
G1 Y14.0
G3 X36.0 Y12.4125 I1.5875 J0.0
G1 X39.5
G3 X41.0875 Y14.0 I0.0 J1.5875
G1 Y42.4125
G1 X41.4125
G1 Y1.66
G3 X41.4666 Y1.2491 I1.5875 J0.0
G1 X41.555 Y0.9191
G3 X41.7685 Y0.448 I1.5334 J0.4109
G1 X41.8164 Y0.3762
G3 X41.9428 Y0.2115 I1.32 J0.882
G0 Z3.0
M5
M30
