( Made using CamBam - http://www.cambam.co.uk )
( structure_top1 5/19/2016 11:12:55 PM )
( T4 : 3.175 )
G21 G90 G64 G40
G0 Z3.0
( T4 : 3.175 )
T4 M6
( Contour1 )
G17
M3 S1000
G0 X19.9925 Y188.5268
G0 Z1.0
G1 F300.0 Z-1.0
G1 F800.0 Y181.5268
G3 X21.58 Y179.9393 I1.5875 J0.0
G1 X23.4925
G1 Y147.0134
G1 X23.1675 Y146.9921
G1 Y175.5268
G3 X21.58 Y177.1143 I-1.5875 J0.0
G1 X13.33
G3 X11.7425 Y175.5268 I0.0 J-1.5875
G1 Y116.0268
G3 X13.33 Y114.4393 I1.5875 J0.0
G1 X41.7425
G1 Y114.1143
G1 X8.9175
G1 Y116.0268
G3 X7.33 Y117.6143 I-1.5875 J0.0
G1 X0.33
G3 X-1.2575 Y116.0268 I0.0 J-1.5875
G1 Y109.0268
G3 X0.33 Y107.4393 I1.5875 J0.0
G1 X41.7425
G1 Y107.1143
G1 X13.33
G3 X11.7425 Y105.5268 I0.0 J-1.5875
G1 Y102.0268
G3 X13.33 Y100.4393 I1.5875 J0.0
G1 X14.7425
G1 Y100.1143
G1 X0.33
G3 X-1.2575 Y98.5268 I0.0 J-1.5875
G1 Y90.5268
G3 X0.33 Y88.9393 I1.5875 J0.0
G1 X14.7425
G1 Y88.6143
G1 X13.33
G3 X11.7425 Y87.0268 I0.0 J-1.5875
G1 Y83.5268
G3 X13.33 Y81.9393 I1.5875 J0.0
G1 X41.7425
G1 Y81.6143
G1 X0.99
G3 X0.5791 Y81.5602 I0.0 J-1.5875
G1 X0.2491 Y81.4718
G3 X-0.222 Y81.2584 I0.4109 J-1.5334
G1 X-0.2938 Y81.2104
G3 X-0.4585 Y81.084 I0.882 J-1.32
G1 X-0.5234 Y81.0271
G3 X-0.6702 Y80.8802 I1.0467 J-1.1935
G1 X-0.7272 Y80.8153
G3 X-0.8536 Y80.6506 I1.1935 J-1.0467
G1 X-0.9015 Y80.5788
G3 X-1.115 Y80.1077 I1.32 J-0.882
G1 X-1.2034 Y79.7777
G3 X-1.2575 Y79.3668 I1.5334 J-0.4109
G1 Y73.0268
G3 X0.33 Y71.4393 I1.5875 J0.0
G1 X7.33
G3 X8.9175 Y73.0268 I0.0 J1.5875
G1 Y74.9393
G1 X41.8434
G1 X41.8648 Y74.6143
G1 X13.33
G3 X11.7425 Y73.0268 I0.0 J-1.5875
G1 Y13.5268
G3 X13.33 Y11.9393 I1.5875 J0.0
G1 X21.58
G3 X23.1675 Y13.5268 I0.0 J1.5875
G1 Y41.9393
G1 X23.4925
G1 Y9.1143
G1 X21.58
G3 X19.9925 Y7.5268 I0.0 J-1.5875
G1 Y0.5268
G3 X21.58 Y-1.0607 I1.5875 J0.0
G1 X28.58
G3 X30.1675 Y0.5268 I0.0 J1.5875
G1 Y41.9393
G1 X30.4925
G1 Y13.5268
G3 X32.08 Y11.9393 I1.5875 J0.0
G1 X35.58
G3 X37.1675 Y13.5268 I0.0 J1.5875
G1 Y14.9393
G1 X37.4925
G1 Y0.5268
G3 X39.08 Y-1.0607 I1.5875 J0.0
G1 X47.08
G3 X48.6675 Y0.5268 I0.0 J1.5875
G1 Y14.9393
G1 X48.9925
G1 Y13.5268
G3 X50.58 Y11.9393 I1.5875 J0.0
G1 X54.08
G3 X55.6675 Y13.5268 I0.0 J1.5875
G1 Y41.9393
G1 X55.9925
G1 Y1.1868
G3 X56.0466 Y0.776 I1.5875 J0.0
G1 X56.135 Y0.446
G3 X56.3485 Y-0.0251 I1.5334 J0.4109
G1 X56.3964 Y-0.0969
G3 X56.5228 Y-0.2617 I1.32 J0.882
G1 X56.5798 Y-0.3266
G3 X56.7266 Y-0.4734 I1.1935 J1.0467
G1 X56.7915 Y-0.5303
G3 X56.9562 Y-0.6567 I1.0467 J1.1935
G1 X57.028 Y-0.7047
G3 X57.4991 Y-0.9182 I0.882 J1.32
G1 X57.8291 Y-1.0066
G3 X58.24 Y-1.0607 I0.4109 J1.5334
G1 X64.58
G3 X66.1675 Y0.5268 I0.0 J1.5875
G1 Y7.5268
G3 X64.58 Y9.1143 I-1.5875 J0.0
G1 X62.6675
G1 Y42.0402
G1 X62.9925 Y42.0616
G1 Y13.5268
G3 X64.58 Y11.9393 I1.5875 J0.0
G1 X69.58
G3 X71.1675 Y13.5268 I0.0 J1.5875
G1 Y47.3628
G1 Y69.1331
G1 Y69.8675
G1 Y121.3666
G1 Y143.8712
G1 Y175.5268
G3 X69.58 Y177.1143 I-1.5875 J0.0
G1 X64.58
G3 X62.9925 Y175.5268 I0.0 J-1.5875
G1 Y147.1143
G1 X62.6675
G1 Y179.9393
G1 X64.58
G3 X66.1675 Y181.5268 I0.0 J1.5875
G1 Y188.5268
G3 X64.58 Y190.1143 I-1.5875 J0.0
G1 X57.58
G3 X55.9925 Y188.5268 I0.0 J-1.5875
G1 Y147.1143
G1 X55.6675
G1 Y175.5268
G3 X54.08 Y177.1143 I-1.5875 J0.0
G1 X50.58
G3 X48.9925 Y175.5268 I0.0 J-1.5875
G1 Y174.1143
G1 X48.6675
G1 Y188.5268
G3 X47.08 Y190.1143 I-1.5875 J0.0
G1 X39.08
G3 X37.4925 Y188.5268 I0.0 J-1.5875
G1 Y174.1143
G1 X37.1675
G1 Y175.5268
G3 X35.58 Y177.1143 I-1.5875 J0.0
G1 X32.08
G3 X30.4925 Y175.5268 I0.0 J-1.5875
G1 Y147.1143
G1 X30.1675
G1 Y187.8668
G3 X30.1134 Y188.2777 I-1.5875 J0.0
G1 X30.025 Y188.6077
G3 X29.8115 Y189.0788 I-1.5334 J-0.4109
G1 X29.7636 Y189.1506
G3 X29.6372 Y189.3153 I-1.32 J-0.882
G1 X29.5802 Y189.3802
G3 X29.4334 Y189.5271 I-1.1935 J-1.0467
G1 X29.3685 Y189.584
G3 X29.2038 Y189.7104 I-1.0467 J-1.1935
G1 X29.132 Y189.7584
G3 X28.6609 Y189.9718 I-0.882 J-1.32
G1 X28.3309 Y190.0602
G3 X27.92 Y190.1143 I-0.4109 J-1.5334
G1 X21.58
G3 X19.9925 Y188.5268 I0.0 J-1.5875
G1 F300.0 Z-2.0
G1 F800.0 Y181.5268
G3 X21.58 Y179.9393 I1.5875 J0.0
G1 X23.4925
G1 Y147.0134
G1 X23.1675 Y146.9921
G1 Y175.5268
G3 X21.58 Y177.1143 I-1.5875 J0.0
G1 X13.33
G3 X11.7425 Y175.5268 I0.0 J-1.5875
G1 Y116.0268
G3 X13.33 Y114.4393 I1.5875 J0.0
G1 X41.7425
G1 Y114.1143
G1 X8.9175
G1 Y116.0268
G3 X7.33 Y117.6143 I-1.5875 J0.0
G1 X0.33
G3 X-1.2575 Y116.0268 I0.0 J-1.5875
G1 Y109.0268
G3 X0.33 Y107.4393 I1.5875 J0.0
G1 X41.7425
G1 Y107.1143
G1 X13.33
G3 X11.7425 Y105.5268 I0.0 J-1.5875
G1 Y102.0268
G3 X13.33 Y100.4393 I1.5875 J0.0
G1 X14.7425
G1 Y100.1143
G1 X0.33
G3 X-1.2575 Y98.5268 I0.0 J-1.5875
G1 Y90.5268
G3 X0.33 Y88.9393 I1.5875 J0.0
G1 X14.7425
G1 Y88.6143
G1 X13.33
G3 X11.7425 Y87.0268 I0.0 J-1.5875
G1 Y83.5268
G3 X13.33 Y81.9393 I1.5875 J0.0
G1 X41.7425
G1 Y81.6143
G1 X0.99
G3 X0.5791 Y81.5602 I0.0 J-1.5875
G1 X0.2491 Y81.4718
G3 X-0.222 Y81.2584 I0.4109 J-1.5334
G1 X-0.2938 Y81.2104
G3 X-0.4585 Y81.084 I0.882 J-1.32
G1 X-0.5234 Y81.0271
G3 X-0.6702 Y80.8802 I1.0467 J-1.1935
G1 X-0.7272 Y80.8153
G3 X-0.8536 Y80.6506 I1.1935 J-1.0467
G1 X-0.9015 Y80.5788
G3 X-1.115 Y80.1077 I1.32 J-0.882
G1 X-1.2034 Y79.7777
G3 X-1.2575 Y79.3668 I1.5334 J-0.4109
G1 Y73.0268
G3 X0.33 Y71.4393 I1.5875 J0.0
G1 X7.33
G3 X8.9175 Y73.0268 I0.0 J1.5875
G1 Y74.9393
G1 X41.8434
G1 X41.8648 Y74.6143
G1 X13.33
G3 X11.7425 Y73.0268 I0.0 J-1.5875
G1 Y13.5268
G3 X13.33 Y11.9393 I1.5875 J0.0
G1 X21.58
G3 X23.1675 Y13.5268 I0.0 J1.5875
G1 Y41.9393
G1 X23.4925
G1 Y9.1143
G1 X21.58
G3 X19.9925 Y7.5268 I0.0 J-1.5875
G1 Y0.5268
G3 X21.58 Y-1.0607 I1.5875 J0.0
G1 X28.58
G3 X30.1675 Y0.5268 I0.0 J1.5875
G1 Y41.9393
G1 X30.4925
G1 Y13.5268
G3 X32.08 Y11.9393 I1.5875 J0.0
G1 X35.58
G3 X37.1675 Y13.5268 I0.0 J1.5875
G1 Y14.9393
G1 X37.4925
G1 Y0.5268
G3 X39.08 Y-1.0607 I1.5875 J0.0
G1 X47.08
G3 X48.6675 Y0.5268 I0.0 J1.5875
G1 Y14.9393
G1 X48.9925
G1 Y13.5268
G3 X50.58 Y11.9393 I1.5875 J0.0
G1 X54.08
G3 X55.6675 Y13.5268 I0.0 J1.5875
G1 Y41.9393
G1 X55.9925
G1 Y1.1868
G3 X56.0466 Y0.776 I1.5875 J0.0
G1 X56.135 Y0.446
G3 X56.3485 Y-0.0251 I1.5334 J0.4109
G1 X56.3964 Y-0.0969
G3 X56.5228 Y-0.2617 I1.32 J0.882
G1 X56.5798 Y-0.3266
G3 X56.7266 Y-0.4734 I1.1935 J1.0467
G1 X56.7915 Y-0.5303
G3 X56.9562 Y-0.6567 I1.0467 J1.1935
G1 X57.028 Y-0.7047
G3 X57.4991 Y-0.9182 I0.882 J1.32
G1 X57.8291 Y-1.0066
G3 X58.24 Y-1.0607 I0.4109 J1.5334
G1 X64.58
G3 X66.1675 Y0.5268 I0.0 J1.5875
G1 Y7.5268
G3 X64.58 Y9.1143 I-1.5875 J0.0
G1 X62.6675
G1 Y42.0402
G1 X62.9925 Y42.0616
G1 Y13.5268
G3 X64.58 Y11.9393 I1.5875 J0.0
G1 X69.58
G3 X71.1675 Y13.5268 I0.0 J1.5875
G1 Y47.3628
G1 Y69.1331
G1 Y69.8675
G1 Y121.3666
G1 Y143.8712
G1 Y175.5268
G3 X69.58 Y177.1143 I-1.5875 J0.0
G1 X64.58
G3 X62.9925 Y175.5268 I0.0 J-1.5875
G1 Y147.1143
G1 X62.6675
G1 Y179.9393
G1 X64.58
G3 X66.1675 Y181.5268 I0.0 J1.5875
G1 Y188.5268
G3 X64.58 Y190.1143 I-1.5875 J0.0
G1 X57.58
G3 X55.9925 Y188.5268 I0.0 J-1.5875
G1 Y147.1143
G1 X55.6675
G1 Y175.5268
G3 X54.08 Y177.1143 I-1.5875 J0.0
G1 X50.58
G3 X48.9925 Y175.5268 I0.0 J-1.5875
G1 Y174.1143
G1 X48.6675
G1 Y188.5268
G3 X47.08 Y190.1143 I-1.5875 J0.0
G1 X39.08
G3 X37.4925 Y188.5268 I0.0 J-1.5875
G1 Y174.1143
G1 X37.1675
G1 Y175.5268
G3 X35.58 Y177.1143 I-1.5875 J0.0
G1 X32.08
G3 X30.4925 Y175.5268 I0.0 J-1.5875
G1 Y147.1143
G1 X30.1675
G1 Y187.8668
G3 X30.1134 Y188.2777 I-1.5875 J0.0
G1 X30.025 Y188.6077
G3 X29.8115 Y189.0788 I-1.5334 J-0.4109
G1 X29.7636 Y189.1506
G3 X29.6372 Y189.3153 I-1.32 J-0.882
G1 X29.5802 Y189.3802
G3 X29.4334 Y189.5271 I-1.1935 J-1.0467
G1 X29.3685 Y189.584
G3 X29.2038 Y189.7104 I-1.0467 J-1.1935
G1 X29.132 Y189.7584
G3 X28.6609 Y189.9718 I-0.882 J-1.32
G1 X28.3309 Y190.0602
G3 X27.92 Y190.1143 I-0.4109 J-1.5334
G1 X21.58
G3 X19.9925 Y188.5268 I0.0 J-1.5875
G1 F300.0 Z-3.0
G1 F800.0 Y181.5268
G3 X21.58 Y179.9393 I1.5875 J0.0
G1 X23.4925
G1 Y147.0134
G1 X23.1675 Y146.9921
G1 Y175.5268
G3 X21.58 Y177.1143 I-1.5875 J0.0
G1 X13.33
G3 X11.7425 Y175.5268 I0.0 J-1.5875
G1 Y116.0268
G3 X13.33 Y114.4393 I1.5875 J0.0
G1 X41.7425
G1 Y114.1143
G1 X8.9175
G1 Y116.0268
G3 X7.33 Y117.6143 I-1.5875 J0.0
G1 X0.33
G3 X-1.2575 Y116.0268 I0.0 J-1.5875
G1 Y109.0268
G3 X0.33 Y107.4393 I1.5875 J0.0
G1 X41.7425
G1 Y107.1143
G1 X13.33
G3 X11.7425 Y105.5268 I0.0 J-1.5875
G1 Y102.0268
G3 X13.33 Y100.4393 I1.5875 J0.0
G1 X14.7425
G1 Y100.1143
G1 X0.33
G3 X-1.2575 Y98.5268 I0.0 J-1.5875
G1 Y90.5268
G3 X0.33 Y88.9393 I1.5875 J0.0
G1 X14.7425
G1 Y88.6143
G1 X13.33
G3 X11.7425 Y87.0268 I0.0 J-1.5875
G1 Y83.5268
G3 X13.33 Y81.9393 I1.5875 J0.0
G1 X41.7425
G1 Y81.6143
G1 X0.99
G3 X0.5791 Y81.5602 I0.0 J-1.5875
G1 X0.2491 Y81.4718
G3 X-0.222 Y81.2584 I0.4109 J-1.5334
G1 X-0.2938 Y81.2104
G3 X-0.4585 Y81.084 I0.882 J-1.32
G1 X-0.5234 Y81.0271
G3 X-0.6702 Y80.8802 I1.0467 J-1.1935
G1 X-0.7272 Y80.8153
G3 X-0.8536 Y80.6506 I1.1935 J-1.0467
G1 X-0.9015 Y80.5788
G3 X-1.115 Y80.1077 I1.32 J-0.882
G1 X-1.2034 Y79.7777
G3 X-1.2575 Y79.3668 I1.5334 J-0.4109
G1 Y73.0268
G3 X0.33 Y71.4393 I1.5875 J0.0
G1 X7.33
G3 X8.9175 Y73.0268 I0.0 J1.5875
G1 Y74.9393
G1 X41.8434
G1 X41.8648 Y74.6143
G1 X13.33
G3 X11.7425 Y73.0268 I0.0 J-1.5875
G1 Y13.5268
G3 X13.33 Y11.9393 I1.5875 J0.0
G1 X21.58
G3 X23.1675 Y13.5268 I0.0 J1.5875
G1 Y41.9393
G1 X23.4925
G1 Y9.1143
G1 X21.58
G3 X19.9925 Y7.5268 I0.0 J-1.5875
G1 Y0.5268
G3 X21.58 Y-1.0607 I1.5875 J0.0
G1 X28.58
G3 X30.1675 Y0.5268 I0.0 J1.5875
G1 Y41.9393
G1 X30.4925
G1 Y13.5268
G3 X32.08 Y11.9393 I1.5875 J0.0
G1 X35.58
G3 X37.1675 Y13.5268 I0.0 J1.5875
G1 Y14.9393
G1 X37.4925
G1 Y0.5268
G3 X39.08 Y-1.0607 I1.5875 J0.0
G1 X47.08
G3 X48.6675 Y0.5268 I0.0 J1.5875
G1 Y14.9393
G1 X48.9925
G1 Y13.5268
G3 X50.58 Y11.9393 I1.5875 J0.0
G1 X54.08
G3 X55.6675 Y13.5268 I0.0 J1.5875
G1 Y41.9393
G1 X55.9925
G1 Y1.1868
G3 X56.0466 Y0.776 I1.5875 J0.0
G1 X56.135 Y0.446
G3 X56.3485 Y-0.0251 I1.5334 J0.4109
G1 X56.3964 Y-0.0969
G3 X56.5228 Y-0.2617 I1.32 J0.882
G1 X56.5798 Y-0.3266
G3 X56.7266 Y-0.4734 I1.1935 J1.0467
G1 X56.7915 Y-0.5303
G3 X56.9562 Y-0.6567 I1.0467 J1.1935
G1 X57.028 Y-0.7047
G3 X57.4991 Y-0.9182 I0.882 J1.32
G1 X57.8291 Y-1.0066
G3 X58.24 Y-1.0607 I0.4109 J1.5334
G1 X64.58
G3 X66.1675 Y0.5268 I0.0 J1.5875
G1 Y7.5268
G3 X64.58 Y9.1143 I-1.5875 J0.0
G1 X62.6675
G1 Y42.0402
G1 X62.9925 Y42.0616
G1 Y13.5268
G3 X64.58 Y11.9393 I1.5875 J0.0
G1 X69.58
G3 X71.1675 Y13.5268 I0.0 J1.5875
G1 Y47.3628
G1 Y69.1331
G1 Y69.8675
G1 Y121.3666
G1 Y143.8712
G1 Y175.5268
G3 X69.58 Y177.1143 I-1.5875 J0.0
G1 X64.58
G3 X62.9925 Y175.5268 I0.0 J-1.5875
G1 Y147.1143
G1 X62.6675
G1 Y179.9393
G1 X64.58
G3 X66.1675 Y181.5268 I0.0 J1.5875
G1 Y188.5268
G3 X64.58 Y190.1143 I-1.5875 J0.0
G1 X57.58
G3 X55.9925 Y188.5268 I0.0 J-1.5875
G1 Y147.1143
G1 X55.6675
G1 Y175.5268
G3 X54.08 Y177.1143 I-1.5875 J0.0
G1 X50.58
G3 X48.9925 Y175.5268 I0.0 J-1.5875
G1 Y174.1143
G1 X48.6675
G1 Y188.5268
G3 X47.08 Y190.1143 I-1.5875 J0.0
G1 X39.08
G3 X37.4925 Y188.5268 I0.0 J-1.5875
G1 Y174.1143
G1 X37.1675
G1 Y175.5268
G3 X35.58 Y177.1143 I-1.5875 J0.0
G1 X32.08
G3 X30.4925 Y175.5268 I0.0 J-1.5875
G1 Y147.1143
G1 X30.1675
G1 Y187.8668
G3 X30.1134 Y188.2777 I-1.5875 J0.0
G1 X30.025 Y188.6077
G3 X29.8115 Y189.0788 I-1.5334 J-0.4109
G1 X29.7636 Y189.1506
G3 X29.6372 Y189.3153 I-1.32 J-0.882
G1 X29.5802 Y189.3802
G3 X29.4334 Y189.5271 I-1.1935 J-1.0467
G1 X29.3685 Y189.584
G3 X29.2038 Y189.7104 I-1.0467 J-1.1935
G1 X29.132 Y189.7584
G3 X28.6609 Y189.9718 I-0.882 J-1.32
G1 X28.3309 Y190.0602
G3 X27.92 Y190.1143 I-0.4109 J-1.5334
G1 X21.58
G3 X19.9925 Y188.5268 I0.0 J-1.5875
G1 F300.0 Z-4.0
G1 F800.0 Y181.5268
G3 X21.58 Y179.9393 I1.5875 J0.0
G1 X23.4925
G1 Y147.0134
G1 X23.1675 Y146.9921
G1 Y175.5268
G3 X21.58 Y177.1143 I-1.5875 J0.0
G1 X13.33
G3 X11.7425 Y175.5268 I0.0 J-1.5875
G1 Y116.0268
G3 X13.33 Y114.4393 I1.5875 J0.0
G1 X41.7425
G1 Y114.1143
G1 X8.9175
G1 Y116.0268
G3 X7.33 Y117.6143 I-1.5875 J0.0
G1 X0.33
G3 X-1.2575 Y116.0268 I0.0 J-1.5875
G1 Y109.0268
G3 X0.33 Y107.4393 I1.5875 J0.0
G1 X41.7425
G1 Y107.1143
G1 X13.33
G3 X11.7425 Y105.5268 I0.0 J-1.5875
G1 Y102.0268
G3 X13.33 Y100.4393 I1.5875 J0.0
G1 X14.7425
G1 Y100.1143
G1 X0.33
G3 X-1.2575 Y98.5268 I0.0 J-1.5875
G1 Y90.5268
G3 X0.33 Y88.9393 I1.5875 J0.0
G1 X14.7425
G1 Y88.6143
G1 X13.33
G3 X11.7425 Y87.0268 I0.0 J-1.5875
G1 Y83.5268
G3 X13.33 Y81.9393 I1.5875 J0.0
G1 X41.7425
G1 Y81.6143
G1 X0.99
G3 X0.5791 Y81.5602 I0.0 J-1.5875
G1 X0.2491 Y81.4718
G3 X-0.222 Y81.2584 I0.4109 J-1.5334
G1 X-0.2938 Y81.2104
G3 X-0.4585 Y81.084 I0.882 J-1.32
G1 X-0.5234 Y81.0271
G3 X-0.6702 Y80.8802 I1.0467 J-1.1935
G1 X-0.7272 Y80.8153
G3 X-0.8536 Y80.6506 I1.1935 J-1.0467
G1 X-0.9015 Y80.5788
G3 X-1.115 Y80.1077 I1.32 J-0.882
G1 X-1.2034 Y79.7777
G3 X-1.2575 Y79.3668 I1.5334 J-0.4109
G1 Y73.0268
G3 X0.33 Y71.4393 I1.5875 J0.0
G1 X7.33
G3 X8.9175 Y73.0268 I0.0 J1.5875
G1 Y74.9393
G1 X41.8434
G1 X41.8648 Y74.6143
G1 X13.33
G3 X11.7425 Y73.0268 I0.0 J-1.5875
G1 Y13.5268
G3 X13.33 Y11.9393 I1.5875 J0.0
G1 X21.58
G3 X23.1675 Y13.5268 I0.0 J1.5875
G1 Y41.9393
G1 X23.4925
G1 Y9.1143
G1 X21.58
G3 X19.9925 Y7.5268 I0.0 J-1.5875
G1 Y0.5268
G3 X21.58 Y-1.0607 I1.5875 J0.0
G1 X28.58
G3 X30.1675 Y0.5268 I0.0 J1.5875
G1 Y41.9393
G1 X30.4925
G1 Y13.5268
G3 X32.08 Y11.9393 I1.5875 J0.0
G1 X35.58
G3 X37.1675 Y13.5268 I0.0 J1.5875
G1 Y14.9393
G1 X37.4925
G1 Y0.5268
G3 X39.08 Y-1.0607 I1.5875 J0.0
G1 X47.08
G3 X48.6675 Y0.5268 I0.0 J1.5875
G1 Y14.9393
G1 X48.9925
G1 Y13.5268
G3 X50.58 Y11.9393 I1.5875 J0.0
G1 X54.08
G3 X55.6675 Y13.5268 I0.0 J1.5875
G1 Y41.9393
G1 X55.9925
G1 Y1.1868
G3 X56.0466 Y0.776 I1.5875 J0.0
G1 X56.135 Y0.446
G3 X56.3485 Y-0.0251 I1.5334 J0.4109
G1 X56.3964 Y-0.0969
G3 X56.5228 Y-0.2617 I1.32 J0.882
G1 X56.5798 Y-0.3266
G3 X56.7266 Y-0.4734 I1.1935 J1.0467
G1 X56.7915 Y-0.5303
G3 X56.9562 Y-0.6567 I1.0467 J1.1935
G1 X57.028 Y-0.7047
G3 X57.4991 Y-0.9182 I0.882 J1.32
G1 X57.8291 Y-1.0066
G3 X58.24 Y-1.0607 I0.4109 J1.5334
G1 X64.58
G3 X66.1675 Y0.5268 I0.0 J1.5875
G1 Y7.5268
G3 X64.58 Y9.1143 I-1.5875 J0.0
G1 X62.6675
G1 Y42.0402
G1 X62.9925 Y42.0616
G1 Y13.5268
G3 X64.58 Y11.9393 I1.5875 J0.0
G1 X69.58
G3 X71.1675 Y13.5268 I0.0 J1.5875
G1 Y47.3628
G1 Y69.1331
G1 Y69.8675
G1 Y121.3666
G1 Y143.8712
G1 Y175.5268
G3 X69.58 Y177.1143 I-1.5875 J0.0
G1 X64.58
G3 X62.9925 Y175.5268 I0.0 J-1.5875
G1 Y147.1143
G1 X62.6675
G1 Y179.9393
G1 X64.58
G3 X66.1675 Y181.5268 I0.0 J1.5875
G1 Y188.5268
G3 X64.58 Y190.1143 I-1.5875 J0.0
G1 X57.58
G3 X55.9925 Y188.5268 I0.0 J-1.5875
G1 Y147.1143
G1 X55.6675
G1 Y175.5268
G3 X54.08 Y177.1143 I-1.5875 J0.0
G1 X50.58
G3 X48.9925 Y175.5268 I0.0 J-1.5875
G1 Y174.1143
G1 X48.6675
G1 Y188.5268
G3 X47.08 Y190.1143 I-1.5875 J0.0
G1 X39.08
G3 X37.4925 Y188.5268 I0.0 J-1.5875
G1 Y174.1143
G1 X37.1675
G1 Y175.5268
G3 X35.58 Y177.1143 I-1.5875 J0.0
G1 X32.08
G3 X30.4925 Y175.5268 I0.0 J-1.5875
G1 Y147.1143
G1 X30.1675
G1 Y187.8668
G3 X30.1134 Y188.2777 I-1.5875 J0.0
G1 X30.025 Y188.6077
G3 X29.8115 Y189.0788 I-1.5334 J-0.4109
G1 X29.7636 Y189.1506
G3 X29.6372 Y189.3153 I-1.32 J-0.882
G1 X29.5802 Y189.3802
G3 X29.4334 Y189.5271 I-1.1935 J-1.0467
G1 X29.3685 Y189.584
G3 X29.2038 Y189.7104 I-1.0467 J-1.1935
G1 X29.132 Y189.7584
G3 X28.6609 Y189.9718 I-0.882 J-1.32
G1 X28.3309 Y190.0602
G3 X27.92 Y190.1143 I-0.4109 J-1.5334
G1 X21.58
G3 X19.9925 Y188.5268 I0.0 J-1.5875
G1 F300.0 Z-5.0
G1 F800.0 Y181.5268
G3 X21.58 Y179.9393 I1.5875 J0.0
G1 X23.4925
G1 Y147.0134
G1 X23.1675 Y146.9921
G1 Y175.5268
G3 X21.58 Y177.1143 I-1.5875 J0.0
G1 X13.33
G3 X11.7425 Y175.5268 I0.0 J-1.5875
G1 Y116.0268
G3 X13.33 Y114.4393 I1.5875 J0.0
G1 X41.7425
G1 Y114.1143
G1 X8.9175
G1 Y116.0268
G3 X7.33 Y117.6143 I-1.5875 J0.0
G1 X0.33
G3 X-1.2575 Y116.0268 I0.0 J-1.5875
G1 Y109.0268
G3 X0.33 Y107.4393 I1.5875 J0.0
G1 X41.7425
G1 Y107.1143
G1 X13.33
G3 X11.7425 Y105.5268 I0.0 J-1.5875
G1 Y102.0268
G3 X13.33 Y100.4393 I1.5875 J0.0
G1 X14.7425
G1 Y100.1143
G1 X0.33
G3 X-1.2575 Y98.5268 I0.0 J-1.5875
G1 Y90.5268
G3 X0.33 Y88.9393 I1.5875 J0.0
G1 X14.7425
G1 Y88.6143
G1 X13.33
G3 X11.7425 Y87.0268 I0.0 J-1.5875
G1 Y83.5268
G3 X13.33 Y81.9393 I1.5875 J0.0
G1 X41.7425
G1 Y81.6143
G1 X0.99
G3 X0.5791 Y81.5602 I0.0 J-1.5875
G1 X0.2491 Y81.4718
G3 X-0.222 Y81.2584 I0.4109 J-1.5334
G1 X-0.2938 Y81.2104
G3 X-0.4585 Y81.084 I0.882 J-1.32
G1 X-0.5234 Y81.0271
G3 X-0.6702 Y80.8802 I1.0467 J-1.1935
G1 X-0.7272 Y80.8153
G3 X-0.8536 Y80.6506 I1.1935 J-1.0467
G1 X-0.9015 Y80.5788
G3 X-1.115 Y80.1077 I1.32 J-0.882
G1 X-1.2034 Y79.7777
G3 X-1.2575 Y79.3668 I1.5334 J-0.4109
G1 Y73.0268
G3 X0.33 Y71.4393 I1.5875 J0.0
G1 X7.33
G3 X8.9175 Y73.0268 I0.0 J1.5875
G1 Y74.9393
G1 X41.8434
G1 X41.8648 Y74.6143
G1 X13.33
G3 X11.7425 Y73.0268 I0.0 J-1.5875
G1 Y13.5268
G3 X13.33 Y11.9393 I1.5875 J0.0
G1 X21.58
G3 X23.1675 Y13.5268 I0.0 J1.5875
G1 Y41.9393
G1 X23.4925
G1 Y9.1143
G1 X21.58
G3 X19.9925 Y7.5268 I0.0 J-1.5875
G1 Y0.5268
G3 X21.58 Y-1.0607 I1.5875 J0.0
G1 X28.58
G3 X30.1675 Y0.5268 I0.0 J1.5875
G1 Y41.9393
G1 X30.4925
G1 Y13.5268
G3 X32.08 Y11.9393 I1.5875 J0.0
G1 X35.58
G3 X37.1675 Y13.5268 I0.0 J1.5875
G1 Y14.9393
G1 X37.4925
G1 Y0.5268
G3 X39.08 Y-1.0607 I1.5875 J0.0
G1 X47.08
G3 X48.6675 Y0.5268 I0.0 J1.5875
G1 Y14.9393
G1 X48.9925
G1 Y13.5268
G3 X50.58 Y11.9393 I1.5875 J0.0
G1 X54.08
G3 X55.6675 Y13.5268 I0.0 J1.5875
G1 Y41.9393
G1 X55.9925
G1 Y1.1868
G3 X56.0466 Y0.776 I1.5875 J0.0
G1 X56.135 Y0.446
G3 X56.3485 Y-0.0251 I1.5334 J0.4109
G1 X56.3964 Y-0.0969
G3 X56.5228 Y-0.2617 I1.32 J0.882
G1 X56.5798 Y-0.3266
G3 X56.7266 Y-0.4734 I1.1935 J1.0467
G1 X56.7915 Y-0.5303
G3 X56.9562 Y-0.6567 I1.0467 J1.1935
G1 X57.028 Y-0.7047
G3 X57.4991 Y-0.9182 I0.882 J1.32
G1 X57.8291 Y-1.0066
G3 X58.24 Y-1.0607 I0.4109 J1.5334
G1 X64.58
G3 X66.1675 Y0.5268 I0.0 J1.5875
G1 Y7.5268
G3 X64.58 Y9.1143 I-1.5875 J0.0
G1 X62.6675
G1 Y42.0402
G1 X62.9925 Y42.0616
G1 Y13.5268
G3 X64.58 Y11.9393 I1.5875 J0.0
G1 X69.58
G3 X71.1675 Y13.5268 I0.0 J1.5875
G1 Y47.3628
G1 Y69.1331
G1 Y69.8675
G1 Y121.3666
G1 Y143.8712
G1 Y175.5268
G3 X69.58 Y177.1143 I-1.5875 J0.0
G1 X64.58
G3 X62.9925 Y175.5268 I0.0 J-1.5875
G1 Y147.1143
G1 X62.6675
G1 Y179.9393
G1 X64.58
G3 X66.1675 Y181.5268 I0.0 J1.5875
G1 Y188.5268
G3 X64.58 Y190.1143 I-1.5875 J0.0
G1 X57.58
G3 X55.9925 Y188.5268 I0.0 J-1.5875
G1 Y147.1143
G1 X55.6675
G1 Y175.5268
G3 X54.08 Y177.1143 I-1.5875 J0.0
G1 X50.58
G3 X48.9925 Y175.5268 I0.0 J-1.5875
G1 Y174.1143
G1 X48.6675
G1 Y188.5268
G3 X47.08 Y190.1143 I-1.5875 J0.0
G1 X39.08
G3 X37.4925 Y188.5268 I0.0 J-1.5875
G1 Y174.1143
G1 X37.1675
G1 Y175.5268
G3 X35.58 Y177.1143 I-1.5875 J0.0
G1 X32.08
G3 X30.4925 Y175.5268 I0.0 J-1.5875
G1 Y147.1143
G1 X30.1675
G1 Y187.8668
G3 X30.1134 Y188.2777 I-1.5875 J0.0
G1 X30.025 Y188.6077
G3 X29.8115 Y189.0788 I-1.5334 J-0.4109
G1 X29.7636 Y189.1506
G3 X29.6372 Y189.3153 I-1.32 J-0.882
G1 X29.5802 Y189.3802
G3 X29.4334 Y189.5271 I-1.1935 J-1.0467
G1 X29.3685 Y189.584
G3 X29.2038 Y189.7104 I-1.0467 J-1.1935
G1 X29.132 Y189.7584
G3 X28.6609 Y189.9718 I-0.882 J-1.32
G1 X28.3309 Y190.0602
G3 X27.92 Y190.1143 I-0.4109 J-1.5334
G1 X21.58
G3 X19.9925 Y188.5268 I0.0 J-1.5875
G1 F300.0 Z-6.0
G1 F800.0 Y181.5268
G3 X21.58 Y179.9393 I1.5875 J0.0
G1 X23.4925
G1 Y147.0134
G1 X23.1675 Y146.9921
G1 Y175.5268
G3 X21.58 Y177.1143 I-1.5875 J0.0
G1 X13.33
G3 X11.7425 Y175.5268 I0.0 J-1.5875
G1 Y116.0268
G3 X13.33 Y114.4393 I1.5875 J0.0
G1 X41.7425
G1 Y114.1143
G1 X8.9175
G1 Y116.0268
G3 X7.33 Y117.6143 I-1.5875 J0.0
G1 X0.33
G3 X-1.2575 Y116.0268 I0.0 J-1.5875
G1 Y109.0268
G3 X0.33 Y107.4393 I1.5875 J0.0
G1 X41.7425
G1 Y107.1143
G1 X13.33
G3 X11.7425 Y105.5268 I0.0 J-1.5875
G1 Y102.0268
G3 X13.33 Y100.4393 I1.5875 J0.0
G1 X14.7425
G1 Y100.1143
G1 X0.33
G3 X-1.2575 Y98.5268 I0.0 J-1.5875
G1 Y90.5268
G3 X0.33 Y88.9393 I1.5875 J0.0
G1 X14.7425
G1 Y88.6143
G1 X13.33
G3 X11.7425 Y87.0268 I0.0 J-1.5875
G1 Y83.5268
G3 X13.33 Y81.9393 I1.5875 J0.0
G1 X41.7425
G1 Y81.6143
G1 X0.99
G3 X0.5791 Y81.5602 I0.0 J-1.5875
G1 X0.2491 Y81.4718
G3 X-0.222 Y81.2584 I0.4109 J-1.5334
G1 X-0.2938 Y81.2104
G3 X-0.4585 Y81.084 I0.882 J-1.32
G1 X-0.5234 Y81.0271
G3 X-0.6702 Y80.8802 I1.0467 J-1.1935
G1 X-0.7272 Y80.8153
G3 X-0.8536 Y80.6506 I1.1935 J-1.0467
G1 X-0.9015 Y80.5788
G3 X-1.115 Y80.1077 I1.32 J-0.882
G1 X-1.2034 Y79.7777
G3 X-1.2575 Y79.3668 I1.5334 J-0.4109
G1 Y73.0268
G3 X0.33 Y71.4393 I1.5875 J0.0
G1 X7.33
G3 X8.9175 Y73.0268 I0.0 J1.5875
G1 Y74.9393
G1 X41.8434
G1 X41.8648 Y74.6143
G1 X13.33
G3 X11.7425 Y73.0268 I0.0 J-1.5875
G1 Y13.5268
G3 X13.33 Y11.9393 I1.5875 J0.0
G1 X21.58
G3 X23.1675 Y13.5268 I0.0 J1.5875
G1 Y41.9393
G1 X23.4925
G1 Y9.1143
G1 X21.58
G3 X19.9925 Y7.5268 I0.0 J-1.5875
G1 Y0.5268
G3 X21.58 Y-1.0607 I1.5875 J0.0
G1 X28.58
G3 X30.1675 Y0.5268 I0.0 J1.5875
G1 Y41.9393
G1 X30.4925
G1 Y13.5268
G3 X32.08 Y11.9393 I1.5875 J0.0
G1 X35.58
G3 X37.1675 Y13.5268 I0.0 J1.5875
G1 Y14.9393
G1 X37.4925
G1 Y0.5268
G3 X39.08 Y-1.0607 I1.5875 J0.0
G1 X47.08
G3 X48.6675 Y0.5268 I0.0 J1.5875
G1 Y14.9393
G1 X48.9925
G1 Y13.5268
G3 X50.58 Y11.9393 I1.5875 J0.0
G1 X54.08
G3 X55.6675 Y13.5268 I0.0 J1.5875
G1 Y41.9393
G1 X55.9925
G1 Y1.1868
G3 X56.0466 Y0.776 I1.5875 J0.0
G1 X56.135 Y0.446
G3 X56.3485 Y-0.0251 I1.5334 J0.4109
G1 X56.3964 Y-0.0969
G3 X56.5228 Y-0.2617 I1.32 J0.882
G1 X56.5798 Y-0.3266
G3 X56.7266 Y-0.4734 I1.1935 J1.0467
G1 X56.7915 Y-0.5303
G3 X56.9562 Y-0.6567 I1.0467 J1.1935
G1 X57.028 Y-0.7047
G3 X57.4991 Y-0.9182 I0.882 J1.32
G1 X57.8291 Y-1.0066
G3 X58.24 Y-1.0607 I0.4109 J1.5334
G1 X64.58
G3 X66.1675 Y0.5268 I0.0 J1.5875
G1 Y7.5268
G3 X64.58 Y9.1143 I-1.5875 J0.0
G1 X62.6675
G1 Y42.0402
G1 X62.9925 Y42.0616
G1 Y13.5268
G3 X64.58 Y11.9393 I1.5875 J0.0
G1 X69.58
G3 X71.1675 Y13.5268 I0.0 J1.5875
G1 Y47.3628
G1 Y69.1331
G1 Y69.8675
G1 Y121.3666
G1 Y143.8712
G1 Y175.5268
G3 X69.58 Y177.1143 I-1.5875 J0.0
G1 X64.58
G3 X62.9925 Y175.5268 I0.0 J-1.5875
G1 Y147.1143
G1 X62.6675
G1 Y179.9393
G1 X64.58
G3 X66.1675 Y181.5268 I0.0 J1.5875
G1 Y188.5268
G3 X64.58 Y190.1143 I-1.5875 J0.0
G1 X57.58
G3 X55.9925 Y188.5268 I0.0 J-1.5875
G1 Y147.1143
G1 X55.6675
G1 Y175.5268
G3 X54.08 Y177.1143 I-1.5875 J0.0
G1 X50.58
G3 X48.9925 Y175.5268 I0.0 J-1.5875
G1 Y174.1143
G1 X48.6675
G1 Y188.5268
G3 X47.08 Y190.1143 I-1.5875 J0.0
G1 X39.08
G3 X37.4925 Y188.5268 I0.0 J-1.5875
G1 Y174.1143
G1 X37.1675
G1 Y175.5268
G3 X35.58 Y177.1143 I-1.5875 J0.0
G1 X32.08
G3 X30.4925 Y175.5268 I0.0 J-1.5875
G1 Y147.1143
G1 X30.1675
G1 Y187.8668
G3 X30.1134 Y188.2777 I-1.5875 J0.0
G1 X30.025 Y188.6077
G3 X29.8115 Y189.0788 I-1.5334 J-0.4109
G1 X29.7636 Y189.1506
G3 X29.6372 Y189.3153 I-1.32 J-0.882
G1 X29.5802 Y189.3802
G3 X29.4334 Y189.5271 I-1.1935 J-1.0467
G1 X29.3685 Y189.584
G3 X29.2038 Y189.7104 I-1.0467 J-1.1935
G1 X29.132 Y189.7584
G3 X28.6609 Y189.9718 I-0.882 J-1.32
G1 X28.3309 Y190.0602
G3 X27.92 Y190.1143 I-0.4109 J-1.5334
G1 X21.58
G3 X19.9925 Y188.5268 I0.0 J-1.5875
( Poche1 )
S1000
G0 Z3.0
G0 X67.6025 Y59.4773
G0 Z1.0
G1 F300.0 Z-1.0
G1 F800.0 Y57.753
G1 X67.145 Y57.9084
G3 X66.463 Y58.0911 I-1.735 J-5.1111
G1 X65.7412 Y58.2347
G3 X65.0412 Y58.3268 I-1.053 J-5.2938
G1 X64.4832 Y58.3634
G1 X63.9067 Y58.4393
G1 X63.8628 Y58.4575
G1 X63.8251 Y58.4864
G1 X63.7961 Y58.5241
G1 X63.778 Y58.568
G1 X63.7717 Y58.6152
G1 X63.778 Y58.6623
G1 X63.7961 Y58.7062
G1 X63.8251 Y58.7439
G1 X63.8628 Y58.7729
G1 X63.9067 Y58.7911
G1 X64.4832 Y58.8669
G1 X65.0412 Y58.9035
G3 X65.7412 Y58.9957 I-0.353 J5.3859
G1 X66.463 Y59.1392
G3 X67.145 Y59.322 I-1.053 J5.2938
G1 X67.6025 Y59.4773
G1 F300.0 X67.1943 Y60.6799
G1 F800.0 X67.4336 Y60.7611
G3 X67.9324 Y60.9678 I-1.3267 J3.9085
G1 X68.5925 Y61.2933
G3 X68.8725 Y61.4451 I-1.8255 J3.7018
G1 Y55.7853
G3 X68.5925 Y55.9371 I-2.1056 J-3.55
G1 X67.9324 Y56.2626
G3 X67.4336 Y56.4692 I-1.8255 J-3.7018
G1 X66.7367 Y56.7057
G3 X66.2152 Y56.8455 I-1.3267 J-3.9085
G1 X65.4934 Y56.9891
G3 X64.9581 Y57.0595 I-0.8052 J-4.0482
G1 X64.3586 Y57.0988
G1 X63.5752 Y57.202
G1 X63.2223 Y57.3481
G1 X62.9193 Y57.5806
G1 X62.6868 Y57.8836
G1 X62.5406 Y58.2365
G1 X62.4908 Y58.6152
G1 X62.5406 Y58.9938
G1 X62.6868 Y59.3467
G1 X62.9193 Y59.6497
G1 X63.2223 Y59.8822
G1 X63.5752 Y60.0284
G1 X64.3586 Y60.1315
G1 X64.9581 Y60.1708
G3 X65.4934 Y60.2413 I-0.27 J4.1187
G1 X66.2152 Y60.3848
G3 X66.7367 Y60.5246 I-0.8052 J4.0482
G1 X67.1943 Y60.6799
G1 F300.0 X66.786 Y61.8825
G1 F800.0 X67.0254 Y61.9637
G3 X67.3707 Y62.1068 I-0.9185 J2.7059
G1 X68.0308 Y62.4323
G3 X68.3545 Y62.6192 I-1.2638 J2.5628
G1 X68.9664 Y63.028
G3 X69.2629 Y63.2556 I-1.5875 J2.3759
G1 X69.8162 Y63.7408
G3 X70.0805 Y64.0051 I-1.8841 J2.1484
G1 X70.1425 Y64.0758
G1 Y53.1545
G1 X70.0805 Y53.2252
G3 X69.8162 Y53.4895 I-2.1484 J-1.8841
G1 X69.2629 Y53.9748
G3 X68.9664 Y54.2023 I-1.8841 J-2.1484
G1 X68.3545 Y54.6112
G3 X68.0308 Y54.7981 I-1.5875 J-2.3759
G1 X67.3707 Y55.1236
G3 X67.0254 Y55.2666 I-1.2638 J-2.5628
G1 X66.3285 Y55.5031
G3 X65.9675 Y55.5999 I-0.9185 J-2.7059
G1 X65.2457 Y55.7435
G3 X64.8751 Y55.7923 I-0.5575 J-2.8026
G1 X64.2341 Y55.8343
G1 X63.2436 Y55.9647
G1 X62.5818 Y56.2388
G1 X62.0135 Y56.6749
G1 X61.5775 Y57.2432
G1 X61.3033 Y57.905
G1 X61.2098 Y58.6152
G1 X61.3033 Y59.3254
G1 X61.5775 Y59.9872
G1 X62.0135 Y60.5555
G1 X62.5818 Y60.9915
G1 X63.2436 Y61.2657
G1 X64.2341 Y61.3961
G1 X64.8751 Y61.4381
G3 X65.2457 Y61.4869 I-0.1869 J2.8514
G1 X65.9675 Y61.6304
G3 X66.3285 Y61.7272 I-0.5575 J2.8026
G1 X66.786 Y61.8825
G1 F300.0 X66.3778 Y63.0851
G1 F800.0 X66.6172 Y63.1663
G3 X66.809 Y63.2458 I-0.5103 J1.5033
G1 X67.4691 Y63.5713
G3 X67.6489 Y63.6751 I-0.7021 J1.4238
G1 X68.2608 Y64.084
G3 X68.4255 Y64.2104 I-0.882 J1.32
G1 X68.9788 Y64.6956
G3 X69.1257 Y64.8425 I-1.0467 J1.1935
G1 X69.6109 Y65.3958
G3 X69.7373 Y65.5605 I-1.1935 J1.0467
G1 X70.1462 Y66.1724
G3 X70.25 Y66.3523 I-1.32 J0.882
G1 X70.5755 Y67.0123
G3 X70.655 Y67.2042 I-1.4238 J0.7021
G1 X70.8617 Y67.813
G1 X71.4125 Y68.9704
G1 Y48.0018
G1 X71.0388 Y48.6588
G1 X70.9453 Y49.1287
G3 X70.8915 Y49.3293 I-1.557 J-0.3097
G1 X70.655 Y50.0262
G3 X70.5755 Y50.218 I-1.5033 J-0.5103
G1 X70.25 Y50.8781
G3 X70.1462 Y51.0579 I-1.4238 J-0.7021
G1 X69.7373 Y51.6698
G3 X69.6109 Y51.8345 I-1.32 J-0.882
G1 X69.1257 Y52.3878
G3 X68.9788 Y52.5347 I-1.1935 J-1.0467
G1 X68.4255 Y53.0199
G3 X68.2608 Y53.1463 I-1.0467 J-1.1935
G1 X67.6489 Y53.5552
G3 X67.4691 Y53.659 I-0.882 J-1.32
G1 X66.809 Y53.9845
G3 X66.6172 Y54.064 I-0.7021 J-1.4238
G1 X65.9203 Y54.3005
G3 X65.7197 Y54.3543 I-0.5103 J-1.5033
G1 X64.9979 Y54.4979
G3 X64.792 Y54.525 I-0.3097 J-1.557
G1 X64.1095 Y54.5697
G1 X62.9121 Y54.7273
G1 X61.9414 Y55.1294
G1 X61.1078 Y55.7691
G1 X60.4681 Y56.6027
G1 X60.066 Y57.5734
G1 X59.9289 Y58.6152
G1 X60.066 Y59.6569
G1 X60.4681 Y60.6276
G1 X61.1078 Y61.4612
G1 X61.9414 Y62.1009
G1 X62.9121 Y62.503
G1 X64.1095 Y62.6606
G1 X64.792 Y62.7054
G3 X64.9979 Y62.7325 I-0.1038 J1.5841
G1 X65.7197 Y62.876
G3 X65.9203 Y62.9298 I-0.3097 J1.557
G1 X66.3778 Y63.0851
G0 Z3.0
G0 X67.6025 Y59.4773
G0 Z0.0
G1 F300.0 Z-2.0
G1 F800.0 Y57.753
G1 X67.145 Y57.9084
G3 X66.463 Y58.0911 I-1.735 J-5.1111
G1 X65.7412 Y58.2347
G3 X65.0412 Y58.3268 I-1.053 J-5.2938
G1 X64.4832 Y58.3634
G1 X63.9067 Y58.4393
G1 X63.8628 Y58.4575
G1 X63.8251 Y58.4864
G1 X63.7961 Y58.5241
G1 X63.778 Y58.568
G1 X63.7717 Y58.6152
G1 X63.778 Y58.6623
G1 X63.7961 Y58.7062
G1 X63.8251 Y58.7439
G1 X63.8628 Y58.7729
G1 X63.9067 Y58.7911
G1 X64.4832 Y58.8669
G1 X65.0412 Y58.9035
G3 X65.7412 Y58.9957 I-0.353 J5.3859
G1 X66.463 Y59.1392
G3 X67.145 Y59.322 I-1.053 J5.2938
G1 X67.6025 Y59.4773
G1 F300.0 X67.1943 Y60.6799
G1 F800.0 X67.4336 Y60.7611
G3 X67.9324 Y60.9678 I-1.3267 J3.9085
G1 X68.5925 Y61.2933
G3 X68.8725 Y61.4451 I-1.8255 J3.7018
G1 Y55.7853
G3 X68.5925 Y55.9371 I-2.1056 J-3.55
G1 X67.9324 Y56.2626
G3 X67.4336 Y56.4692 I-1.8255 J-3.7018
G1 X66.7367 Y56.7057
G3 X66.2152 Y56.8455 I-1.3267 J-3.9085
G1 X65.4934 Y56.9891
G3 X64.9581 Y57.0595 I-0.8052 J-4.0482
G1 X64.3586 Y57.0988
G1 X63.5752 Y57.202
G1 X63.2223 Y57.3481
G1 X62.9193 Y57.5806
G1 X62.6868 Y57.8836
G1 X62.5406 Y58.2365
G1 X62.4908 Y58.6152
G1 X62.5406 Y58.9938
G1 X62.6868 Y59.3467
G1 X62.9193 Y59.6497
G1 X63.2223 Y59.8822
G1 X63.5752 Y60.0284
G1 X64.3586 Y60.1315
G1 X64.9581 Y60.1708
G3 X65.4934 Y60.2413 I-0.27 J4.1187
G1 X66.2152 Y60.3848
G3 X66.7367 Y60.5246 I-0.8052 J4.0482
G1 X67.1943 Y60.6799
G1 F300.0 X66.786 Y61.8825
G1 F800.0 X67.0254 Y61.9637
G3 X67.3707 Y62.1068 I-0.9185 J2.7059
G1 X68.0308 Y62.4323
G3 X68.3545 Y62.6192 I-1.2638 J2.5628
G1 X68.9664 Y63.028
G3 X69.2629 Y63.2556 I-1.5875 J2.3759
G1 X69.8162 Y63.7408
G3 X70.0805 Y64.0051 I-1.8841 J2.1484
G1 X70.1425 Y64.0758
G1 Y53.1545
G1 X70.0805 Y53.2252
G3 X69.8162 Y53.4895 I-2.1484 J-1.8841
G1 X69.2629 Y53.9748
G3 X68.9664 Y54.2023 I-1.8841 J-2.1484
G1 X68.3545 Y54.6112
G3 X68.0308 Y54.7981 I-1.5875 J-2.3759
G1 X67.3707 Y55.1236
G3 X67.0254 Y55.2666 I-1.2638 J-2.5628
G1 X66.3285 Y55.5031
G3 X65.9675 Y55.5999 I-0.9185 J-2.7059
G1 X65.2457 Y55.7435
G3 X64.8751 Y55.7923 I-0.5575 J-2.8026
G1 X64.2341 Y55.8343
G1 X63.2436 Y55.9647
G1 X62.5818 Y56.2388
G1 X62.0135 Y56.6749
G1 X61.5775 Y57.2432
G1 X61.3033 Y57.905
G1 X61.2098 Y58.6152
G1 X61.3033 Y59.3254
G1 X61.5775 Y59.9872
G1 X62.0135 Y60.5555
G1 X62.5818 Y60.9915
G1 X63.2436 Y61.2657
G1 X64.2341 Y61.3961
G1 X64.8751 Y61.4381
G3 X65.2457 Y61.4869 I-0.1869 J2.8514
G1 X65.9675 Y61.6304
G3 X66.3285 Y61.7272 I-0.5575 J2.8026
G1 X66.786 Y61.8825
G1 F300.0 X66.3778 Y63.0851
G1 F800.0 X66.6172 Y63.1663
G3 X66.809 Y63.2458 I-0.5103 J1.5033
G1 X67.4691 Y63.5713
G3 X67.6489 Y63.6751 I-0.7021 J1.4238
G1 X68.2608 Y64.084
G3 X68.4255 Y64.2104 I-0.882 J1.32
G1 X68.9788 Y64.6956
G3 X69.1257 Y64.8425 I-1.0467 J1.1935
G1 X69.6109 Y65.3958
G3 X69.7373 Y65.5605 I-1.1935 J1.0467
G1 X70.1462 Y66.1724
G3 X70.25 Y66.3523 I-1.32 J0.882
G1 X70.5755 Y67.0123
G3 X70.655 Y67.2042 I-1.4238 J0.7021
G1 X70.8617 Y67.813
G1 X71.4125 Y68.9704
G1 Y48.0018
G1 X71.0388 Y48.6588
G1 X70.9453 Y49.1287
G3 X70.8915 Y49.3293 I-1.557 J-0.3097
G1 X70.655 Y50.0262
G3 X70.5755 Y50.218 I-1.5033 J-0.5103
G1 X70.25 Y50.8781
G3 X70.1462 Y51.0579 I-1.4238 J-0.7021
G1 X69.7373 Y51.6698
G3 X69.6109 Y51.8345 I-1.32 J-0.882
G1 X69.1257 Y52.3878
G3 X68.9788 Y52.5347 I-1.1935 J-1.0467
G1 X68.4255 Y53.0199
G3 X68.2608 Y53.1463 I-1.0467 J-1.1935
G1 X67.6489 Y53.5552
G3 X67.4691 Y53.659 I-0.882 J-1.32
G1 X66.809 Y53.9845
G3 X66.6172 Y54.064 I-0.7021 J-1.4238
G1 X65.9203 Y54.3005
G3 X65.7197 Y54.3543 I-0.5103 J-1.5033
G1 X64.9979 Y54.4979
G3 X64.792 Y54.525 I-0.3097 J-1.557
G1 X64.1095 Y54.5697
G1 X62.9121 Y54.7273
G1 X61.9414 Y55.1294
G1 X61.1078 Y55.7691
G1 X60.4681 Y56.6027
G1 X60.066 Y57.5734
G1 X59.9289 Y58.6152
G1 X60.066 Y59.6569
G1 X60.4681 Y60.6276
G1 X61.1078 Y61.4612
G1 X61.9414 Y62.1009
G1 X62.9121 Y62.503
G1 X64.1095 Y62.6606
G1 X64.792 Y62.7054
G3 X64.9979 Y62.7325 I-0.1038 J1.5841
G1 X65.7197 Y62.876
G3 X65.9203 Y62.9298 I-0.3097 J1.557
G1 X66.3778 Y63.0851
G0 Z3.0
G0 X67.6025 Y59.4773
G0 Z-1.0
G1 F300.0 Z-3.0
G1 F800.0 Y57.753
G1 X67.145 Y57.9084
G3 X66.463 Y58.0911 I-1.735 J-5.1111
G1 X65.7412 Y58.2347
G3 X65.0412 Y58.3268 I-1.053 J-5.2938
G1 X64.4832 Y58.3634
G1 X63.9067 Y58.4393
G1 X63.8628 Y58.4575
G1 X63.8251 Y58.4864
G1 X63.7961 Y58.5241
G1 X63.778 Y58.568
G1 X63.7717 Y58.6152
G1 X63.778 Y58.6623
G1 X63.7961 Y58.7062
G1 X63.8251 Y58.7439
G1 X63.8628 Y58.7729
G1 X63.9067 Y58.7911
G1 X64.4832 Y58.8669
G1 X65.0412 Y58.9035
G3 X65.7412 Y58.9957 I-0.353 J5.3859
G1 X66.463 Y59.1392
G3 X67.145 Y59.322 I-1.053 J5.2938
G1 X67.6025 Y59.4773
G1 F300.0 X67.1943 Y60.6799
G1 F800.0 X67.4336 Y60.7611
G3 X67.9324 Y60.9678 I-1.3267 J3.9085
G1 X68.5925 Y61.2933
G3 X68.8725 Y61.4451 I-1.8255 J3.7018
G1 Y55.7853
G3 X68.5925 Y55.9371 I-2.1056 J-3.55
G1 X67.9324 Y56.2626
G3 X67.4336 Y56.4692 I-1.8255 J-3.7018
G1 X66.7367 Y56.7057
G3 X66.2152 Y56.8455 I-1.3267 J-3.9085
G1 X65.4934 Y56.9891
G3 X64.9581 Y57.0595 I-0.8052 J-4.0482
G1 X64.3586 Y57.0988
G1 X63.5752 Y57.202
G1 X63.2223 Y57.3481
G1 X62.9193 Y57.5806
G1 X62.6868 Y57.8836
G1 X62.5406 Y58.2365
G1 X62.4908 Y58.6152
G1 X62.5406 Y58.9938
G1 X62.6868 Y59.3467
G1 X62.9193 Y59.6497
G1 X63.2223 Y59.8822
G1 X63.5752 Y60.0284
G1 X64.3586 Y60.1315
G1 X64.9581 Y60.1708
G3 X65.4934 Y60.2413 I-0.27 J4.1187
G1 X66.2152 Y60.3848
G3 X66.7367 Y60.5246 I-0.8052 J4.0482
G1 X67.1943 Y60.6799
G1 F300.0 X66.786 Y61.8825
G1 F800.0 X67.0254 Y61.9637
G3 X67.3707 Y62.1068 I-0.9185 J2.7059
G1 X68.0308 Y62.4323
G3 X68.3545 Y62.6192 I-1.2638 J2.5628
G1 X68.9664 Y63.028
G3 X69.2629 Y63.2556 I-1.5875 J2.3759
G1 X69.8162 Y63.7408
G3 X70.0805 Y64.0051 I-1.8841 J2.1484
G1 X70.1425 Y64.0758
G1 Y53.1545
G1 X70.0805 Y53.2252
G3 X69.8162 Y53.4895 I-2.1484 J-1.8841
G1 X69.2629 Y53.9748
G3 X68.9664 Y54.2023 I-1.8841 J-2.1484
G1 X68.3545 Y54.6112
G3 X68.0308 Y54.7981 I-1.5875 J-2.3759
G1 X67.3707 Y55.1236
G3 X67.0254 Y55.2666 I-1.2638 J-2.5628
G1 X66.3285 Y55.5031
G3 X65.9675 Y55.5999 I-0.9185 J-2.7059
G1 X65.2457 Y55.7435
G3 X64.8751 Y55.7923 I-0.5575 J-2.8026
G1 X64.2341 Y55.8343
G1 X63.2436 Y55.9647
G1 X62.5818 Y56.2388
G1 X62.0135 Y56.6749
G1 X61.5775 Y57.2432
G1 X61.3033 Y57.905
G1 X61.2098 Y58.6152
G1 X61.3033 Y59.3254
G1 X61.5775 Y59.9872
G1 X62.0135 Y60.5555
G1 X62.5818 Y60.9915
G1 X63.2436 Y61.2657
G1 X64.2341 Y61.3961
G1 X64.8751 Y61.4381
G3 X65.2457 Y61.4869 I-0.1869 J2.8514
G1 X65.9675 Y61.6304
G3 X66.3285 Y61.7272 I-0.5575 J2.8026
G1 X66.786 Y61.8825
G1 F300.0 X66.3778 Y63.0851
G1 F800.0 X66.6172 Y63.1663
G3 X66.809 Y63.2458 I-0.5103 J1.5033
G1 X67.4691 Y63.5713
G3 X67.6489 Y63.6751 I-0.7021 J1.4238
G1 X68.2608 Y64.084
G3 X68.4255 Y64.2104 I-0.882 J1.32
G1 X68.9788 Y64.6956
G3 X69.1257 Y64.8425 I-1.0467 J1.1935
G1 X69.6109 Y65.3958
G3 X69.7373 Y65.5605 I-1.1935 J1.0467
G1 X70.1462 Y66.1724
G3 X70.25 Y66.3523 I-1.32 J0.882
G1 X70.5755 Y67.0123
G3 X70.655 Y67.2042 I-1.4238 J0.7021
G1 X70.8617 Y67.813
G1 X71.4125 Y68.9704
G1 Y48.0018
G1 X71.0388 Y48.6588
G1 X70.9453 Y49.1287
G3 X70.8915 Y49.3293 I-1.557 J-0.3097
G1 X70.655 Y50.0262
G3 X70.5755 Y50.218 I-1.5033 J-0.5103
G1 X70.25 Y50.8781
G3 X70.1462 Y51.0579 I-1.4238 J-0.7021
G1 X69.7373 Y51.6698
G3 X69.6109 Y51.8345 I-1.32 J-0.882
G1 X69.1257 Y52.3878
G3 X68.9788 Y52.5347 I-1.1935 J-1.0467
G1 X68.4255 Y53.0199
G3 X68.2608 Y53.1463 I-1.0467 J-1.1935
G1 X67.6489 Y53.5552
G3 X67.4691 Y53.659 I-0.882 J-1.32
G1 X66.809 Y53.9845
G3 X66.6172 Y54.064 I-0.7021 J-1.4238
G1 X65.9203 Y54.3005
G3 X65.7197 Y54.3543 I-0.5103 J-1.5033
G1 X64.9979 Y54.4979
G3 X64.792 Y54.525 I-0.3097 J-1.557
G1 X64.1095 Y54.5697
G1 X62.9121 Y54.7273
G1 X61.9414 Y55.1294
G1 X61.1078 Y55.7691
G1 X60.4681 Y56.6027
G1 X60.066 Y57.5734
G1 X59.9289 Y58.6152
G1 X60.066 Y59.6569
G1 X60.4681 Y60.6276
G1 X61.1078 Y61.4612
G1 X61.9414 Y62.1009
G1 X62.9121 Y62.503
G1 X64.1095 Y62.6606
G1 X64.792 Y62.7054
G3 X64.9979 Y62.7325 I-0.1038 J1.5841
G1 X65.7197 Y62.876
G3 X65.9203 Y62.9298 I-0.3097 J1.557
G1 X66.3778 Y63.0851
G0 Z3.0
G0 X67.6025 Y131.7568
G0 Z1.0
G1 F300.0 Z-1.0
G1 F800.0 X67.145 Y131.9121
G3 X66.463 Y132.0948 I-1.735 J-5.1111
G1 X65.7412 Y132.2384
G3 X65.0412 Y132.3306 I-1.053 J-5.2938
G1 X64.4832 Y132.3671
G1 X63.9067 Y132.443
G1 X63.8628 Y132.4612
G1 X63.8251 Y132.4902
G1 X63.7961 Y132.5279
G1 X63.778 Y132.5718
G1 X63.7717 Y132.6189
G1 X63.778 Y132.666
G1 X63.7961 Y132.71
G1 X63.8251 Y132.7477
G1 X63.8628 Y132.7766
G1 X63.9067 Y132.7948
G1 X64.4832 Y132.8707
G1 X65.0412 Y132.9073
G3 X65.7412 Y132.9994 I-0.353 J5.3859
G1 X66.463 Y133.143
G3 X67.145 Y133.3257 I-1.053 J5.2938
G1 X67.6025 Y133.481
G1 Y131.7568
G1 F300.0 X68.8725
G1 F800.0 Y129.789
G3 X68.5925 Y129.9408 I-2.1056 J-3.55
G1 X67.9324 Y130.2663
G3 X67.4336 Y130.4729 I-1.8255 J-3.7018
G1 X66.7367 Y130.7095
G3 X66.2152 Y130.8492 I-1.3267 J-3.9085
G1 X65.4934 Y130.9928
G3 X64.9581 Y131.0633 I-0.8052 J-4.0482
G1 X64.3586 Y131.1026
G1 X63.5752 Y131.2057
G1 X63.2223 Y131.3519
G1 X62.9193 Y131.5844
G1 X62.6868 Y131.8874
G1 X62.5406 Y132.2402
G1 X62.4908 Y132.6189
G1 X62.5406 Y132.9976
G1 X62.6868 Y133.3504
G1 X62.9193 Y133.6534
G1 X63.2223 Y133.8859
G1 X63.5752 Y134.0321
G1 X64.3586 Y134.1352
G1 X64.9581 Y134.1745
G3 X65.4934 Y134.245 I-0.27 J4.1187
G1 X66.2152 Y134.3886
G3 X66.7367 Y134.5283 I-0.8052 J4.0482
G1 X67.4336 Y134.7649
G3 X67.9324 Y134.9715 I-1.3267 J3.9085
G1 X68.5925 Y135.297
G3 X68.8725 Y135.4488 I-1.8255 J3.7018
G1 Y131.7568
G1 F300.0 X70.1425
G1 F800.0 Y127.1583
G1 X70.0805 Y127.229
G3 X69.8162 Y127.4933 I-2.1484 J-1.8841
G1 X69.2629 Y127.9785
G3 X68.9664 Y128.206 I-1.8841 J-2.1484
G1 X68.3545 Y128.6149
G3 X68.0308 Y128.8018 I-1.5875 J-2.3759
G1 X67.3707 Y129.1273
G3 X67.0254 Y129.2703 I-1.2638 J-2.5628
G1 X66.3285 Y129.5069
G3 X65.9675 Y129.6036 I-0.9185 J-2.7059
G1 X65.2457 Y129.7472
G3 X64.8751 Y129.796 I-0.5575 J-2.8026
G1 X64.2341 Y129.838
G1 X63.2436 Y129.9684
G1 X62.5818 Y130.2425
G1 X62.0135 Y130.6786
G1 X61.5775 Y131.2469
G1 X61.3033 Y131.9087
G1 X61.2098 Y132.6189
G1 X61.3033 Y133.3291
G1 X61.5775 Y133.9909
G1 X62.0135 Y134.5592
G1 X62.5818 Y134.9953
G1 X63.2436 Y135.2694
G1 X64.2341 Y135.3998
G1 X64.8751 Y135.4418
G3 X65.2457 Y135.4906 I-0.1869 J2.8514
G1 X65.9675 Y135.6342
G3 X66.3285 Y135.7309 I-0.5575 J2.8026
G1 X67.0254 Y135.9675
G3 X67.3707 Y136.1105 I-0.9185 J2.7059
G1 X68.0308 Y136.436
G3 X68.3545 Y136.6229 I-1.2638 J2.5628
G1 X68.9664 Y137.0318
G3 X69.2629 Y137.2593 I-1.5875 J2.3759
G1 X69.8162 Y137.7446
G3 X70.0805 Y138.0089 I-1.8841 J2.1484
G1 X70.1425 Y138.0795
G1 Y131.7568
G1 F300.0 X71.4125
G1 F800.0 Y121.8677
G1 X71.0487 Y122.6126
G1 X70.9453 Y123.1324
G3 X70.8915 Y123.333 I-1.557 J-0.3097
G1 X70.655 Y124.0299
G3 X70.5755 Y124.2218 I-1.5033 J-0.5103
G1 X70.25 Y124.8818
G3 X70.1462 Y125.0616 I-1.4238 J-0.7021
G1 X69.7373 Y125.6735
G3 X69.6109 Y125.8383 I-1.32 J-0.882
G1 X69.1257 Y126.3916
G3 X68.9788 Y126.5384 I-1.1935 J-1.0467
G1 X68.4255 Y127.0237
G3 X68.2608 Y127.1501 I-1.0467 J-1.1935
G1 X67.6489 Y127.5589
G3 X67.4691 Y127.6628 I-0.882 J-1.32
G1 X66.809 Y127.9883
G3 X66.6172 Y128.0677 I-0.7021 J-1.4238
G1 X65.9203 Y128.3043
G3 X65.7197 Y128.358 I-0.5103 J-1.5033
G1 X64.9979 Y128.5016
G3 X64.792 Y128.5287 I-0.3097 J-1.557
G1 X64.1095 Y128.5734
G1 X62.9121 Y128.7311
G1 X61.9414 Y129.1332
G1 X61.1078 Y129.7728
G1 X60.4681 Y130.6064
G1 X60.066 Y131.5772
G1 X59.9289 Y132.6189
G1 X60.066 Y133.6606
G1 X60.4681 Y134.6314
G1 X61.1078 Y135.465
G1 X61.9414 Y136.1046
G1 X62.9121 Y136.5067
G1 X64.1095 Y136.6644
G1 X64.792 Y136.7091
G3 X64.9979 Y136.7362 I-0.1038 J1.5841
G1 X65.7197 Y136.8798
G3 X65.9203 Y136.9335 I-0.3097 J1.557
G1 X66.6172 Y137.1701
G3 X66.809 Y137.2496 I-0.5103 J1.5033
G1 X67.4691 Y137.5751
G3 X67.6489 Y137.6789 I-0.7021 J1.4238
G1 X68.2608 Y138.0877
G3 X68.4255 Y138.2142 I-0.882 J1.32
G1 X68.9788 Y138.6994
G3 X69.1257 Y138.8462 I-1.0467 J1.1935
G1 X69.6109 Y139.3995
G3 X69.7373 Y139.5643 I-1.1935 J1.0467
G1 X70.1462 Y140.1762
G3 X70.25 Y140.356 I-1.32 J0.882
G1 X70.5755 Y141.0161
G3 X70.655 Y141.2079 I-1.4238 J0.7021
G1 X70.8915 Y141.9048
G3 X70.9453 Y142.1054 I-1.5033 J0.5103
G1 X71.0548 Y142.656
G1 X71.4125 Y143.4669
G1 Y131.7568
G0 Z3.0
G0 X67.6025
G0 Z0.0
G1 F300.0 Z-2.0
G1 F800.0 X67.145 Y131.9121
G3 X66.463 Y132.0948 I-1.735 J-5.1111
G1 X65.7412 Y132.2384
G3 X65.0412 Y132.3306 I-1.053 J-5.2938
G1 X64.4832 Y132.3671
G1 X63.9067 Y132.443
G1 X63.8628 Y132.4612
G1 X63.8251 Y132.4902
G1 X63.7961 Y132.5279
G1 X63.778 Y132.5718
G1 X63.7717 Y132.6189
G1 X63.778 Y132.666
G1 X63.7961 Y132.71
G1 X63.8251 Y132.7477
G1 X63.8628 Y132.7766
G1 X63.9067 Y132.7948
G1 X64.4832 Y132.8707
G1 X65.0412 Y132.9073
G3 X65.7412 Y132.9994 I-0.353 J5.3859
G1 X66.463 Y133.143
G3 X67.145 Y133.3257 I-1.053 J5.2938
G1 X67.6025 Y133.481
G1 Y131.7568
G1 F300.0 X68.8725
G1 F800.0 Y129.789
G3 X68.5925 Y129.9408 I-2.1056 J-3.55
G1 X67.9324 Y130.2663
G3 X67.4336 Y130.4729 I-1.8255 J-3.7018
G1 X66.7367 Y130.7095
G3 X66.2152 Y130.8492 I-1.3267 J-3.9085
G1 X65.4934 Y130.9928
G3 X64.9581 Y131.0633 I-0.8052 J-4.0482
G1 X64.3586 Y131.1026
G1 X63.5752 Y131.2057
G1 X63.2223 Y131.3519
G1 X62.9193 Y131.5844
G1 X62.6868 Y131.8874
G1 X62.5406 Y132.2402
G1 X62.4908 Y132.6189
G1 X62.5406 Y132.9976
G1 X62.6868 Y133.3504
G1 X62.9193 Y133.6534
G1 X63.2223 Y133.8859
G1 X63.5752 Y134.0321
G1 X64.3586 Y134.1352
G1 X64.9581 Y134.1745
G3 X65.4934 Y134.245 I-0.27 J4.1187
G1 X66.2152 Y134.3886
G3 X66.7367 Y134.5283 I-0.8052 J4.0482
G1 X67.4336 Y134.7649
G3 X67.9324 Y134.9715 I-1.3267 J3.9085
G1 X68.5925 Y135.297
G3 X68.8725 Y135.4488 I-1.8255 J3.7018
G1 Y131.7568
G1 F300.0 X70.1425
G1 F800.0 Y127.1583
G1 X70.0805 Y127.229
G3 X69.8162 Y127.4933 I-2.1484 J-1.8841
G1 X69.2629 Y127.9785
G3 X68.9664 Y128.206 I-1.8841 J-2.1484
G1 X68.3545 Y128.6149
G3 X68.0308 Y128.8018 I-1.5875 J-2.3759
G1 X67.3707 Y129.1273
G3 X67.0254 Y129.2703 I-1.2638 J-2.5628
G1 X66.3285 Y129.5069
G3 X65.9675 Y129.6036 I-0.9185 J-2.7059
G1 X65.2457 Y129.7472
G3 X64.8751 Y129.796 I-0.5575 J-2.8026
G1 X64.2341 Y129.838
G1 X63.2436 Y129.9684
G1 X62.5818 Y130.2425
G1 X62.0135 Y130.6786
G1 X61.5775 Y131.2469
G1 X61.3033 Y131.9087
G1 X61.2098 Y132.6189
G1 X61.3033 Y133.3291
G1 X61.5775 Y133.9909
G1 X62.0135 Y134.5592
G1 X62.5818 Y134.9953
G1 X63.2436 Y135.2694
G1 X64.2341 Y135.3998
G1 X64.8751 Y135.4418
G3 X65.2457 Y135.4906 I-0.1869 J2.8514
G1 X65.9675 Y135.6342
G3 X66.3285 Y135.7309 I-0.5575 J2.8026
G1 X67.0254 Y135.9675
G3 X67.3707 Y136.1105 I-0.9185 J2.7059
G1 X68.0308 Y136.436
G3 X68.3545 Y136.6229 I-1.2638 J2.5628
G1 X68.9664 Y137.0318
G3 X69.2629 Y137.2593 I-1.5875 J2.3759
G1 X69.8162 Y137.7446
G3 X70.0805 Y138.0089 I-1.8841 J2.1484
G1 X70.1425 Y138.0795
G1 Y131.7568
G1 F300.0 X71.4125
G1 F800.0 Y121.8677
G1 X71.0487 Y122.6126
G1 X70.9453 Y123.1324
G3 X70.8915 Y123.333 I-1.557 J-0.3097
G1 X70.655 Y124.0299
G3 X70.5755 Y124.2218 I-1.5033 J-0.5103
G1 X70.25 Y124.8818
G3 X70.1462 Y125.0616 I-1.4238 J-0.7021
G1 X69.7373 Y125.6735
G3 X69.6109 Y125.8383 I-1.32 J-0.882
G1 X69.1257 Y126.3916
G3 X68.9788 Y126.5384 I-1.1935 J-1.0467
G1 X68.4255 Y127.0237
G3 X68.2608 Y127.1501 I-1.0467 J-1.1935
G1 X67.6489 Y127.5589
G3 X67.4691 Y127.6628 I-0.882 J-1.32
G1 X66.809 Y127.9883
G3 X66.6172 Y128.0677 I-0.7021 J-1.4238
G1 X65.9203 Y128.3043
G3 X65.7197 Y128.358 I-0.5103 J-1.5033
G1 X64.9979 Y128.5016
G3 X64.792 Y128.5287 I-0.3097 J-1.557
G1 X64.1095 Y128.5734
G1 X62.9121 Y128.7311
G1 X61.9414 Y129.1332
G1 X61.1078 Y129.7728
G1 X60.4681 Y130.6064
G1 X60.066 Y131.5772
G1 X59.9289 Y132.6189
G1 X60.066 Y133.6606
G1 X60.4681 Y134.6314
G1 X61.1078 Y135.465
G1 X61.9414 Y136.1046
G1 X62.9121 Y136.5067
G1 X64.1095 Y136.6644
G1 X64.792 Y136.7091
G3 X64.9979 Y136.7362 I-0.1038 J1.5841
G1 X65.7197 Y136.8798
G3 X65.9203 Y136.9335 I-0.3097 J1.557
G1 X66.6172 Y137.1701
G3 X66.809 Y137.2496 I-0.5103 J1.5033
G1 X67.4691 Y137.5751
G3 X67.6489 Y137.6789 I-0.7021 J1.4238
G1 X68.2608 Y138.0877
G3 X68.4255 Y138.2142 I-0.882 J1.32
G1 X68.9788 Y138.6994
G3 X69.1257 Y138.8462 I-1.0467 J1.1935
G1 X69.6109 Y139.3995
G3 X69.7373 Y139.5643 I-1.1935 J1.0467
G1 X70.1462 Y140.1762
G3 X70.25 Y140.356 I-1.32 J0.882
G1 X70.5755 Y141.0161
G3 X70.655 Y141.2079 I-1.4238 J0.7021
G1 X70.8915 Y141.9048
G3 X70.9453 Y142.1054 I-1.5033 J0.5103
G1 X71.0548 Y142.656
G1 X71.4125 Y143.4669
G1 Y131.7568
G0 Z3.0
G0 X67.6025
G0 Z-1.0
G1 F300.0 Z-3.0
G1 F800.0 X67.145 Y131.9121
G3 X66.463 Y132.0948 I-1.735 J-5.1111
G1 X65.7412 Y132.2384
G3 X65.0412 Y132.3306 I-1.053 J-5.2938
G1 X64.4832 Y132.3671
G1 X63.9067 Y132.443
G1 X63.8628 Y132.4612
G1 X63.8251 Y132.4902
G1 X63.7961 Y132.5279
G1 X63.778 Y132.5718
G1 X63.7717 Y132.6189
G1 X63.778 Y132.666
G1 X63.7961 Y132.71
G1 X63.8251 Y132.7477
G1 X63.8628 Y132.7766
G1 X63.9067 Y132.7948
G1 X64.4832 Y132.8707
G1 X65.0412 Y132.9073
G3 X65.7412 Y132.9994 I-0.353 J5.3859
G1 X66.463 Y133.143
G3 X67.145 Y133.3257 I-1.053 J5.2938
G1 X67.6025 Y133.481
G1 Y131.7568
G1 F300.0 X68.8725
G1 F800.0 Y129.789
G3 X68.5925 Y129.9408 I-2.1056 J-3.55
G1 X67.9324 Y130.2663
G3 X67.4336 Y130.4729 I-1.8255 J-3.7018
G1 X66.7367 Y130.7095
G3 X66.2152 Y130.8492 I-1.3267 J-3.9085
G1 X65.4934 Y130.9928
G3 X64.9581 Y131.0633 I-0.8052 J-4.0482
G1 X64.3586 Y131.1026
G1 X63.5752 Y131.2057
G1 X63.2223 Y131.3519
G1 X62.9193 Y131.5844
G1 X62.6868 Y131.8874
G1 X62.5406 Y132.2402
G1 X62.4908 Y132.6189
G1 X62.5406 Y132.9976
G1 X62.6868 Y133.3504
G1 X62.9193 Y133.6534
G1 X63.2223 Y133.8859
G1 X63.5752 Y134.0321
G1 X64.3586 Y134.1352
G1 X64.9581 Y134.1745
G3 X65.4934 Y134.245 I-0.27 J4.1187
G1 X66.2152 Y134.3886
G3 X66.7367 Y134.5283 I-0.8052 J4.0482
G1 X67.4336 Y134.7649
G3 X67.9324 Y134.9715 I-1.3267 J3.9085
G1 X68.5925 Y135.297
G3 X68.8725 Y135.4488 I-1.8255 J3.7018
G1 Y131.7568
G1 F300.0 X70.1425
G1 F800.0 Y127.1583
G1 X70.0805 Y127.229
G3 X69.8162 Y127.4933 I-2.1484 J-1.8841
G1 X69.2629 Y127.9785
G3 X68.9664 Y128.206 I-1.8841 J-2.1484
G1 X68.3545 Y128.6149
G3 X68.0308 Y128.8018 I-1.5875 J-2.3759
G1 X67.3707 Y129.1273
G3 X67.0254 Y129.2703 I-1.2638 J-2.5628
G1 X66.3285 Y129.5069
G3 X65.9675 Y129.6036 I-0.9185 J-2.7059
G1 X65.2457 Y129.7472
G3 X64.8751 Y129.796 I-0.5575 J-2.8026
G1 X64.2341 Y129.838
G1 X63.2436 Y129.9684
G1 X62.5818 Y130.2425
G1 X62.0135 Y130.6786
G1 X61.5775 Y131.2469
G1 X61.3033 Y131.9087
G1 X61.2098 Y132.6189
G1 X61.3033 Y133.3291
G1 X61.5775 Y133.9909
G1 X62.0135 Y134.5592
G1 X62.5818 Y134.9953
G1 X63.2436 Y135.2694
G1 X64.2341 Y135.3998
G1 X64.8751 Y135.4418
G3 X65.2457 Y135.4906 I-0.1869 J2.8514
G1 X65.9675 Y135.6342
G3 X66.3285 Y135.7309 I-0.5575 J2.8026
G1 X67.0254 Y135.9675
G3 X67.3707 Y136.1105 I-0.9185 J2.7059
G1 X68.0308 Y136.436
G3 X68.3545 Y136.6229 I-1.2638 J2.5628
G1 X68.9664 Y137.0318
G3 X69.2629 Y137.2593 I-1.5875 J2.3759
G1 X69.8162 Y137.7446
G3 X70.0805 Y138.0089 I-1.8841 J2.1484
G1 X70.1425 Y138.0795
G1 Y131.7568
G1 F300.0 X71.4125
G1 F800.0 Y121.8677
G1 X71.0487 Y122.6126
G1 X70.9453 Y123.1324
G3 X70.8915 Y123.333 I-1.557 J-0.3097
G1 X70.655 Y124.0299
G3 X70.5755 Y124.2218 I-1.5033 J-0.5103
G1 X70.25 Y124.8818
G3 X70.1462 Y125.0616 I-1.4238 J-0.7021
G1 X69.7373 Y125.6735
G3 X69.6109 Y125.8383 I-1.32 J-0.882
G1 X69.1257 Y126.3916
G3 X68.9788 Y126.5384 I-1.1935 J-1.0467
G1 X68.4255 Y127.0237
G3 X68.2608 Y127.1501 I-1.0467 J-1.1935
G1 X67.6489 Y127.5589
G3 X67.4691 Y127.6628 I-0.882 J-1.32
G1 X66.809 Y127.9883
G3 X66.6172 Y128.0677 I-0.7021 J-1.4238
G1 X65.9203 Y128.3043
G3 X65.7197 Y128.358 I-0.5103 J-1.5033
G1 X64.9979 Y128.5016
G3 X64.792 Y128.5287 I-0.3097 J-1.557
G1 X64.1095 Y128.5734
G1 X62.9121 Y128.7311
G1 X61.9414 Y129.1332
G1 X61.1078 Y129.7728
G1 X60.4681 Y130.6064
G1 X60.066 Y131.5772
G1 X59.9289 Y132.6189
G1 X60.066 Y133.6606
G1 X60.4681 Y134.6314
G1 X61.1078 Y135.465
G1 X61.9414 Y136.1046
G1 X62.9121 Y136.5067
G1 X64.1095 Y136.6644
G1 X64.792 Y136.7091
G3 X64.9979 Y136.7362 I-0.1038 J1.5841
G1 X65.7197 Y136.8798
G3 X65.9203 Y136.9335 I-0.3097 J1.557
G1 X66.6172 Y137.1701
G3 X66.809 Y137.2496 I-0.5103 J1.5033
G1 X67.4691 Y137.5751
G3 X67.6489 Y137.6789 I-0.7021 J1.4238
G1 X68.2608 Y138.0877
G3 X68.4255 Y138.2142 I-0.882 J1.32
G1 X68.9788 Y138.6994
G3 X69.1257 Y138.8462 I-1.0467 J1.1935
G1 X69.6109 Y139.3995
G3 X69.7373 Y139.5643 I-1.1935 J1.0467
G1 X70.1462 Y140.1762
G3 X70.25 Y140.356 I-1.32 J0.882
G1 X70.5755 Y141.0161
G3 X70.655 Y141.2079 I-1.4238 J0.7021
G1 X70.8915 Y141.9048
G3 X70.9453 Y142.1054 I-1.5033 J0.5103
G1 X71.0548 Y142.656
G1 X71.4125 Y143.4669
G1 Y131.7568
G0 Z3.0
M5
M30
