( Made using CamBam - http://www.cambam.co.uk )
( structure_back 5/19/2016 11:21:35 PM )
( T4 : 3.175 )
G21 G90 G64 G40
G0 Z3.0
( T4 : 3.175 )
T4 M6
( Contour1 )
G17
M3 S1000
G0 X20.4125 Y407.5875
G0 Z1.0
G1 F300.0 Z-1.0
G1 F800.0 X11.5875
G1 Y412.4125
G1 X20.4125
G1 Y407.5875
G1 F300.0 Z-2.0
G1 F800.0 X11.5875
G1 Y412.4125
G1 X20.4125
G1 Y407.5875
G1 F300.0 Z-3.0
G1 F800.0 X11.5875
G1 Y412.4125
G1 X20.4125
G1 Y407.5875
G1 F300.0 Z-4.0
G1 F800.0 X11.5875
G1 Y412.4125
G1 X20.4125
G1 Y407.5875
G1 F300.0 Z-5.0
G1 F800.0 X11.5875
G1 Y412.4125
G1 X20.4125
G1 Y407.5875
G1 F300.0 Z-6.0
G1 F800.0 X11.5875
G1 Y412.4125
G1 X20.4125
G1 Y407.5875
G0 Z3.0
G0 X17.4125 Y397.4125
G0 Z1.0
G1 F300.0 Z-1.0
G1 F800.0 Y393.75
G3 X19.0 Y392.1625 I1.5875 J0.0
G1 X20.4125
G1 Y391.8375
G1 X11.5875
G1 Y392.1625
G1 X13.0
G3 X14.5875 Y393.75 I0.0 J1.5875
G1 Y397.4125
G1 X17.4125
G1 F300.0 Z-2.0
G1 F800.0 Y393.75
G3 X19.0 Y392.1625 I1.5875 J0.0
G1 X20.4125
G1 Y391.8375
G1 X11.5875
G1 Y392.1625
G1 X13.0
G3 X14.5875 Y393.75 I0.0 J1.5875
G1 Y397.4125
G1 X17.4125
G1 F300.0 Z-3.0
G1 F800.0 Y393.75
G3 X19.0 Y392.1625 I1.5875 J0.0
G1 X20.4125
G1 Y391.8375
G1 X11.5875
G1 Y392.1625
G1 X13.0
G3 X14.5875 Y393.75 I0.0 J1.5875
G1 Y397.4125
G1 X17.4125
G1 F300.0 Z-4.0
G1 F800.0 Y393.75
G3 X19.0 Y392.1625 I1.5875 J0.0
G1 X20.4125
G1 Y391.8375
G1 X11.5875
G1 Y392.1625
G1 X13.0
G3 X14.5875 Y393.75 I0.0 J1.5875
G1 Y397.4125
G1 X17.4125
G1 F300.0 Z-5.0
G1 F800.0 Y393.75
G3 X19.0 Y392.1625 I1.5875 J0.0
G1 X20.4125
G1 Y391.8375
G1 X11.5875
G1 Y392.1625
G1 X13.0
G3 X14.5875 Y393.75 I0.0 J1.5875
G1 Y397.4125
G1 X17.4125
G1 F300.0 Z-6.0
G1 F800.0 Y393.75
G3 X19.0 Y392.1625 I1.5875 J0.0
G1 X20.4125
G1 Y391.8375
G1 X11.5875
G1 Y392.1625
G1 X13.0
G3 X14.5875 Y393.75 I0.0 J1.5875
G1 Y397.4125
G1 X17.4125
G0 Z3.0
G0 Y422.5875
G0 Z1.0
G1 F300.0 Z-1.0
G1 F800.0 X16.0
G1 X14.5875
G1 Y426.25
G3 X13.0 Y427.8375 I-1.5875 J0.0
G1 X11.5875
G1 Y428.1625
G1 X20.4125
G1 Y427.8375
G1 X19.0
G3 X17.4125 Y426.25 I0.0 J-1.5875
G1 Y422.5875
G1 F300.0 Z-2.0
G1 F800.0 X16.0
G1 X14.5875
G1 Y426.25
G3 X13.0 Y427.8375 I-1.5875 J0.0
G1 X11.5875
G1 Y428.1625
G1 X20.4125
G1 Y427.8375
G1 X19.0
G3 X17.4125 Y426.25 I0.0 J-1.5875
G1 Y422.5875
G1 F300.0 Z-3.0
G1 F800.0 X16.0
G1 X14.5875
G1 Y426.25
G3 X13.0 Y427.8375 I-1.5875 J0.0
G1 X11.5875
G1 Y428.1625
G1 X20.4125
G1 Y427.8375
G1 X19.0
G3 X17.4125 Y426.25 I0.0 J-1.5875
G1 Y422.5875
G1 F300.0 Z-4.0
G1 F800.0 X16.0
G1 X14.5875
G1 Y426.25
G3 X13.0 Y427.8375 I-1.5875 J0.0
G1 X11.5875
G1 Y428.1625
G1 X20.4125
G1 Y427.8375
G1 X19.0
G3 X17.4125 Y426.25 I0.0 J-1.5875
G1 Y422.5875
G1 F300.0 Z-5.0
G1 F800.0 X16.0
G1 X14.5875
G1 Y426.25
G3 X13.0 Y427.8375 I-1.5875 J0.0
G1 X11.5875
G1 Y428.1625
G1 X20.4125
G1 Y427.8375
G1 X19.0
G3 X17.4125 Y426.25 I0.0 J-1.5875
G1 Y422.5875
G1 F300.0 Z-6.0
G1 F800.0 X16.0
G1 X14.5875
G1 Y426.25
G3 X13.0 Y427.8375 I-1.5875 J0.0
G1 X11.5875
G1 Y428.1625
G1 X20.4125
G1 Y427.8375
G1 X19.0
G3 X17.4125 Y426.25 I0.0 J-1.5875
G1 Y422.5875
G0 Z3.0
G0 X81.8375 Y489.5875
G0 Z1.0
G1 F300.0 Z-1.0
G1 F800.0 Y498.4125
G1 X82.1625
G1 Y497.0
G3 X83.75 Y495.4125 I1.5875 J0.0
G1 X87.4125
G1 Y492.5875
G1 X83.75
G3 X82.1625 Y491.0 I0.0 J-1.5875
G1 Y489.5875
G1 X81.8375
G1 F300.0 Z-2.0
G1 F800.0 Y498.4125
G1 X82.1625
G1 Y497.0
G3 X83.75 Y495.4125 I1.5875 J0.0
G1 X87.4125
G1 Y492.5875
G1 X83.75
G3 X82.1625 Y491.0 I0.0 J-1.5875
G1 Y489.5875
G1 X81.8375
G1 F300.0 Z-3.0
G1 F800.0 Y498.4125
G1 X82.1625
G1 Y497.0
G3 X83.75 Y495.4125 I1.5875 J0.0
G1 X87.4125
G1 Y492.5875
G1 X83.75
G3 X82.1625 Y491.0 I0.0 J-1.5875
G1 Y489.5875
G1 X81.8375
G1 F300.0 Z-4.0
G1 F800.0 Y498.4125
G1 X82.1625
G1 Y497.0
G3 X83.75 Y495.4125 I1.5875 J0.0
G1 X87.4125
G1 Y492.5875
G1 X83.75
G3 X82.1625 Y491.0 I0.0 J-1.5875
G1 Y489.5875
G1 X81.8375
G1 F300.0 Z-5.0
G1 F800.0 Y498.4125
G1 X82.1625
G1 Y497.0
G3 X83.75 Y495.4125 I1.5875 J0.0
G1 X87.4125
G1 Y492.5875
G1 X83.75
G3 X82.1625 Y491.0 I0.0 J-1.5875
G1 Y489.5875
G1 X81.8375
G1 F300.0 Z-6.0
G1 F800.0 Y498.4125
G1 X82.1625
G1 Y497.0
G3 X83.75 Y495.4125 I1.5875 J0.0
G1 X87.4125
G1 Y492.5875
G1 X83.75
G3 X82.1625 Y491.0 I0.0 J-1.5875
G1 Y489.5875
G1 X81.8375
G0 Z3.0
G0 X97.5875
G0 Z1.0
G1 F300.0 Z-1.0
G1 F800.0 Y498.4125
G1 X102.4125
G1 Y489.5875
G1 X97.5875
G1 F300.0 Z-2.0
G1 F800.0 Y498.4125
G1 X102.4125
G1 Y489.5875
G1 X97.5875
G1 F300.0 Z-3.0
G1 F800.0 Y498.4125
G1 X102.4125
G1 Y489.5875
G1 X97.5875
G1 F300.0 Z-4.0
G1 F800.0 Y498.4125
G1 X102.4125
G1 Y489.5875
G1 X97.5875
G1 F300.0 Z-5.0
G1 F800.0 Y498.4125
G1 X102.4125
G1 Y489.5875
G1 X97.5875
G1 F300.0 Z-6.0
G1 F800.0 Y498.4125
G1 X102.4125
G1 Y489.5875
G1 X97.5875
G0 Z3.0
G0 X112.5875 Y492.5875
G0 Z1.0
G1 F300.0 Z-1.0
G1 F800.0 Y494.0
G1 Y495.4125
G1 X116.25
G3 X117.8375 Y497.0 I0.0 J1.5875
G1 Y498.4125
G1 X118.1625
G1 Y489.5875
G1 X117.8375
G1 Y491.0
G3 X116.25 Y492.5875 I-1.5875 J0.0
G1 X112.5875
G1 F300.0 Z-2.0
G1 F800.0 Y494.0
G1 Y495.4125
G1 X116.25
G3 X117.8375 Y497.0 I0.0 J1.5875
G1 Y498.4125
G1 X118.1625
G1 Y489.5875
G1 X117.8375
G1 Y491.0
G3 X116.25 Y492.5875 I-1.5875 J0.0
G1 X112.5875
G1 F300.0 Z-3.0
G1 F800.0 Y494.0
G1 Y495.4125
G1 X116.25
G3 X117.8375 Y497.0 I0.0 J1.5875
G1 Y498.4125
G1 X118.1625
G1 Y489.5875
G1 X117.8375
G1 Y491.0
G3 X116.25 Y492.5875 I-1.5875 J0.0
G1 X112.5875
G1 F300.0 Z-4.0
G1 F800.0 Y494.0
G1 Y495.4125
G1 X116.25
G3 X117.8375 Y497.0 I0.0 J1.5875
G1 Y498.4125
G1 X118.1625
G1 Y489.5875
G1 X117.8375
G1 Y491.0
G3 X116.25 Y492.5875 I-1.5875 J0.0
G1 X112.5875
G1 F300.0 Z-5.0
G1 F800.0 Y494.0
G1 Y495.4125
G1 X116.25
G3 X117.8375 Y497.0 I0.0 J1.5875
G1 Y498.4125
G1 X118.1625
G1 Y489.5875
G1 X117.8375
G1 Y491.0
G3 X116.25 Y492.5875 I-1.5875 J0.0
G1 X112.5875
G1 F300.0 Z-6.0
G1 F800.0 Y494.0
G1 Y495.4125
G1 X116.25
G3 X117.8375 Y497.0 I0.0 J1.5875
G1 Y498.4125
G1 X118.1625
G1 Y489.5875
G1 X117.8375
G1 Y491.0
G3 X116.25 Y492.5875 I-1.5875 J0.0
G1 X112.5875
G0 Z3.0
G0 X179.5875 Y428.1625
G0 Z1.0
G1 F300.0 Z-1.0
G1 F800.0 X188.4125
G1 Y427.8375
G1 X187.0
G3 X185.4125 Y426.25 I0.0 J-1.5875
G1 Y422.5875
G1 X184.0
G1 X182.5875
G1 Y426.25
G3 X181.0 Y427.8375 I-1.5875 J0.0
G1 X179.5875
G1 Y428.1625
G1 F300.0 Z-2.0
G1 F800.0 X188.4125
G1 Y427.8375
G1 X187.0
G3 X185.4125 Y426.25 I0.0 J-1.5875
G1 Y422.5875
G1 X184.0
G1 X182.5875
G1 Y426.25
G3 X181.0 Y427.8375 I-1.5875 J0.0
G1 X179.5875
G1 Y428.1625
G1 F300.0 Z-3.0
G1 F800.0 X188.4125
G1 Y427.8375
G1 X187.0
G3 X185.4125 Y426.25 I0.0 J-1.5875
G1 Y422.5875
G1 X184.0
G1 X182.5875
G1 Y426.25
G3 X181.0 Y427.8375 I-1.5875 J0.0
G1 X179.5875
G1 Y428.1625
G1 F300.0 Z-4.0
G1 F800.0 X188.4125
G1 Y427.8375
G1 X187.0
G3 X185.4125 Y426.25 I0.0 J-1.5875
G1 Y422.5875
G1 X184.0
G1 X182.5875
G1 Y426.25
G3 X181.0 Y427.8375 I-1.5875 J0.0
G1 X179.5875
G1 Y428.1625
G1 F300.0 Z-5.0
G1 F800.0 X188.4125
G1 Y427.8375
G1 X187.0
G3 X185.4125 Y426.25 I0.0 J-1.5875
G1 Y422.5875
G1 X184.0
G1 X182.5875
G1 Y426.25
G3 X181.0 Y427.8375 I-1.5875 J0.0
G1 X179.5875
G1 Y428.1625
G1 F300.0 Z-6.0
G1 F800.0 X188.4125
G1 Y427.8375
G1 X187.0
G3 X185.4125 Y426.25 I0.0 J-1.5875
G1 Y422.5875
G1 X184.0
G1 X182.5875
G1 Y426.25
G3 X181.0 Y427.8375 I-1.5875 J0.0
G1 X179.5875
G1 Y428.1625
G0 Z3.0
G0 Y412.4125
G0 Z1.0
G1 F300.0 Z-1.0
G1 F800.0 X188.4125
G1 Y409.49
G1 Y407.5875
G1 X179.5875
G1 Y412.4125
G1 F300.0 Z-2.0
G1 F800.0 X188.4125
G1 Y409.49
G1 Y407.5875
G1 X179.5875
G1 Y412.4125
G1 F300.0 Z-3.0
G1 F800.0 X188.4125
G1 Y409.49
G1 Y407.5875
G1 X179.5875
G1 Y412.4125
G1 F300.0 Z-4.0
G1 F800.0 X188.4125
G1 Y409.49
G1 Y407.5875
G1 X179.5875
G1 Y412.4125
G1 F300.0 Z-5.0
G1 F800.0 X188.4125
G1 Y409.49
G1 Y407.5875
G1 X179.5875
G1 Y412.4125
G1 F300.0 Z-6.0
G1 F800.0 X188.4125
G1 Y409.49
G1 Y407.5875
G1 X179.5875
G1 Y412.4125
G0 Z3.0
G0 X182.5875 Y397.4125
G0 Z1.0
G1 F300.0 Z-1.0
G1 F800.0 X185.4125
G1 Y393.75
G3 X187.0 Y392.1625 I1.5875 J0.0
G1 X188.4125
G1 Y391.8375
G1 X179.5875
G1 Y392.1625
G1 X181.0
G3 X182.5875 Y393.75 I0.0 J1.5875
G1 Y397.4125
G1 F300.0 Z-2.0
G1 F800.0 X185.4125
G1 Y393.75
G3 X187.0 Y392.1625 I1.5875 J0.0
G1 X188.4125
G1 Y391.8375
G1 X179.5875
G1 Y392.1625
G1 X181.0
G3 X182.5875 Y393.75 I0.0 J1.5875
G1 Y397.4125
G1 F300.0 Z-3.0
G1 F800.0 X185.4125
G1 Y393.75
G3 X187.0 Y392.1625 I1.5875 J0.0
G1 X188.4125
G1 Y391.8375
G1 X179.5875
G1 Y392.1625
G1 X181.0
G3 X182.5875 Y393.75 I0.0 J1.5875
G1 Y397.4125
G1 F300.0 Z-4.0
G1 F800.0 X185.4125
G1 Y393.75
G3 X187.0 Y392.1625 I1.5875 J0.0
G1 X188.4125
G1 Y391.8375
G1 X179.5875
G1 Y392.1625
G1 X181.0
G3 X182.5875 Y393.75 I0.0 J1.5875
G1 Y397.4125
G1 F300.0 Z-5.0
G1 F800.0 X185.4125
G1 Y393.75
G3 X187.0 Y392.1625 I1.5875 J0.0
G1 X188.4125
G1 Y391.8375
G1 X179.5875
G1 Y392.1625
G1 X181.0
G3 X182.5875 Y393.75 I0.0 J1.5875
G1 Y397.4125
G1 F300.0 Z-6.0
G1 F800.0 X185.4125
G1 Y393.75
G3 X187.0 Y392.1625 I1.5875 J0.0
G1 X188.4125
G1 Y391.8375
G1 X179.5875
G1 Y392.1625
G1 X181.0
G3 X182.5875 Y393.75 I0.0 J1.5875
G1 Y397.4125
G0 Z3.0
G0 Y168.1625
G0 Z1.0
G1 F300.0 Z-1.0
G1 F800.0 X188.4125
G1 Y167.8375
G1 X187.0
G3 X185.4125 Y166.25 I0.0 J-1.5875
G1 Y162.5875
G1 X184.0
G1 X182.5875
G1 Y166.25
G3 X181.0 Y167.8375 I-1.5875 J0.0
G1 X179.5875
G1 Y168.1625
G1 X182.5875
G1 F300.0 Z-2.0
G1 F800.0 X188.4125
G1 Y167.8375
G1 X187.0
G3 X185.4125 Y166.25 I0.0 J-1.5875
G1 Y162.5875
G1 X184.0
G1 X182.5875
G1 Y166.25
G3 X181.0 Y167.8375 I-1.5875 J0.0
G1 X179.5875
G1 Y168.1625
G1 X182.5875
G1 F300.0 Z-3.0
G1 F800.0 X188.4125
G1 Y167.8375
G1 X187.0
G3 X185.4125 Y166.25 I0.0 J-1.5875
G1 Y162.5875
G1 X184.0
G1 X182.5875
G1 Y166.25
G3 X181.0 Y167.8375 I-1.5875 J0.0
G1 X179.5875
G1 Y168.1625
G1 X182.5875
G1 F300.0 Z-4.0
G1 F800.0 X188.4125
G1 Y167.8375
G1 X187.0
G3 X185.4125 Y166.25 I0.0 J-1.5875
G1 Y162.5875
G1 X184.0
G1 X182.5875
G1 Y166.25
G3 X181.0 Y167.8375 I-1.5875 J0.0
G1 X179.5875
G1 Y168.1625
G1 X182.5875
G1 F300.0 Z-5.0
G1 F800.0 X188.4125
G1 Y167.8375
G1 X187.0
G3 X185.4125 Y166.25 I0.0 J-1.5875
G1 Y162.5875
G1 X184.0
G1 X182.5875
G1 Y166.25
G3 X181.0 Y167.8375 I-1.5875 J0.0
G1 X179.5875
G1 Y168.1625
G1 X182.5875
G1 F300.0 Z-6.0
G1 F800.0 X188.4125
G1 Y167.8375
G1 X187.0
G3 X185.4125 Y166.25 I0.0 J-1.5875
G1 Y162.5875
G1 X184.0
G1 X182.5875
G1 Y166.25
G3 X181.0 Y167.8375 I-1.5875 J0.0
G1 X179.5875
G1 Y168.1625
G1 X182.5875
G0 Z3.0
G0 Y152.4125
G0 Z1.0
G1 F300.0 Z-1.0
G1 F800.0 X188.4125
G1 Y149.49
G1 Y147.5875
G1 X179.5875
G1 Y152.4125
G1 X182.5875
G1 F300.0 Z-2.0
G1 F800.0 X188.4125
G1 Y149.49
G1 Y147.5875
G1 X179.5875
G1 Y152.4125
G1 X182.5875
G1 F300.0 Z-3.0
G1 F800.0 X188.4125
G1 Y149.49
G1 Y147.5875
G1 X179.5875
G1 Y152.4125
G1 X182.5875
G1 F300.0 Z-4.0
G1 F800.0 X188.4125
G1 Y149.49
G1 Y147.5875
G1 X179.5875
G1 Y152.4125
G1 X182.5875
G1 F300.0 Z-5.0
G1 F800.0 X188.4125
G1 Y149.49
G1 Y147.5875
G1 X179.5875
G1 Y152.4125
G1 X182.5875
G1 F300.0 Z-6.0
G1 F800.0 X188.4125
G1 Y149.49
G1 Y147.5875
G1 X179.5875
G1 Y152.4125
G1 X182.5875
G0 Z3.0
G0 Y137.4125
G0 Z1.0
G1 F300.0 Z-1.0
G1 F800.0 X185.4125
G1 Y133.75
G3 X187.0 Y132.1625 I1.5875 J0.0
G1 X188.4125
G1 Y131.8375
G1 X179.5875
G1 Y132.1625
G1 X181.0
G3 X182.5875 Y133.75 I0.0 J1.5875
G1 Y137.4125
G1 F300.0 Z-2.0
G1 F800.0 X185.4125
G1 Y133.75
G3 X187.0 Y132.1625 I1.5875 J0.0
G1 X188.4125
G1 Y131.8375
G1 X179.5875
G1 Y132.1625
G1 X181.0
G3 X182.5875 Y133.75 I0.0 J1.5875
G1 Y137.4125
G1 F300.0 Z-3.0
G1 F800.0 X185.4125
G1 Y133.75
G3 X187.0 Y132.1625 I1.5875 J0.0
G1 X188.4125
G1 Y131.8375
G1 X179.5875
G1 Y132.1625
G1 X181.0
G3 X182.5875 Y133.75 I0.0 J1.5875
G1 Y137.4125
G1 F300.0 Z-4.0
G1 F800.0 X185.4125
G1 Y133.75
G3 X187.0 Y132.1625 I1.5875 J0.0
G1 X188.4125
G1 Y131.8375
G1 X179.5875
G1 Y132.1625
G1 X181.0
G3 X182.5875 Y133.75 I0.0 J1.5875
G1 Y137.4125
G1 F300.0 Z-5.0
G1 F800.0 X185.4125
G1 Y133.75
G3 X187.0 Y132.1625 I1.5875 J0.0
G1 X188.4125
G1 Y131.8375
G1 X179.5875
G1 Y132.1625
G1 X181.0
G3 X182.5875 Y133.75 I0.0 J1.5875
G1 Y137.4125
G1 F300.0 Z-6.0
G1 F800.0 X185.4125
G1 Y133.75
G3 X187.0 Y132.1625 I1.5875 J0.0
G1 X188.4125
G1 Y131.8375
G1 X179.5875
G1 Y132.1625
G1 X181.0
G3 X182.5875 Y133.75 I0.0 J1.5875
G1 Y137.4125
G0 Z3.0
G0 X20.4125 Y132.1625
G0 Z1.0
G1 F300.0 Z-1.0
G1 F800.0 Y131.8375
G1 X11.5875
G1 Y132.1625
G1 X13.0
G3 X14.5875 Y133.75 I0.0 J1.5875
G1 Y137.4125
G1 X17.4125
G1 Y133.75
G3 X19.0 Y132.1625 I1.5875 J0.0
G1 X20.4125
G1 F300.0 Z-2.0
G1 F800.0 Y131.8375
G1 X11.5875
G1 Y132.1625
G1 X13.0
G3 X14.5875 Y133.75 I0.0 J1.5875
G1 Y137.4125
G1 X17.4125
G1 Y133.75
G3 X19.0 Y132.1625 I1.5875 J0.0
G1 X20.4125
G1 F300.0 Z-3.0
G1 F800.0 Y131.8375
G1 X11.5875
G1 Y132.1625
G1 X13.0
G3 X14.5875 Y133.75 I0.0 J1.5875
G1 Y137.4125
G1 X17.4125
G1 Y133.75
G3 X19.0 Y132.1625 I1.5875 J0.0
G1 X20.4125
G1 F300.0 Z-4.0
G1 F800.0 Y131.8375
G1 X11.5875
G1 Y132.1625
G1 X13.0
G3 X14.5875 Y133.75 I0.0 J1.5875
G1 Y137.4125
G1 X17.4125
G1 Y133.75
G3 X19.0 Y132.1625 I1.5875 J0.0
G1 X20.4125
G1 F300.0 Z-5.0
G1 F800.0 Y131.8375
G1 X11.5875
G1 Y132.1625
G1 X13.0
G3 X14.5875 Y133.75 I0.0 J1.5875
G1 Y137.4125
G1 X17.4125
G1 Y133.75
G3 X19.0 Y132.1625 I1.5875 J0.0
G1 X20.4125
G1 F300.0 Z-6.0
G1 F800.0 Y131.8375
G1 X11.5875
G1 Y132.1625
G1 X13.0
G3 X14.5875 Y133.75 I0.0 J1.5875
G1 Y137.4125
G1 X17.4125
G1 Y133.75
G3 X19.0 Y132.1625 I1.5875 J0.0
G1 X20.4125
G0 Z3.0
G0 Y147.5875
G0 Z1.0
G1 F300.0 Z-1.0
G1 F800.0 X11.5875
G1 Y152.4125
G1 X20.4125
G1 Y147.5875
G1 F300.0 Z-2.0
G1 F800.0 X11.5875
G1 Y152.4125
G1 X20.4125
G1 Y147.5875
G1 F300.0 Z-3.0
G1 F800.0 X11.5875
G1 Y152.4125
G1 X20.4125
G1 Y147.5875
G1 F300.0 Z-4.0
G1 F800.0 X11.5875
G1 Y152.4125
G1 X20.4125
G1 Y147.5875
G1 F300.0 Z-5.0
G1 F800.0 X11.5875
G1 Y152.4125
G1 X20.4125
G1 Y147.5875
G1 F300.0 Z-6.0
G1 F800.0 X11.5875
G1 Y152.4125
G1 X20.4125
G1 Y147.5875
G0 Z3.0
G0 X17.4125 Y162.5875
G0 Z1.0
G1 F300.0 Z-1.0
G1 F800.0 X16.0
G1 X14.5875
G1 Y166.25
G3 X13.0 Y167.8375 I-1.5875 J0.0
G1 X11.5875
G1 Y168.1625
G1 X20.4125
G1 Y167.8375
G1 X19.0
G3 X17.4125 Y166.25 I0.0 J-1.5875
G1 Y162.5875
G1 F300.0 Z-2.0
G1 F800.0 X16.0
G1 X14.5875
G1 Y166.25
G3 X13.0 Y167.8375 I-1.5875 J0.0
G1 X11.5875
G1 Y168.1625
G1 X20.4125
G1 Y167.8375
G1 X19.0
G3 X17.4125 Y166.25 I0.0 J-1.5875
G1 Y162.5875
G1 F300.0 Z-3.0
G1 F800.0 X16.0
G1 X14.5875
G1 Y166.25
G3 X13.0 Y167.8375 I-1.5875 J0.0
G1 X11.5875
G1 Y168.1625
G1 X20.4125
G1 Y167.8375
G1 X19.0
G3 X17.4125 Y166.25 I0.0 J-1.5875
G1 Y162.5875
G1 F300.0 Z-4.0
G1 F800.0 X16.0
G1 X14.5875
G1 Y166.25
G3 X13.0 Y167.8375 I-1.5875 J0.0
G1 X11.5875
G1 Y168.1625
G1 X20.4125
G1 Y167.8375
G1 X19.0
G3 X17.4125 Y166.25 I0.0 J-1.5875
G1 Y162.5875
G1 F300.0 Z-5.0
G1 F800.0 X16.0
G1 X14.5875
G1 Y166.25
G3 X13.0 Y167.8375 I-1.5875 J0.0
G1 X11.5875
G1 Y168.1625
G1 X20.4125
G1 Y167.8375
G1 X19.0
G3 X17.4125 Y166.25 I0.0 J-1.5875
G1 Y162.5875
G1 F300.0 Z-6.0
G1 F800.0 X16.0
G1 X14.5875
G1 Y166.25
G3 X13.0 Y167.8375 I-1.5875 J0.0
G1 X11.5875
G1 Y168.1625
G1 X20.4125
G1 Y167.8375
G1 X19.0
G3 X17.4125 Y166.25 I0.0 J-1.5875
G1 Y162.5875
( Poche1 )
S1000
G0 Z3.0
G0 X1.5875 Y124.3875
G0 Z1.0
G1 F300.0 Z-1.0
G1 F800.0 Y124.4125
G1 X96.4308
G1 X103.5692
G1 X198.4125
G1 Y124.3875
G1 X1.5875
( Contour2 )
S1000
G0 Z3.0
G0 X-1.5875 Y126.0
G0 Z1.0
G1 F300.0 Z-1.0
G1 F800.0 Y122.8
G1 Y0.0
G3 X0.0 Y-1.5875 I1.5875 J0.0
G1 X15.0
G3 X16.5863 Y-0.0623 I0.0 J1.5875
G1 X16.8459 Y6.5444
G1 X17.6157 Y13.0484
G1 X18.8934 Y19.472
G1 X20.6712 Y25.7755
G1 X22.938 Y31.9201
G1 X25.68 Y37.8679
G1 X28.8802 Y43.5823
G1 X32.5189 Y49.0279
G1 X36.5736 Y54.1713
G1 X41.0193 Y58.9807
G1 X45.8287 Y63.4264
G1 X50.9721 Y67.4811
G1 X56.4177 Y71.1198
G1 X62.1321 Y74.32
G1 X68.0799 Y77.062
G1 X74.2245 Y79.3288
G1 X80.528 Y81.1066
G1 X86.9516 Y82.3843
G1 X93.4556 Y83.1541
G1 X100.0 Y83.4113
G1 X106.5444 Y83.1541
G1 X113.0484 Y82.3843
G1 X119.472 Y81.1066
G1 X125.7755 Y79.3288
G1 X131.9201 Y77.062
G1 X137.8679 Y74.32
G1 X143.5823 Y71.1198
G1 X149.0279 Y67.4811
G1 X154.1713 Y63.4264
G1 X158.9807 Y58.9807
G1 X163.4264 Y54.1713
G1 X167.4811 Y49.0279
G1 X171.1198 Y43.5823
G1 X174.32 Y37.8679
G1 X177.062 Y31.9201
G1 X179.3288 Y25.7755
G1 X181.1066 Y19.472
G1 X182.3843 Y13.0484
G1 X183.1541 Y6.5444
G1 X183.4137 Y-0.0623
G3 X185.0 Y-1.5875 I1.5863 J0.0623
G1 X200.0
G3 X201.5875 Y0.0 I0.0 J1.5875
G1 Y122.8
G1 Y126.0
G1 Y510.0
G3 X200.0 Y511.5875 I-1.5875 J0.0
G1 X0.0
G3 X-1.5875 Y510.0 I0.0 J-1.5875
G1 Y126.0
G1 F300.0 Z-2.0
G1 F800.0 Y122.8
G1 Y0.0
G3 X0.0 Y-1.5875 I1.5875 J0.0
G1 X15.0
G3 X16.5863 Y-0.0623 I0.0 J1.5875
G1 X16.8459 Y6.5444
G1 X17.6157 Y13.0484
G1 X18.8934 Y19.472
G1 X20.6712 Y25.7755
G1 X22.938 Y31.9201
G1 X25.68 Y37.8679
G1 X28.8802 Y43.5823
G1 X32.5189 Y49.0279
G1 X36.5736 Y54.1713
G1 X41.0193 Y58.9807
G1 X45.8287 Y63.4264
G1 X50.9721 Y67.4811
G1 X56.4177 Y71.1198
G1 X62.1321 Y74.32
G1 X68.0799 Y77.062
G1 X74.2245 Y79.3288
G1 X80.528 Y81.1066
G1 X86.9516 Y82.3843
G1 X93.4556 Y83.1541
G1 X100.0 Y83.4113
G1 X106.5444 Y83.1541
G1 X113.0484 Y82.3843
G1 X119.472 Y81.1066
G1 X125.7755 Y79.3288
G1 X131.9201 Y77.062
G1 X137.8679 Y74.32
G1 X143.5823 Y71.1198
G1 X149.0279 Y67.4811
G1 X154.1713 Y63.4264
G1 X158.9807 Y58.9807
G1 X163.4264 Y54.1713
G1 X167.4811 Y49.0279
G1 X171.1198 Y43.5823
G1 X174.32 Y37.8679
G1 X177.062 Y31.9201
G1 X179.3288 Y25.7755
G1 X181.1066 Y19.472
G1 X182.3843 Y13.0484
G1 X183.1541 Y6.5444
G1 X183.4137 Y-0.0623
G3 X185.0 Y-1.5875 I1.5863 J0.0623
G1 X200.0
G3 X201.5875 Y0.0 I0.0 J1.5875
G1 Y122.8
G1 Y126.0
G1 Y510.0
G3 X200.0 Y511.5875 I-1.5875 J0.0
G1 X0.0
G3 X-1.5875 Y510.0 I0.0 J-1.5875
G1 Y126.0
G1 F300.0 Z-3.0
G1 F800.0 Y122.8
G1 Y0.0
G3 X0.0 Y-1.5875 I1.5875 J0.0
G1 X15.0
G3 X16.5863 Y-0.0623 I0.0 J1.5875
G1 X16.8459 Y6.5444
G1 X17.6157 Y13.0484
G1 X18.8934 Y19.472
G1 X20.6712 Y25.7755
G1 X22.938 Y31.9201
G1 X25.68 Y37.8679
G1 X28.8802 Y43.5823
G1 X32.5189 Y49.0279
G1 X36.5736 Y54.1713
G1 X41.0193 Y58.9807
G1 X45.8287 Y63.4264
G1 X50.9721 Y67.4811
G1 X56.4177 Y71.1198
G1 X62.1321 Y74.32
G1 X68.0799 Y77.062
G1 X74.2245 Y79.3288
G1 X80.528 Y81.1066
G1 X86.9516 Y82.3843
G1 X93.4556 Y83.1541
G1 X100.0 Y83.4113
G1 X106.5444 Y83.1541
G1 X113.0484 Y82.3843
G1 X119.472 Y81.1066
G1 X125.7755 Y79.3288
G1 X131.9201 Y77.062
G1 X137.8679 Y74.32
G1 X143.5823 Y71.1198
G1 X149.0279 Y67.4811
G1 X154.1713 Y63.4264
G1 X158.9807 Y58.9807
G1 X163.4264 Y54.1713
G1 X167.4811 Y49.0279
G1 X171.1198 Y43.5823
G1 X174.32 Y37.8679
G1 X177.062 Y31.9201
G1 X179.3288 Y25.7755
G1 X181.1066 Y19.472
G1 X182.3843 Y13.0484
G1 X183.1541 Y6.5444
G1 X183.4137 Y-0.0623
G3 X185.0 Y-1.5875 I1.5863 J0.0623
G1 X200.0
G3 X201.5875 Y0.0 I0.0 J1.5875
G1 Y122.8
G1 Y126.0
G1 Y510.0
G3 X200.0 Y511.5875 I-1.5875 J0.0
G1 X0.0
G3 X-1.5875 Y510.0 I0.0 J-1.5875
G1 Y126.0
G1 F300.0 Z-4.0
G1 F800.0 Y122.8
G1 Y0.0
G3 X0.0 Y-1.5875 I1.5875 J0.0
G1 X15.0
G3 X16.5863 Y-0.0623 I0.0 J1.5875
G1 X16.8459 Y6.5444
G1 X17.6157 Y13.0484
G1 X18.8934 Y19.472
G1 X20.6712 Y25.7755
G1 X22.938 Y31.9201
G1 X25.68 Y37.8679
G1 X28.8802 Y43.5823
G1 X32.5189 Y49.0279
G1 X36.5736 Y54.1713
G1 X41.0193 Y58.9807
G1 X45.8287 Y63.4264
G1 X50.9721 Y67.4811
G1 X56.4177 Y71.1198
G1 X62.1321 Y74.32
G1 X68.0799 Y77.062
G1 X74.2245 Y79.3288
G1 X80.528 Y81.1066
G1 X86.9516 Y82.3843
G1 X93.4556 Y83.1541
G1 X100.0 Y83.4113
G1 X106.5444 Y83.1541
G1 X113.0484 Y82.3843
G1 X119.472 Y81.1066
G1 X125.7755 Y79.3288
G1 X131.9201 Y77.062
G1 X137.8679 Y74.32
G1 X143.5823 Y71.1198
G1 X149.0279 Y67.4811
G1 X154.1713 Y63.4264
G1 X158.9807 Y58.9807
G1 X163.4264 Y54.1713
G1 X167.4811 Y49.0279
G1 X171.1198 Y43.5823
G1 X174.32 Y37.8679
G1 X177.062 Y31.9201
G1 X179.3288 Y25.7755
G1 X181.1066 Y19.472
G1 X182.3843 Y13.0484
G1 X183.1541 Y6.5444
G1 X183.4137 Y-0.0623
G3 X185.0 Y-1.5875 I1.5863 J0.0623
G1 X200.0
G3 X201.5875 Y0.0 I0.0 J1.5875
G1 Y122.8
G1 Y126.0
G1 Y510.0
G3 X200.0 Y511.5875 I-1.5875 J0.0
G1 X0.0
G3 X-1.5875 Y510.0 I0.0 J-1.5875
G1 Y126.0
G1 F300.0 Z-5.0
G1 F800.0 Y122.8
G1 Y0.0
G3 X0.0 Y-1.5875 I1.5875 J0.0
G1 X15.0
G3 X16.5863 Y-0.0623 I0.0 J1.5875
G1 X16.8459 Y6.5444
G1 X17.6157 Y13.0484
G1 X18.8934 Y19.472
G1 X20.6712 Y25.7755
G1 X22.938 Y31.9201
G1 X25.68 Y37.8679
G1 X28.8802 Y43.5823
G1 X32.5189 Y49.0279
G1 X36.5736 Y54.1713
G1 X41.0193 Y58.9807
G1 X45.8287 Y63.4264
G1 X50.9721 Y67.4811
G1 X56.4177 Y71.1198
G1 X62.1321 Y74.32
G1 X68.0799 Y77.062
G1 X74.2245 Y79.3288
G1 X80.528 Y81.1066
G1 X86.9516 Y82.3843
G1 X93.4556 Y83.1541
G1 X100.0 Y83.4113
G1 X106.5444 Y83.1541
G1 X113.0484 Y82.3843
G1 X119.472 Y81.1066
G1 X125.7755 Y79.3288
G1 X131.9201 Y77.062
G1 X137.8679 Y74.32
G1 X143.5823 Y71.1198
G1 X149.0279 Y67.4811
G1 X154.1713 Y63.4264
G1 X158.9807 Y58.9807
G1 X163.4264 Y54.1713
G1 X167.4811 Y49.0279
G1 X171.1198 Y43.5823
G1 X174.32 Y37.8679
G1 X177.062 Y31.9201
G1 X179.3288 Y25.7755
G1 X181.1066 Y19.472
G1 X182.3843 Y13.0484
G1 X183.1541 Y6.5444
G1 X183.4137 Y-0.0623
G3 X185.0 Y-1.5875 I1.5863 J0.0623
G1 X200.0
G3 X201.5875 Y0.0 I0.0 J1.5875
G1 Y122.8
G1 Y126.0
G1 Y510.0
G3 X200.0 Y511.5875 I-1.5875 J0.0
G1 X0.0
G3 X-1.5875 Y510.0 I0.0 J-1.5875
G1 Y126.0
G1 F300.0 Z-6.0
G1 F800.0 Y122.8
G1 Y0.0
G3 X0.0 Y-1.5875 I1.5875 J0.0
G1 X15.0
G3 X16.5863 Y-0.0623 I0.0 J1.5875
G1 X16.8459 Y6.5444
G1 X17.6157 Y13.0484
G1 X18.8934 Y19.472
G1 X20.6712 Y25.7755
G1 X22.938 Y31.9201
G1 X25.68 Y37.8679
G1 X28.8802 Y43.5823
G1 X32.5189 Y49.0279
G1 X36.5736 Y54.1713
G1 X41.0193 Y58.9807
G1 X45.8287 Y63.4264
G1 X50.9721 Y67.4811
G1 X56.4177 Y71.1198
G1 X62.1321 Y74.32
G1 X68.0799 Y77.062
G1 X74.2245 Y79.3288
G1 X80.528 Y81.1066
G1 X86.9516 Y82.3843
G1 X93.4556 Y83.1541
G1 X100.0 Y83.4113
G1 X106.5444 Y83.1541
G1 X113.0484 Y82.3843
G1 X119.472 Y81.1066
G1 X125.7755 Y79.3288
G1 X131.9201 Y77.062
G1 X137.8679 Y74.32
G1 X143.5823 Y71.1198
G1 X149.0279 Y67.4811
G1 X154.1713 Y63.4264
G1 X158.9807 Y58.9807
G1 X163.4264 Y54.1713
G1 X167.4811 Y49.0279
G1 X171.1198 Y43.5823
G1 X174.32 Y37.8679
G1 X177.062 Y31.9201
G1 X179.3288 Y25.7755
G1 X181.1066 Y19.472
G1 X182.3843 Y13.0484
G1 X183.1541 Y6.5444
G1 X183.4137 Y-0.0623
G3 X185.0 Y-1.5875 I1.5863 J0.0623
G1 X200.0
G3 X201.5875 Y0.0 I0.0 J1.5875
G1 Y122.8
G1 Y126.0
G1 Y510.0
G3 X200.0 Y511.5875 I-1.5875 J0.0
G1 X0.0
G3 X-1.5875 Y510.0 I0.0 J-1.5875
G1 Y126.0
G0 Z3.0
M5
M30
